(G-CODE GENERATED BY FLATCAM v8.994 - www.flatcam.org - Version Date: 2020/11/7)

(Name: RGB-F_Cu.gbr_iso_combined_cnc)
(Type: G-code from Geometry)
(Units: MM)

(Created on Thursday, 14 September 2023 at 19:04)

(This preprocessor is the default preprocessor used by FlatCAM.)
(It is made to work with MACH3 compatible motion controllers.)

(TOOL DIAMETER: 0.2536 mm)
(Feedrate_XY: 120.0 mm/min)
(Feedrate_Z: 60.0 mm/min)
(Feedrate rapids 1500.0 mm/min)

(Z_Cut: -0.1 mm)
(Z_Move: 2.0 mm)
(Z Start: None mm)
(Z End: 15.0 mm)
(X,Y End: None mm)
(Steps per circle: 64)
(Preprocessor Geometry: default)

(X range:   -0.6473 ...   35.5963  mm)
(Y range:   -0.6403 ...   19.7283  mm)

(Spindle Speed: 0.0 RPM)
G21
G90
G94

G01 F120.00

M5
G00 Z15.0000
G00 X0.0000 Y0.0000
T1M6    
(MSG, Change to Tool Dia = 0.2536)
M0
G00 Z15.0000

M03
G01 F120.00
G00 X6.1771 Y9.4764
G01 F60.00
G01 Z-0.1000
G01 F120.00
G01 X6.2666 Y9.4810
G01 X6.3614 Y9.4950
G01 X6.4544 Y9.5183
G01 X6.5388 Y9.5484
G01 X6.5503 Y9.5531
G01 X6.6257 Y9.5888
G01 X6.6367 Y9.5947
G01 X6.7135 Y9.6409
G01 X6.7881 Y9.6960
G01 X6.7952 Y9.7020
G01 X6.8570 Y9.7581
G01 X6.8658 Y9.7669
G01 X6.9259 Y9.8334
G01 X6.9794 Y9.9053
G01 X6.9847 Y9.9130
G01 X7.0323 Y9.9926
G01 X7.0721 Y10.0764
G01 X7.0755 Y10.0851
G01 X7.1046 Y10.1665
G01 X7.1072 Y10.1755
G01 X7.1137 Y10.2012
G01 X12.0141 Y10.2012
G01 X15.8942 Y6.3211
G01 X15.8942 Y5.3630
G01 X15.8960 Y5.3261
G01 X15.9014 Y5.2895
G01 X15.9104 Y5.2536
G01 X15.9229 Y5.2188
G01 X15.9359 Y5.1909
G01 X15.9418 Y5.1800
G01 X15.9560 Y5.1563
G01 X15.9613 Y5.1486
G01 X15.9797 Y5.1240
G01 X16.0003 Y5.1011
G01 X16.0068 Y5.0944
G01 X16.0320 Y5.0717
G01 X16.0591 Y5.0515
G01 X16.0880 Y5.0338
G01 X16.0989 Y5.0279
G01 X16.1268 Y5.0149
G01 X16.1616 Y5.0024
G01 X16.1975 Y4.9934
G01 X16.2310 Y4.9884
G01 X16.2403 Y4.9876
G01 X16.2710 Y4.9862
G01 X16.8960 Y4.9862
G01 X16.9329 Y4.9880
G01 X16.9695 Y4.9934
G01 X16.9994 Y5.0008
G01 X17.0113 Y5.0044
G01 X17.0402 Y5.0149
G01 X17.0681 Y5.0279
G01 X17.0790 Y5.0338
G01 X17.1053 Y5.0497
G01 X17.1301 Y5.0679
G01 X17.1398 Y5.0758
G01 X17.1624 Y5.0966
G01 X17.1832 Y5.1192
G01 X17.1911 Y5.1289
G01 X17.2093 Y5.1537
G01 X17.2252 Y5.1800
G01 X17.2311 Y5.1909
G01 X17.2453 Y5.2217
G01 X17.2566 Y5.2536
G01 X17.2656 Y5.2895
G01 X17.2710 Y5.3261
G01 X17.2728 Y5.3599
G01 X17.2726 Y6.6192
G01 X17.2710 Y6.6499
G01 X17.2656 Y6.6865
G01 X17.2566 Y6.7224
G01 X17.2441 Y6.7572
G01 X17.2283 Y6.7906
G01 X17.2093 Y6.8223
G01 X17.1873 Y6.8520
G01 X17.1667 Y6.8749
G01 X17.1602 Y6.8816
G01 X17.1374 Y6.9023
G01 X17.1301 Y6.9081
G01 X17.1079 Y6.9245
G01 X17.1001 Y6.9296
G01 X17.0736 Y6.9453
G01 X17.0431 Y6.9599
G01 X17.0344 Y6.9634
G01 X17.0054 Y6.9736
G01 X16.9695 Y6.9826
G01 X16.9329 Y6.9880
G01 X16.8991 Y6.9898
G01 X16.2710 Y6.9898
G01 X16.2341 Y6.9880
G01 X16.1975 Y6.9826
G01 X16.1676 Y6.9752
G01 X16.1557 Y6.9716
G01 X16.1268 Y6.9611
G01 X16.0934 Y6.9453
G01 X16.0669 Y6.9296
G01 X16.0566 Y6.9227
G01 X16.0344 Y6.9062
G01 X16.0274 Y6.9003
G01 X12.2965 Y10.6311
G01 X12.2782 Y10.6477
G01 X12.2584 Y10.6625
G01 X12.2372 Y10.6752
G01 X12.2205 Y10.6832
G01 X12.2119 Y10.6869
G01 X12.1916 Y10.6941
G01 X12.1676 Y10.7001
G01 X12.1431 Y10.7037
G01 X12.1184 Y10.7049
G01 X7.1137 Y10.7049
G01 X7.1072 Y10.7306
G01 X7.1046 Y10.7396
G01 X7.0755 Y10.8210
G01 X7.0721 Y10.8297
G01 X7.0323 Y10.9135
G01 X6.9863 Y10.9905
G01 X6.9813 Y10.9983
G01 X6.9259 Y11.0727
G01 X6.8615 Y11.1438
G01 X6.7905 Y11.2081
G01 X6.7186 Y11.2616
G01 X6.7109 Y11.2669
G01 X6.6313 Y11.3145
G01 X6.5446 Y11.3555
G01 X6.4544 Y11.3878
G01 X6.3614 Y11.4111
G01 X6.2666 Y11.4251
G01 X6.1708 Y11.4298
G01 X6.0751 Y11.4251
G01 X5.9803 Y11.4111
G01 X5.8873 Y11.3878
G01 X5.7970 Y11.3555
G01 X5.7104 Y11.3145
G01 X5.6282 Y11.2652
G01 X5.5512 Y11.2081
G01 X5.4801 Y11.1438
G01 X5.4158 Y11.0727
G01 X5.3622 Y11.0008
G01 X5.3553 Y10.9905
G01 X5.3124 Y10.9189
G01 X5.3066 Y10.9080
G01 X5.2684 Y10.8269
G01 X5.2380 Y10.7425
G01 X5.2344 Y10.7306
G01 X5.2128 Y10.6436
G01 X5.1987 Y10.5488
G01 X5.1940 Y10.4530
G01 X5.1987 Y10.3573
G01 X5.2128 Y10.2625
G01 X5.2361 Y10.1695
G01 X5.2684 Y10.0792
G01 X5.3094 Y9.9926
G01 X5.3587 Y9.9104
G01 X5.4158 Y9.8334
G01 X5.4801 Y9.7623
G01 X5.5464 Y9.7020
G01 X5.5561 Y9.6941
G01 X5.6282 Y9.6409
G01 X5.7050 Y9.5947
G01 X5.7159 Y9.5888
G01 X5.7913 Y9.5531
G01 X5.8028 Y9.5484
G01 X5.8873 Y9.5183
G01 X5.9803 Y9.4950
G01 X6.0751 Y9.4810
G01 X6.1646 Y9.4764
G01 X6.1771 Y9.4764
G00 Z2.0000
G00 X7.2911 Y10.0617
G01 F60.00
G01 Z-0.1000
G01 F120.00
G01 X7.2153 Y10.0617
G01 X7.2021 Y10.0259
G01 X7.1844 Y9.9876
G01 X7.2328 Y10.0263
G01 X7.2482 Y10.0377
G01 X7.2589 Y10.0447
G01 X7.2699 Y10.0512
G01 X7.2812 Y10.0571
G01 X7.2911 Y10.0617
G00 Z2.0000
G00 X7.1866 Y10.9138
G01 F60.00
G01 Z-0.1000
G01 F120.00
G01 X7.2021 Y10.8802
G01 X7.2153 Y10.8444
G01 X7.2986 Y10.8444
G01 X7.2858 Y10.8488
G01 X7.2681 Y10.8562
G01 X7.2510 Y10.8648
G01 X7.2399 Y10.8712
G01 X7.2240 Y10.8818
G01 X7.2138 Y10.8894
G01 X7.1992 Y10.9019
G01 X7.1866 Y10.9138
G00 Z2.0000
G00 X5.9413 Y11.6874
G01 F60.00
G01 Z-0.1000
G01 F120.00
G01 X6.0280 Y11.7003
G01 X6.0477 Y11.7028
G01 X6.0676 Y11.7042
G01 X6.1509 Y11.7083
G01 X6.1708 Y11.7088
G01 X6.1907 Y11.7083
G01 X6.2741 Y11.7042
G01 X6.2939 Y11.7028
G01 X6.3137 Y11.7003
G01 X6.4040 Y11.6868
G01 X6.4007 Y11.7239
G01 X6.4001 Y11.7440
G01 X6.4003 Y11.7587
G01 X6.3137 Y11.7458
G01 X6.2939 Y11.7433
G01 X6.2741 Y11.7419
G01 X6.1907 Y11.7378
G01 X6.1708 Y11.7373
G01 X6.1509 Y11.7378
G01 X6.0676 Y11.7419
G01 X6.0477 Y11.7433
G01 X6.0280 Y11.7458
G01 X5.9377 Y11.7593
G01 X5.9410 Y11.7222
G01 X5.9416 Y11.7021
G01 X5.9413 Y11.6874
G00 Z2.0000
G00 X5.7095 Y11.4686
G01 F60.00
G01 Z-0.1000
G01 F120.00
G01 X5.7376 Y11.4818
G01 X5.7497 Y11.4868
G01 X5.8406 Y11.5193
G01 X5.8594 Y11.5247
G01 X5.9467 Y11.5465
G01 X5.9659 Y11.5501
G01 X6.0484 Y11.5624
G01 X6.0614 Y11.5640
G01 X6.0745 Y11.5649
G01 X6.1578 Y11.5690
G01 X6.1708 Y11.5693
G01 X6.1839 Y11.5690
G01 X6.2672 Y11.5649
G01 X6.2802 Y11.5640
G01 X6.2932 Y11.5624
G01 X6.3757 Y11.5501
G01 X6.3950 Y11.5465
G01 X6.4823 Y11.5247
G01 X6.5011 Y11.5193
G01 X6.5919 Y11.4868
G01 X6.6040 Y11.4818
G01 X6.6416 Y11.4641
G01 X6.6010 Y11.5150
G01 X6.5896 Y11.5312
G01 X6.5827 Y11.5425
G01 X6.5763 Y11.5541
G01 X6.5679 Y11.5721
G01 X6.5631 Y11.5844
G01 X6.5588 Y11.5969
G01 X6.5552 Y11.6096
G01 X6.5522 Y11.6225
G01 X6.5499 Y11.6355
G01 X6.5482 Y11.6486
G01 X6.5410 Y11.7181
G01 X6.5397 Y11.7379
G01 X6.5396 Y11.7511
G01 X6.5402 Y11.7644
G01 X6.5415 Y11.7775
G01 X6.5434 Y11.7906
G01 X6.5460 Y11.8036
G01 X6.5492 Y11.8164
G01 X6.5530 Y11.8291
G01 X6.5575 Y11.8415
G01 X6.5625 Y11.8537
G01 X6.5682 Y11.8657
G01 X6.6027 Y11.9338
G01 X6.6091 Y11.9450
G01 X6.6160 Y11.9560
G01 X6.6235 Y11.9665
G01 X6.6321 Y11.9775
G01 X6.6040 Y11.9643
G01 X6.5919 Y11.9593
G01 X6.5011 Y11.9268
G01 X6.4823 Y11.9214
G01 X6.3950 Y11.8996
G01 X6.3757 Y11.8960
G01 X6.2932 Y11.8837
G01 X6.2802 Y11.8821
G01 X6.2672 Y11.8812
G01 X6.1839 Y11.8771
G01 X6.1708 Y11.8768
G01 X6.1578 Y11.8771
G01 X6.0745 Y11.8812
G01 X6.0614 Y11.8821
G01 X6.0484 Y11.8837
G01 X5.9659 Y11.8960
G01 X5.9467 Y11.8996
G01 X5.8594 Y11.9214
G01 X5.8406 Y11.9268
G01 X5.7497 Y11.9593
G01 X5.7376 Y11.9643
G01 X5.7001 Y11.9820
G01 X5.7407 Y11.9311
G01 X5.7521 Y11.9149
G01 X5.7590 Y11.9036
G01 X5.7683 Y11.8861
G01 X5.7738 Y11.8740
G01 X5.7786 Y11.8617
G01 X5.7829 Y11.8492
G01 X5.7865 Y11.8365
G01 X5.7895 Y11.8236
G01 X5.7918 Y11.8106
G01 X5.7935 Y11.7975
G01 X5.8007 Y11.7280
G01 X5.8020 Y11.7082
G01 X5.8020 Y11.6949
G01 X5.8014 Y11.6817
G01 X5.8002 Y11.6686
G01 X5.7983 Y11.6555
G01 X5.7957 Y11.6425
G01 X5.7925 Y11.6297
G01 X5.7887 Y11.6170
G01 X5.7842 Y11.6046
G01 X5.7791 Y11.5924
G01 X5.7735 Y11.5804
G01 X5.7389 Y11.5123
G01 X5.7325 Y11.5011
G01 X5.7256 Y11.4901
G01 X5.7182 Y11.4796
G01 X5.7095 Y11.4686
G00 Z2.0000
G00 X6.1771 Y12.0164
G01 F60.00
G01 Z-0.1000
G01 F120.00
G01 X6.2666 Y12.0210
G01 X6.3614 Y12.0350
G01 X6.4544 Y12.0583
G01 X6.5388 Y12.0884
G01 X6.5503 Y12.0931
G01 X6.6257 Y12.1288
G01 X6.6367 Y12.1347
G01 X6.7135 Y12.1809
G01 X6.7881 Y12.2360
G01 X6.7952 Y12.2420
G01 X6.8570 Y12.2981
G01 X6.8658 Y12.3069
G01 X6.9259 Y12.3734
G01 X6.9794 Y12.4453
G01 X6.9847 Y12.4530
G01 X7.0323 Y12.5326
G01 X7.0721 Y12.6164
G01 X7.0755 Y12.6251
G01 X7.1046 Y12.7065
G01 X7.1072 Y12.7155
G01 X7.1137 Y12.7412
G01 X14.3001 Y12.7412
G01 X15.8942 Y11.1471
G01 X15.8942 Y10.1890
G01 X15.8960 Y10.1521
G01 X15.9014 Y10.1155
G01 X15.9104 Y10.0796
G01 X15.9229 Y10.0448
G01 X15.9387 Y10.0114
G01 X15.9577 Y9.9797
G01 X15.9797 Y9.9500
G01 X16.0046 Y9.9226
G01 X16.0296 Y9.8997
G01 X16.0566 Y9.8793
G01 X16.0669 Y9.8724
G01 X16.0934 Y9.8567
G01 X16.1268 Y9.8409
G01 X16.1557 Y9.8304
G01 X16.1676 Y9.8268
G01 X16.1975 Y9.8194
G01 X16.2341 Y9.8140
G01 X16.2710 Y9.8122
G01 X16.8960 Y9.8122
G01 X16.9329 Y9.8140
G01 X16.9665 Y9.8189
G01 X16.9994 Y9.8268
G01 X17.0113 Y9.8304
G01 X17.0402 Y9.8409
G01 X17.0736 Y9.8567
G01 X17.1053 Y9.8757
G01 X17.1301 Y9.8939
G01 X17.1398 Y9.9018
G01 X17.1624 Y9.9226
G01 X17.1873 Y9.9500
G01 X17.2057 Y9.9746
G01 X17.2126 Y9.9849
G01 X17.2283 Y10.0114
G01 X17.2441 Y10.0448
G01 X17.2546 Y10.0737
G01 X17.2582 Y10.0856
G01 X17.2661 Y10.1185
G01 X17.2710 Y10.1521
G01 X17.2728 Y10.1890
G01 X17.2728 Y11.4390
G01 X17.2714 Y11.4697
G01 X17.2702 Y11.4821
G01 X17.2661 Y11.5095
G01 X17.2642 Y11.5186
G01 X17.2566 Y11.5484
G01 X17.2441 Y11.5832
G01 X17.2283 Y11.6166
G01 X17.2126 Y11.6431
G01 X17.2075 Y11.6509
G01 X17.1911 Y11.6731
G01 X17.1832 Y11.6828
G01 X17.1646 Y11.7032
G01 X17.1579 Y11.7097
G01 X17.1350 Y11.7303
G01 X17.1104 Y11.7487
G01 X17.1027 Y11.7540
G01 X17.0763 Y11.7698
G01 X17.0459 Y11.7846
G01 X17.0373 Y11.7883
G01 X17.0083 Y11.7986
G01 X16.9994 Y11.8012
G01 X16.9726 Y11.8079
G01 X16.9634 Y11.8096
G01 X16.9329 Y11.8140
G01 X16.9022 Y11.8156
G01 X16.2710 Y11.8158
G01 X16.2341 Y11.8140
G01 X16.1975 Y11.8086
G01 X16.1676 Y11.8012
G01 X16.1557 Y11.7976
G01 X16.1268 Y11.7871
G01 X16.0934 Y11.7713
G01 X16.0669 Y11.7556
G01 X16.0566 Y11.7487
G01 X16.0344 Y11.7322
G01 X16.0274 Y11.7263
G01 X14.5803 Y13.1733
G01 X14.5642 Y13.1877
G01 X14.5469 Y13.2007
G01 X14.5391 Y13.2058
G01 X14.5204 Y13.2166
G01 X14.5008 Y13.2257
G01 X14.4805 Y13.2331
G01 X14.4716 Y13.2357
G01 X14.4505 Y13.2406
G01 X14.4291 Y13.2437
G01 X14.4044 Y13.2449
G01 X7.1137 Y13.2449
G01 X7.1072 Y13.2706
G01 X7.1046 Y13.2796
G01 X7.0755 Y13.3610
G01 X7.0721 Y13.3697
G01 X7.0323 Y13.4535
G01 X6.9863 Y13.5305
G01 X6.9813 Y13.5383
G01 X6.9259 Y13.6127
G01 X6.8615 Y13.6838
G01 X6.7905 Y13.7481
G01 X6.7161 Y13.8035
G01 X6.7083 Y13.8086
G01 X6.6313 Y13.8545
G01 X6.5446 Y13.8955
G01 X6.4544 Y13.9278
G01 X6.3675 Y13.9497
G01 X6.3553 Y13.9521
G01 X6.2666 Y13.9651
G01 X6.1771 Y13.9697
G01 X6.1646 Y13.9697
G01 X6.0813 Y13.9656
G01 X6.0689 Y13.9644
G01 X5.9803 Y13.9511
G01 X5.8873 Y13.9278
G01 X5.7970 Y13.8955
G01 X5.7104 Y13.8545
G01 X5.6282 Y13.8052
G01 X5.5512 Y13.7481
G01 X5.4801 Y13.6838
G01 X5.4158 Y13.6127
G01 X5.3587 Y13.5357
G01 X5.3094 Y13.4535
G01 X5.2684 Y13.3669
G01 X5.2361 Y13.2766
G01 X5.2128 Y13.1836
G01 X5.1987 Y13.0888
G01 X5.1940 Y12.9930
G01 X5.1983 Y12.9035
G01 X5.1995 Y12.8911
G01 X5.2128 Y12.8025
G01 X5.2361 Y12.7095
G01 X5.2684 Y12.6192
G01 X5.3066 Y12.5381
G01 X5.3124 Y12.5272
G01 X5.3587 Y12.4504
G01 X5.4119 Y12.3783
G01 X5.4198 Y12.3687
G01 X5.4758 Y12.3069
G01 X5.4846 Y12.2981
G01 X5.5512 Y12.2380
G01 X5.6282 Y12.1809
G01 X5.7104 Y12.1316
G01 X5.7970 Y12.0906
G01 X5.8873 Y12.0583
G01 X5.9803 Y12.0350
G01 X6.0751 Y12.0210
G01 X6.1646 Y12.0164
G01 X6.1771 Y12.0164
G00 Z2.0000
G00 X7.1844 Y12.5276
G01 F60.00
G01 Z-0.1000
G01 F120.00
G01 X7.2328 Y12.5663
G01 X7.2482 Y12.5777
G01 X7.2589 Y12.5847
G01 X7.2699 Y12.5912
G01 X7.2812 Y12.5971
G01 X7.2911 Y12.6017
G01 X7.2153 Y12.6017
G01 X7.2021 Y12.5659
G01 X7.1844 Y12.5276
G00 Z2.0000
G00 X7.2986 Y13.3844
G01 F60.00
G01 Z-0.1000
G01 F120.00
G01 X7.2858 Y13.3888
G01 X7.2681 Y13.3962
G01 X7.2566 Y13.4018
G01 X7.2399 Y13.4112
G01 X7.2292 Y13.4181
G01 X7.2138 Y13.4294
G01 X7.1992 Y13.4419
G01 X7.1866 Y13.4538
G01 X7.2021 Y13.4202
G01 X7.2153 Y13.3844
G01 X7.2986 Y13.3844
G00 Z2.0000
G00 X6.6416 Y14.0041
G01 F60.00
G01 Z-0.1000
G01 F120.00
G01 X6.6010 Y14.0550
G01 X6.5896 Y14.0712
G01 X6.5827 Y14.0825
G01 X6.5734 Y14.1000
G01 X6.5679 Y14.1121
G01 X6.5631 Y14.1244
G01 X6.5588 Y14.1369
G01 X6.5552 Y14.1496
G01 X6.5522 Y14.1625
G01 X6.5499 Y14.1755
G01 X6.5482 Y14.1886
G01 X6.5410 Y14.2581
G01 X6.5397 Y14.2779
G01 X6.5396 Y14.2911
G01 X6.5402 Y14.3044
G01 X6.5415 Y14.3175
G01 X6.5434 Y14.3306
G01 X6.5460 Y14.3436
G01 X6.5492 Y14.3564
G01 X6.5530 Y14.3691
G01 X6.5575 Y14.3815
G01 X6.5625 Y14.3937
G01 X6.5682 Y14.4057
G01 X6.6027 Y14.4738
G01 X6.6091 Y14.4850
G01 X6.6160 Y14.4960
G01 X6.6235 Y14.5065
G01 X6.6321 Y14.5175
G01 X6.6040 Y14.5043
G01 X6.5919 Y14.4993
G01 X6.5011 Y14.4668
G01 X6.4823 Y14.4614
G01 X6.3950 Y14.4396
G01 X6.3757 Y14.4360
G01 X6.2932 Y14.4237
G01 X6.2802 Y14.4221
G01 X6.2672 Y14.4212
G01 X6.1839 Y14.4171
G01 X6.1708 Y14.4168
G01 X6.1578 Y14.4171
G01 X6.0745 Y14.4212
G01 X6.0614 Y14.4221
G01 X6.0484 Y14.4237
G01 X5.9659 Y14.4360
G01 X5.9467 Y14.4396
G01 X5.8594 Y14.4614
G01 X5.8406 Y14.4668
G01 X5.7497 Y14.4993
G01 X5.7376 Y14.5043
G01 X5.7001 Y14.5220
G01 X5.7407 Y14.4711
G01 X5.7521 Y14.4549
G01 X5.7590 Y14.4436
G01 X5.7653 Y14.4320
G01 X5.7738 Y14.4140
G01 X5.7786 Y14.4017
G01 X5.7829 Y14.3892
G01 X5.7865 Y14.3765
G01 X5.7895 Y14.3636
G01 X5.7918 Y14.3506
G01 X5.7935 Y14.3375
G01 X5.8007 Y14.2680
G01 X5.8020 Y14.2482
G01 X5.8020 Y14.2349
G01 X5.8014 Y14.2217
G01 X5.8002 Y14.2086
G01 X5.7983 Y14.1955
G01 X5.7957 Y14.1825
G01 X5.7925 Y14.1697
G01 X5.7887 Y14.1570
G01 X5.7842 Y14.1446
G01 X5.7791 Y14.1324
G01 X5.7735 Y14.1204
G01 X5.7389 Y14.0523
G01 X5.7325 Y14.0411
G01 X5.7256 Y14.0301
G01 X5.7182 Y14.0196
G01 X5.7095 Y14.0086
G01 X5.7376 Y14.0218
G01 X5.7497 Y14.0268
G01 X5.8406 Y14.0593
G01 X5.8594 Y14.0647
G01 X5.9467 Y14.0865
G01 X5.9659 Y14.0901
G01 X6.0484 Y14.1024
G01 X6.0614 Y14.1040
G01 X6.0745 Y14.1049
G01 X6.1578 Y14.1090
G01 X6.1708 Y14.1093
G01 X6.1839 Y14.1090
G01 X6.2672 Y14.1049
G01 X6.2802 Y14.1040
G01 X6.2932 Y14.1024
G01 X6.3757 Y14.0901
G01 X6.3950 Y14.0865
G01 X6.4823 Y14.0647
G01 X6.5011 Y14.0593
G01 X6.5919 Y14.0268
G01 X6.6040 Y14.0218
G01 X6.6416 Y14.0041
G00 Z2.0000
G00 X6.4040 Y14.2268
G01 F60.00
G01 Z-0.1000
G01 F120.00
G01 X6.4007 Y14.2639
G01 X6.4001 Y14.2840
G01 X6.4003 Y14.2987
G01 X6.3137 Y14.2858
G01 X6.2939 Y14.2833
G01 X6.2741 Y14.2819
G01 X6.1907 Y14.2778
G01 X6.1708 Y14.2773
G01 X6.1509 Y14.2778
G01 X6.0676 Y14.2819
G01 X6.0477 Y14.2833
G01 X6.0280 Y14.2858
G01 X5.9377 Y14.2993
G01 X5.9410 Y14.2622
G01 X5.9416 Y14.2421
G01 X5.9413 Y14.2274
G01 X6.0280 Y14.2403
G01 X6.0477 Y14.2428
G01 X6.0676 Y14.2442
G01 X6.1509 Y14.2483
G01 X6.1708 Y14.2488
G01 X6.1907 Y14.2483
G01 X6.2741 Y14.2442
G01 X6.2939 Y14.2428
G01 X6.3137 Y14.2403
G01 X6.4040 Y14.2268
G00 Z2.0000
G00 X6.1771 Y14.5564
G01 F60.00
G01 Z-0.1000
G01 F120.00
G01 X6.2666 Y14.5610
G01 X6.3614 Y14.5750
G01 X6.4544 Y14.5983
G01 X6.5388 Y14.6284
G01 X6.5503 Y14.6331
G01 X6.6257 Y14.6688
G01 X6.6367 Y14.6747
G01 X6.7135 Y14.7209
G01 X6.7881 Y14.7760
G01 X6.7952 Y14.7820
G01 X6.8570 Y14.8381
G01 X6.8658 Y14.8469
G01 X6.9259 Y14.9134
G01 X6.9794 Y14.9853
G01 X6.9847 Y14.9930
G01 X7.0323 Y15.0726
G01 X7.0721 Y15.1564
G01 X7.0755 Y15.1651
G01 X7.1046 Y15.2465
G01 X7.1072 Y15.2555
G01 X7.1137 Y15.2812
G01 X16.0212 Y15.2812
G01 X16.0212 Y14.8849
G01 X16.0230 Y14.8511
G01 X16.0274 Y14.8206
G01 X16.0291 Y14.8114
G01 X16.0374 Y14.7786
G01 X16.0499 Y14.7438
G01 X16.0657 Y14.7104
G01 X16.0847 Y14.6787
G01 X16.1067 Y14.6490
G01 X16.1316 Y14.6216
G01 X16.1590 Y14.5967
G01 X16.1836 Y14.5783
G01 X16.1939 Y14.5714
G01 X16.2204 Y14.5557
G01 X16.2481 Y14.5424
G01 X16.2596 Y14.5376
G01 X16.2886 Y14.5274
G01 X16.3184 Y14.5198
G01 X16.3306 Y14.5174
G01 X16.3642 Y14.5127
G01 X16.3980 Y14.5112
G01 X17.0230 Y14.5112
G01 X17.0537 Y14.5126
G01 X17.0661 Y14.5138
G01 X17.0965 Y14.5184
G01 X17.1324 Y14.5274
G01 X17.1672 Y14.5399
G01 X17.1951 Y14.5529
G01 X17.2060 Y14.5588
G01 X17.2349 Y14.5765
G01 X17.2620 Y14.5967
G01 X17.2849 Y14.6173
G01 X17.2937 Y14.6261
G01 X17.3123 Y14.6466
G01 X17.3181 Y14.6539
G01 X17.3363 Y14.6787
G01 X17.3553 Y14.7104
G01 X17.3686 Y14.7381
G01 X17.3734 Y14.7496
G01 X17.3836 Y14.7786
G01 X17.3926 Y14.8145
G01 X17.3980 Y14.8511
G01 X17.3998 Y14.8880
G01 X17.3998 Y16.1380
G01 X17.3984 Y16.1687
G01 X17.3972 Y16.1811
G01 X17.3926 Y16.2115
G01 X17.3852 Y16.2414
G01 X17.3816 Y16.2533
G01 X17.3711 Y16.2822
G01 X17.3581 Y16.3101
G01 X17.3522 Y16.3210
G01 X17.3363 Y16.3473
G01 X17.3143 Y16.3770
G01 X17.2937 Y16.3999
G01 X17.2849 Y16.4087
G01 X17.2620 Y16.4293
G01 X17.2323 Y16.4513
G01 X17.2060 Y16.4672
G01 X17.1951 Y16.4731
G01 X17.1672 Y16.4861
G01 X17.1353 Y16.4976
G01 X17.1026 Y16.5062
G01 X17.0904 Y16.5086
G01 X17.0599 Y16.5130
G01 X17.0261 Y16.5148
G01 X16.3918 Y16.5146
G01 X16.3611 Y16.5130
G01 X16.3306 Y16.5086
G01 X16.3184 Y16.5062
G01 X16.2886 Y16.4986
G01 X16.2596 Y16.4884
G01 X16.2481 Y16.4836
G01 X16.2204 Y16.4703
G01 X16.1939 Y16.4546
G01 X16.1836 Y16.4477
G01 X16.1590 Y16.4293
G01 X16.1361 Y16.4087
G01 X16.1273 Y16.3999
G01 X16.1067 Y16.3770
G01 X16.0883 Y16.3524
G01 X16.0814 Y16.3421
G01 X16.0643 Y16.3129
G01 X16.0499 Y16.2822
G01 X16.0374 Y16.2474
G01 X16.0284 Y16.2115
G01 X16.0238 Y16.1811
G01 X16.0227 Y16.1718
G01 X16.0212 Y16.1380
G01 X16.0212 Y15.7849
G01 X7.1137 Y15.7849
G01 X7.1072 Y15.8106
G01 X7.1046 Y15.8196
G01 X7.0755 Y15.9010
G01 X7.0721 Y15.9097
G01 X7.0323 Y15.9935
G01 X6.9863 Y16.0705
G01 X6.9813 Y16.0783
G01 X6.9259 Y16.1527
G01 X6.8615 Y16.2238
G01 X6.7905 Y16.2881
G01 X6.7161 Y16.3435
G01 X6.7083 Y16.3486
G01 X6.6313 Y16.3945
G01 X6.5446 Y16.4355
G01 X6.4544 Y16.4678
G01 X6.3675 Y16.4897
G01 X6.3553 Y16.4921
G01 X6.2666 Y16.5051
G01 X6.1771 Y16.5097
G01 X6.1646 Y16.5097
G01 X6.0813 Y16.5056
G01 X6.0689 Y16.5044
G01 X5.9803 Y16.4911
G01 X5.8873 Y16.4678
G01 X5.7970 Y16.4355
G01 X5.7104 Y16.3945
G01 X5.6282 Y16.3452
G01 X5.5512 Y16.2881
G01 X5.4801 Y16.2238
G01 X5.4158 Y16.1527
G01 X5.3587 Y16.0757
G01 X5.3094 Y15.9935
G01 X5.2684 Y15.9069
G01 X5.2361 Y15.8166
G01 X5.2128 Y15.7236
G01 X5.1987 Y15.6288
G01 X5.1940 Y15.5330
G01 X5.1983 Y15.4435
G01 X5.1995 Y15.4311
G01 X5.2128 Y15.3425
G01 X5.2361 Y15.2495
G01 X5.2684 Y15.1592
G01 X5.3066 Y15.0781
G01 X5.3124 Y15.0672
G01 X5.3587 Y14.9904
G01 X5.4119 Y14.9183
G01 X5.4198 Y14.9087
G01 X5.4758 Y14.8469
G01 X5.4846 Y14.8381
G01 X5.5512 Y14.7780
G01 X5.6282 Y14.7209
G01 X5.7104 Y14.6716
G01 X5.7970 Y14.6306
G01 X5.8873 Y14.5983
G01 X5.9803 Y14.5750
G01 X6.0751 Y14.5610
G01 X6.1646 Y14.5564
G01 X6.1771 Y14.5564
G00 Z2.0000
G00 X7.1844 Y15.0676
G01 F60.00
G01 Z-0.1000
G01 F120.00
G01 X7.2328 Y15.1063
G01 X7.2482 Y15.1177
G01 X7.2589 Y15.1247
G01 X7.2699 Y15.1312
G01 X7.2812 Y15.1371
G01 X7.2911 Y15.1417
G01 X7.2153 Y15.1417
G01 X7.2021 Y15.1059
G01 X7.1844 Y15.0676
G00 Z2.0000
G00 X7.2986 Y15.9244
G01 F60.00
G01 Z-0.1000
G01 F120.00
G01 X7.2858 Y15.9288
G01 X7.2681 Y15.9362
G01 X7.2510 Y15.9448
G01 X7.2399 Y15.9512
G01 X7.2240 Y15.9618
G01 X7.2138 Y15.9694
G01 X7.1992 Y15.9819
G01 X7.1866 Y15.9938
G01 X7.2021 Y15.9602
G01 X7.2153 Y15.9244
G01 X7.2986 Y15.9244
G00 Z2.0000
G00 X4.9425 Y10.4531
G01 F60.00
G01 Z-0.1000
G01 F120.00
G01 X4.9611 Y10.2397
G01 X5.0165 Y10.0329
G01 X5.1070 Y9.8389
G01 X5.2298 Y9.6635
G01 X5.3813 Y9.5121
G01 X5.5566 Y9.3892
G01 X5.7507 Y9.2988
G01 X5.9575 Y9.2433
G01 X6.1708 Y9.2247
G01 X6.3841 Y9.2433
G01 X6.5910 Y9.2988
G01 X6.7850 Y9.3892
G01 X6.9604 Y9.5121
G01 X7.1118 Y9.6635
G01 X7.2424 Y9.8499
G01 X7.2520 Y9.8614
G01 X7.2607 Y9.8698
G01 X7.3223 Y9.9192
G01 X7.3323 Y9.9261
G01 X7.3430 Y9.9320
G01 X7.3570 Y9.9379
G01 X7.3686 Y9.9414
G01 X7.4216 Y9.9520
G01 X7.4307 Y9.9534
G01 X7.4461 Y9.9543
G01 X11.8080 Y9.9543
G01 X11.8231 Y9.9535
G01 X11.8320 Y9.9521
G01 X11.8408 Y9.9500
G01 X11.9137 Y9.9286
G01 X11.9282 Y9.9230
G01 X11.9393 Y9.9172
G01 X11.9497 Y9.9104
G01 X11.9752 Y9.8900
G01 X11.9853 Y9.8809
G01 X15.5738 Y6.2924
G01 X15.5839 Y6.2811
G01 X15.5909 Y6.2713
G01 X15.5955 Y6.2635
G01 X15.6290 Y6.2022
G01 X15.6356 Y6.1881
G01 X15.6396 Y6.1763
G01 X15.6424 Y6.1642
G01 X15.6437 Y6.1550
G01 X15.6469 Y6.1252
G01 X15.6473 Y6.1150
G01 X15.6473 Y5.3195
G01 X15.6557 Y5.2369
G01 X15.7019 Y5.0976
G01 X15.7784 Y4.9735
G01 X15.8815 Y4.8704
G01 X16.0056 Y4.7939
G01 X16.1449 Y4.7477
G01 X16.2275 Y4.7393
G01 X16.9395 Y4.7393
G01 X17.0221 Y4.7477
G01 X17.1614 Y4.7939
G01 X17.2855 Y4.8704
G01 X17.3886 Y4.9735
G01 X17.4651 Y5.0976
G01 X17.5113 Y5.2369
G01 X17.5197 Y5.3195
G01 X17.5197 Y6.6565
G01 X17.5113 Y6.7391
G01 X17.4651 Y6.8784
G01 X17.3886 Y7.0025
G01 X17.2855 Y7.1056
G01 X17.1614 Y7.1821
G01 X17.0221 Y7.2283
G01 X16.9396 Y7.2367
G01 X16.2275 Y7.2367
G01 X16.1730 Y7.2312
G01 X16.1639 Y7.2308
G01 X16.1549 Y7.2311
G01 X16.1399 Y7.2329
G01 X16.0712 Y7.2457
G01 X16.0621 Y7.2477
G01 X16.0502 Y7.2515
G01 X16.0359 Y7.2579
G01 X16.0251 Y7.2642
G01 X15.9857 Y7.2926
G01 X15.9780 Y7.2990
G01 X15.9732 Y7.3036
G01 X12.5296 Y10.7472
G01 X12.5225 Y10.7549
G01 X12.5130 Y10.7667
G01 X12.4670 Y10.8099
G01 X12.4484 Y10.8284
G01 X12.4363 Y10.8388
G01 X12.4139 Y10.8597
G01 X12.4019 Y10.8668
G01 X12.3828 Y10.8793
G01 X12.3743 Y10.8857
G01 X12.3462 Y10.8979
G01 X12.3330 Y10.9043
G01 X12.3035 Y10.9204
G01 X12.2932 Y10.9232
G01 X12.2717 Y10.9306
G01 X12.2587 Y10.9358
G01 X12.2255 Y10.9412
G01 X12.2111 Y10.9442
G01 X12.1815 Y10.9518
G01 X12.1675 Y10.9521
G01 X12.1448 Y10.9540
G01 X12.1342 Y10.9555
G01 X12.1037 Y10.9526
G01 X12.0831 Y10.9518
G01 X7.4461 Y10.9518
G01 X7.4370 Y10.9521
G01 X7.4280 Y10.9530
G01 X7.4191 Y10.9546
G01 X7.4103 Y10.9569
G01 X7.3433 Y10.9766
G01 X7.3346 Y10.9795
G01 X7.3235 Y10.9843
G01 X7.3154 Y10.9885
G01 X7.3052 Y10.9952
G01 X7.2956 Y11.0027
G01 X7.2544 Y11.0422
G01 X7.2443 Y11.0537
G01 X7.1118 Y11.2426
G01 X6.9604 Y11.3940
G01 X6.7815 Y11.5194
G01 X6.7721 Y11.5270
G01 X6.7635 Y11.5354
G01 X6.7576 Y11.5423
G01 X6.7102 Y11.6019
G01 X6.7018 Y11.6152
G01 X6.6951 Y11.6295
G01 X6.6903 Y11.6444
G01 X6.6873 Y11.6599
G01 X6.6797 Y11.7325
G01 X6.6791 Y11.7482
G01 X6.6800 Y11.7608
G01 X6.6821 Y11.7732
G01 X6.6855 Y11.7853
G01 X6.6900 Y11.7971
G01 X6.7256 Y11.8678
G01 X6.7320 Y11.8784
G01 X6.7413 Y11.8907
G01 X6.7520 Y11.9017
G01 X6.7736 Y11.9205
G01 X6.7813 Y11.9266
G01 X6.9604 Y12.0521
G01 X7.1118 Y12.2035
G01 X7.2406 Y12.3874
G01 X7.2480 Y12.3969
G01 X7.2563 Y12.4057
G01 X7.2653 Y12.4137
G01 X7.3223 Y12.4592
G01 X7.3323 Y12.4661
G01 X7.3430 Y12.4720
G01 X7.3570 Y12.4779
G01 X7.3686 Y12.4814
G01 X7.4216 Y12.4920
G01 X7.4338 Y12.4938
G01 X7.4461 Y12.4943
G01 X14.0940 Y12.4943
G01 X14.1091 Y12.4935
G01 X14.1210 Y12.4915
G01 X14.1297 Y12.4892
G01 X14.1968 Y12.4695
G01 X14.2056 Y12.4666
G01 X14.2142 Y12.4630
G01 X14.2253 Y12.4572
G01 X14.2357 Y12.4504
G01 X14.2612 Y12.4300
G01 X14.2689 Y12.4233
G01 X15.5738 Y11.1184
G01 X15.5839 Y11.1071
G01 X15.5925 Y11.0947
G01 X15.6304 Y11.0254
G01 X15.6367 Y11.0112
G01 X15.6404 Y10.9993
G01 X15.6429 Y10.9871
G01 X15.6471 Y10.9478
G01 X15.6473 Y10.1455
G01 X15.6557 Y10.0629
G01 X15.7019 Y9.9236
G01 X15.7784 Y9.7995
G01 X15.8815 Y9.6964
G01 X16.0056 Y9.6199
G01 X16.1449 Y9.5737
G01 X16.2275 Y9.5653
G01 X16.9395 Y9.5653
G01 X17.0221 Y9.5737
G01 X17.1614 Y9.6199
G01 X17.2855 Y9.6964
G01 X17.3886 Y9.7995
G01 X17.4651 Y9.9236
G01 X17.5113 Y10.0629
G01 X17.5197 Y10.1455
G01 X17.5197 Y11.4825
G01 X17.5113 Y11.5651
G01 X17.4651 Y11.7044
G01 X17.3886 Y11.8285
G01 X17.2855 Y11.9316
G01 X17.1614 Y12.0081
G01 X17.0221 Y12.0543
G01 X16.9396 Y12.0627
G01 X16.2275 Y12.0627
G01 X16.1730 Y12.0572
G01 X16.1579 Y12.0569
G01 X16.1429 Y12.0584
G01 X16.0651 Y12.0730
G01 X16.0561 Y12.0755
G01 X16.0473 Y12.0786
G01 X16.0332 Y12.0853
G01 X16.0225 Y12.0919
G01 X15.9884 Y12.1166
G01 X15.9805 Y12.1228
G01 X15.9732 Y12.1296
G01 X14.8156 Y13.2872
G01 X14.8085 Y13.2949
G01 X14.7990 Y13.3067
G01 X14.7530 Y13.3499
G01 X14.7344 Y13.3684
G01 X14.7223 Y13.3788
G01 X14.6999 Y13.3997
G01 X14.6879 Y13.4068
G01 X14.6688 Y13.4193
G01 X14.6603 Y13.4257
G01 X14.6322 Y13.4379
G01 X14.6190 Y13.4443
G01 X14.5895 Y13.4604
G01 X14.5792 Y13.4632
G01 X14.5577 Y13.4706
G01 X14.5447 Y13.4758
G01 X14.5115 Y13.4812
G01 X14.4971 Y13.4842
G01 X14.4675 Y13.4918
G01 X14.4535 Y13.4921
G01 X14.4308 Y13.4940
G01 X14.4202 Y13.4955
G01 X14.3897 Y13.4926
G01 X14.3691 Y13.4918
G01 X7.4461 Y13.4918
G01 X7.4340 Y13.4923
G01 X7.4250 Y13.4935
G01 X7.4132 Y13.4961
G01 X7.3433 Y13.5166
G01 X7.3346 Y13.5195
G01 X7.3235 Y13.5243
G01 X7.3154 Y13.5285
G01 X7.3052 Y13.5352
G01 X7.2956 Y13.5427
G01 X7.2544 Y13.5822
G01 X7.2443 Y13.5937
G01 X7.1118 Y13.7826
G01 X6.9604 Y13.9340
G01 X6.7815 Y14.0594
G01 X6.7721 Y14.0670
G01 X6.7635 Y14.0754
G01 X6.7576 Y14.0823
G01 X6.7102 Y14.1419
G01 X6.7018 Y14.1552
G01 X6.6951 Y14.1695
G01 X6.6903 Y14.1844
G01 X6.6873 Y14.1999
G01 X6.6794 Y14.2756
G01 X6.6792 Y14.2914
G01 X6.6800 Y14.3008
G01 X6.6821 Y14.3132
G01 X6.6855 Y14.3253
G01 X6.6900 Y14.3371
G01 X6.7256 Y14.4078
G01 X6.7320 Y14.4184
G01 X6.7413 Y14.4307
G01 X6.7520 Y14.4417
G01 X6.7736 Y14.4605
G01 X6.7813 Y14.4666
G01 X6.9604 Y14.5921
G01 X7.1118 Y14.7435
G01 X7.2406 Y14.9274
G01 X7.2480 Y14.9369
G01 X7.2563 Y14.9457
G01 X7.2653 Y14.9537
G01 X7.3223 Y14.9992
G01 X7.3323 Y15.0061
G01 X7.3430 Y15.0120
G01 X7.3570 Y15.0179
G01 X7.3716 Y15.0221
G01 X7.4246 Y15.0325
G01 X7.4368 Y15.0340
G01 X7.4461 Y15.0343
G01 X15.5284 Y15.0343
G01 X15.5435 Y15.0335
G01 X15.5524 Y15.0321
G01 X15.5612 Y15.0300
G01 X15.6342 Y15.0086
G01 X15.6460 Y15.0042
G01 X15.6573 Y14.9986
G01 X15.6653 Y14.9937
G01 X15.6730 Y14.9882
G01 X15.6848 Y14.9778
G01 X15.6913 Y14.9709
G01 X15.7391 Y14.9157
G01 X15.7466 Y14.9055
G01 X15.7531 Y14.8947
G01 X15.7585 Y14.8832
G01 X15.7627 Y14.8713
G01 X15.7741 Y14.8294
G01 X15.7767 Y14.8178
G01 X15.7779 Y14.8090
G01 X15.7827 Y14.7619
G01 X15.8289 Y14.6226
G01 X15.9054 Y14.4985
G01 X16.0085 Y14.3954
G01 X16.1326 Y14.3189
G01 X16.2719 Y14.2727
G01 X16.3545 Y14.2643
G01 X17.0665 Y14.2643
G01 X17.1491 Y14.2727
G01 X17.2884 Y14.3189
G01 X17.4125 Y14.3954
G01 X17.5156 Y14.4985
G01 X17.5921 Y14.6226
G01 X17.6383 Y14.7619
G01 X17.6467 Y14.8445
G01 X17.6467 Y16.1815
G01 X17.6383 Y16.2641
G01 X17.5921 Y16.4034
G01 X17.5156 Y16.5275
G01 X17.4125 Y16.6306
G01 X17.2884 Y16.7071
G01 X17.1491 Y16.7533
G01 X17.0666 Y16.7617
G01 X16.3545 Y16.7617
G01 X16.2719 Y16.7533
G01 X16.1326 Y16.7071
G01 X16.0085 Y16.6306
G01 X15.9054 Y16.5275
G01 X15.8289 Y16.4034
G01 X15.7827 Y16.2641
G01 X15.7817 Y16.2541
G01 X15.7802 Y16.2451
G01 X15.7781 Y16.2363
G01 X15.7754 Y16.2277
G01 X15.7444 Y16.1516
G01 X15.7385 Y16.1405
G01 X15.7296 Y16.1275
G01 X15.7235 Y16.1202
G01 X15.7169 Y16.1135
G01 X15.7049 Y16.1033
G01 X15.6426 Y16.0595
G01 X15.6289 Y16.0516
G01 X15.6143 Y16.0455
G01 X15.5991 Y16.0412
G01 X15.5531 Y16.0334
G01 X15.5443 Y16.0323
G01 X15.5325 Y16.0318
G01 X7.4430 Y16.0318
G01 X7.4280 Y16.0330
G01 X7.4162 Y16.0353
G01 X7.3375 Y16.0584
G01 X7.3235 Y16.0643
G01 X7.3128 Y16.0701
G01 X7.3027 Y16.0770
G01 X7.2934 Y16.0847
G01 X7.2544 Y16.1222
G01 X7.2443 Y16.1337
G01 X7.1118 Y16.3226
G01 X6.9604 Y16.4740
G01 X6.7850 Y16.5969
G01 X6.5910 Y16.6873
G01 X6.3841 Y16.7428
G01 X6.1708 Y16.7614
G01 X5.9575 Y16.7428
G01 X5.7507 Y16.6873
G01 X5.5566 Y16.5969
G01 X5.3812 Y16.4740
G01 X5.2298 Y16.3226
G01 X5.1070 Y16.1472
G01 X5.0165 Y15.9532
G01 X4.9611 Y15.7464
G01 X4.9425 Y15.5331
G01 X4.9611 Y15.3197
G01 X5.0165 Y15.1129
G01 X5.1070 Y14.9189
G01 X5.2298 Y14.7435
G01 X5.3813 Y14.5921
G01 X5.5577 Y14.4685
G01 X5.5695 Y14.4591
G01 X5.5761 Y14.4529
G01 X5.5821 Y14.4461
G01 X5.6277 Y14.3892
G01 X5.6367 Y14.3763
G01 X5.6441 Y14.3624
G01 X5.6497 Y14.3477
G01 X5.6528 Y14.3355
G01 X5.6547 Y14.3231
G01 X5.6622 Y14.2505
G01 X5.6625 Y14.2347
G01 X5.6608 Y14.2191
G01 X5.6588 Y14.2098
G01 X5.6562 Y14.2008
G01 X5.6529 Y14.1919
G01 X5.6490 Y14.1833
G01 X5.6145 Y14.1156
G01 X5.6079 Y14.1052
G01 X5.5983 Y14.0931
G01 X5.5873 Y14.0824
G01 X5.5680 Y14.0656
G01 X5.5604 Y14.0595
G01 X5.3812 Y13.9340
G01 X5.2298 Y13.7826
G01 X5.1070 Y13.6072
G01 X5.0165 Y13.4132
G01 X4.9611 Y13.2064
G01 X4.9425 Y12.9931
G01 X4.9611 Y12.7797
G01 X5.0165 Y12.5729
G01 X5.1070 Y12.3789
G01 X5.2298 Y12.2035
G01 X5.3813 Y12.0521
G01 X5.5602 Y11.9267
G01 X5.5673 Y11.9211
G01 X5.5739 Y11.9150
G01 X5.5840 Y11.9038
G01 X5.6315 Y11.8442
G01 X5.6367 Y11.8363
G01 X5.6413 Y11.8281
G01 X5.6477 Y11.8137
G01 X5.6522 Y11.7986
G01 X5.6547 Y11.7831
G01 X5.6622 Y11.7105
G01 X5.6626 Y11.7010
G01 X5.6620 Y11.6885
G01 X5.6602 Y11.6760
G01 X5.6580 Y11.6668
G01 X5.6552 Y11.6578
G01 X5.6504 Y11.6462
G01 X5.6145 Y11.5756
G01 X5.6061 Y11.5627
G01 X5.5983 Y11.5531
G01 X5.5873 Y11.5424
G01 X5.5680 Y11.5256
G01 X5.5604 Y11.5195
G01 X5.3812 Y11.3940
G01 X5.2298 Y11.2426
G01 X5.1070 Y11.0672
G01 X5.0165 Y10.8732
G01 X4.9611 Y10.6664
G01 X4.9425 Y10.4531
G00 Z2.0000
G00 X11.9568 Y10.0613
G01 F60.00
G01 Z-0.1000
G01 F120.00
G01 X11.9564 Y10.0617
G01 X11.9554 Y10.0617
G01 X11.9563 Y10.0614
G01 X11.9568 Y10.0613
G00 Z2.0000
G00 X14.2414 Y12.6017
G01 F60.00
G01 Z-0.1000
G01 F120.00
G01 X14.2423 Y12.6014
G01 X14.2428 Y12.6013
G01 X14.2424 Y12.6017
G01 X14.2414 Y12.6017
G00 Z2.0000
G00 X16.0975 Y11.9249
G01 F60.00
G01 Z-0.1000
G01 F120.00
G01 X16.0393 Y11.9358
G01 X16.0202 Y11.9406
G01 X16.0056 Y11.9453
G01 X16.0471 Y11.9039
G01 X16.0734 Y11.9160
G01 X16.0975 Y11.9249
G00 Z2.0000
G00 X15.7540 Y11.0900
G01 F60.00
G01 Z-0.1000
G01 F120.00
G01 X15.7544 Y11.0892
G01 X15.7547 Y11.0887
G01 X15.7547 Y11.0893
G01 X15.7540 Y11.0900
G00 Z2.0000
G00 X18.5723 Y10.1455
G01 F60.00
G01 Z-0.1000
G01 F120.00
G01 X18.5807 Y10.0629
G01 X18.6269 Y9.9236
G01 X18.7034 Y9.7995
G01 X18.8065 Y9.6964
G01 X18.9306 Y9.6199
G01 X19.0699 Y9.5737
G01 X19.1525 Y9.5653
G01 X19.8645 Y9.5653
G01 X19.9471 Y9.5737
G01 X20.0864 Y9.6199
G01 X20.2105 Y9.6964
G01 X20.3136 Y9.7995
G01 X20.3901 Y9.9236
G01 X20.4363 Y10.0629
G01 X20.4447 Y10.1455
G01 X20.4448 Y10.9471
G01 X20.4460 Y10.9591
G01 X20.4483 Y10.9709
G01 X20.4695 Y11.0438
G01 X20.4725 Y11.0527
G01 X20.4761 Y11.0613
G01 X20.4835 Y11.0750
G01 X20.4925 Y11.0877
G01 X20.5112 Y11.1109
G01 X20.5182 Y11.1184
G01 X21.8786 Y12.4788
G01 X21.8875 Y12.4870
G01 X21.8997 Y12.4959
G01 X21.9075 Y12.5005
G01 X21.9688 Y12.5340
G01 X21.9772 Y12.5381
G01 X21.9858 Y12.5417
G01 X21.9977 Y12.5454
G01 X22.0099 Y12.5479
G01 X22.0424 Y12.5516
G01 X22.0526 Y12.5523
G01 X24.0799 Y12.5522
G01 X24.0919 Y12.5510
G01 X24.1067 Y12.5480
G01 X24.1797 Y12.5266
G01 X24.1885 Y12.5233
G01 X24.1972 Y12.5195
G01 X24.2055 Y12.5150
G01 X24.2134 Y12.5099
G01 X24.2257 Y12.5001
G01 X24.2347 Y12.4912
G01 X24.2865 Y12.4312
G01 X24.2920 Y12.4236
G01 X24.2985 Y12.4129
G01 X24.3026 Y12.4044
G01 X24.3089 Y12.3891
G01 X24.3464 Y12.2886
G01 X24.3492 Y12.2801
G01 X24.3515 Y12.2713
G01 X24.3531 Y12.2624
G01 X24.3540 Y12.2534
G01 X24.3592 Y12.1807
G01 X24.3590 Y12.1656
G01 X24.3580 Y12.1566
G01 X24.3558 Y12.1448
G01 X24.3474 Y12.1162
G01 X24.2963 Y11.9791
G01 X24.2923 Y11.9421
G01 X24.2923 Y11.5810
G01 X24.2917 Y11.5689
G01 X24.2905 Y11.5599
G01 X24.2872 Y11.5452
G01 X24.2675 Y11.4782
G01 X24.2622 Y11.4636
G01 X24.2567 Y11.4524
G01 X24.2501 Y11.4418
G01 X24.2445 Y11.4344
G01 X24.2279 Y11.4137
G01 X24.2188 Y11.4036
G01 X20.1167 Y7.3015
G01 X20.1052 Y7.2918
G01 X20.0952 Y7.2850
G01 X20.0231 Y7.2456
G01 X20.0116 Y7.2408
G01 X19.9996 Y7.2370
G01 X19.9874 Y7.2345
G01 X19.9781 Y7.2334
G01 X19.9360 Y7.2310
G01 X19.9260 Y7.2308
G01 X19.9160 Y7.2314
G01 X19.8646 Y7.2367
G01 X19.1525 Y7.2367
G01 X19.0699 Y7.2283
G01 X18.9306 Y7.1821
G01 X18.8065 Y7.1056
G01 X18.7034 Y7.0025
G01 X18.6269 Y6.8784
G01 X18.5807 Y6.7391
G01 X18.5723 Y6.6566
G01 X18.5723 Y5.3195
G01 X18.5807 Y5.2369
G01 X18.6269 Y5.0976
G01 X18.7034 Y4.9735
G01 X18.8065 Y4.8704
G01 X18.9306 Y4.7939
G01 X19.0699 Y4.7477
G01 X19.1525 Y4.7393
G01 X19.8645 Y4.7393
G01 X19.9471 Y4.7477
G01 X20.0864 Y4.7939
G01 X20.2105 Y4.8704
G01 X20.3136 Y4.9735
G01 X20.3901 Y5.0976
G01 X20.4363 Y5.2369
G01 X20.4447 Y5.3195
G01 X20.4447 Y6.1150
G01 X20.4453 Y6.1271
G01 X20.4470 Y6.1390
G01 X20.4490 Y6.1479
G01 X20.4695 Y6.2178
G01 X20.4736 Y6.2296
G01 X20.4788 Y6.2409
G01 X20.4851 Y6.2516
G01 X20.4905 Y6.2592
G01 X20.5091 Y6.2823
G01 X20.5182 Y6.2924
G01 X24.5796 Y10.3538
G01 X24.5885 Y10.3620
G01 X24.5957 Y10.3675
G01 X24.6059 Y10.3740
G01 X24.6698 Y10.4090
G01 X24.6839 Y10.4156
G01 X24.6987 Y10.4204
G01 X24.7109 Y10.4229
G01 X24.7434 Y10.4266
G01 X24.7536 Y10.4273
G01 X26.7071 Y10.4273
G01 X26.7441 Y10.4313
G01 X26.8469 Y10.4696
G01 X26.9330 Y10.5340
G01 X26.9974 Y10.6201
G01 X27.0357 Y10.7229
G01 X27.0397 Y10.7599
G01 X27.0397 Y11.9421
G01 X27.0357 Y11.9791
G01 X26.9856 Y12.1134
G01 X26.9812 Y12.1278
G01 X26.9794 Y12.1366
G01 X26.9782 Y12.1456
G01 X26.9730 Y12.2183
G01 X26.9727 Y12.2274
G01 X26.9732 Y12.2394
G01 X26.9750 Y12.2514
G01 X26.9770 Y12.2602
G01 X26.9837 Y12.2829
G01 X27.0357 Y12.4229
G01 X27.0397 Y12.4599
G01 X27.0397 Y13.6421
G01 X27.0357 Y13.6791
G01 X26.9856 Y13.8134
G01 X26.9812 Y13.8278
G01 X26.9794 Y13.8366
G01 X26.9782 Y13.8456
G01 X26.9727 Y13.9243
G01 X26.9730 Y13.9364
G01 X26.9750 Y13.9514
G01 X26.9770 Y13.9602
G01 X26.9837 Y13.9829
G01 X27.0357 Y14.1229
G01 X27.0397 Y14.1599
G01 X27.0397 Y15.3421
G01 X27.0357 Y15.3791
G01 X26.9974 Y15.4819
G01 X26.9330 Y15.5680
G01 X26.8469 Y15.6324
G01 X26.7441 Y15.6707
G01 X26.7071 Y15.6747
G01 X24.6249 Y15.6747
G01 X24.5879 Y15.6707
G01 X24.4851 Y15.6324
G01 X24.3990 Y15.5680
G01 X24.3346 Y15.4819
G01 X24.3078 Y15.4100
G01 X24.3041 Y15.4018
G01 X24.2999 Y15.3938
G01 X24.2916 Y15.3812
G01 X24.2497 Y15.3252
G01 X24.2395 Y15.3133
G01 X24.2303 Y15.3046
G01 X24.2204 Y15.2970
G01 X24.2097 Y15.2903
G01 X24.1984 Y15.2848
G01 X24.1241 Y15.2570
G01 X24.1121 Y15.2535
G01 X24.0966 Y15.2508
G01 X24.0739 Y15.2497
G01 X20.8225 Y15.2497
G01 X20.8135 Y15.2500
G01 X20.8045 Y15.2510
G01 X20.7897 Y15.2540
G01 X20.7137 Y15.2764
G01 X20.7049 Y15.2799
G01 X20.6964 Y15.2840
G01 X20.6882 Y15.2887
G01 X20.6804 Y15.2940
G01 X20.6707 Y15.3019
G01 X20.6617 Y15.3108
G01 X20.6098 Y15.3708
G01 X20.6043 Y15.3785
G01 X20.5978 Y15.3894
G01 X20.5936 Y15.3980
G01 X20.5891 Y15.4098
G01 X20.5858 Y15.4220
G01 X20.5740 Y15.4765
G01 X20.5726 Y15.4854
G01 X20.5717 Y15.4975
G01 X20.5717 Y16.1815
G01 X20.5633 Y16.2641
G01 X20.5171 Y16.4034
G01 X20.4406 Y16.5275
G01 X20.3375 Y16.6306
G01 X20.2134 Y16.7071
G01 X20.0741 Y16.7533
G01 X19.9916 Y16.7617
G01 X19.2795 Y16.7617
G01 X19.1969 Y16.7533
G01 X19.0576 Y16.7071
G01 X18.9335 Y16.6306
G01 X18.8304 Y16.5275
G01 X18.7539 Y16.4034
G01 X18.7077 Y16.2641
G01 X18.6993 Y16.1816
G01 X18.6993 Y14.8445
G01 X18.7077 Y14.7619
G01 X18.7539 Y14.6226
G01 X18.8304 Y14.4985
G01 X18.9335 Y14.3954
G01 X19.0576 Y14.3189
G01 X19.1969 Y14.2727
G01 X19.2795 Y14.2643
G01 X19.9915 Y14.2643
G01 X20.0741 Y14.2727
G01 X20.0841 Y14.2760
G01 X20.0929 Y14.2784
G01 X20.1078 Y14.2808
G01 X20.1168 Y14.2815
G01 X20.1928 Y14.2839
G01 X20.2051 Y14.2832
G01 X20.2172 Y14.2812
G01 X20.2291 Y14.2781
G01 X20.2571 Y14.2683
G01 X20.2905 Y14.2629
G01 X20.3048 Y14.2599
G01 X20.3345 Y14.2523
G01 X20.3451 Y14.2521
G01 X20.3679 Y14.2504
G01 X20.3817 Y14.2486
G01 X20.4122 Y14.2514
G01 X20.4328 Y14.2523
G01 X24.0739 Y14.2523
G01 X24.0859 Y14.2517
G01 X24.0949 Y14.2505
G01 X24.1067 Y14.2480
G01 X24.1797 Y14.2266
G01 X24.1943 Y14.2208
G01 X24.2081 Y14.2133
G01 X24.2209 Y14.2042
G01 X24.2325 Y14.1935
G01 X24.2825 Y14.1360
G01 X24.2902 Y14.1262
G01 X24.2954 Y14.1183
G01 X24.2999 Y14.1101
G01 X24.3072 Y14.0934
G01 X24.3464 Y13.9886
G01 X24.3500 Y13.9772
G01 X24.3526 Y13.9654
G01 X24.3538 Y13.9564
G01 X24.3590 Y13.8837
G01 X24.3592 Y13.8686
G01 X24.3584 Y13.8596
G01 X24.3564 Y13.8477
G01 X24.3483 Y13.8191
G01 X24.3089 Y13.7129
G01 X24.3054 Y13.7045
G01 X24.2999 Y13.6938
G01 X24.2934 Y13.6836
G01 X24.2458 Y13.6203
G01 X24.2373 Y13.6110
G01 X24.2254 Y13.6007
G01 X24.2124 Y13.5919
G01 X24.2012 Y13.5861
G01 X24.1925 Y13.5824
G01 X24.1241 Y13.5570
G01 X24.1121 Y13.5535
G01 X24.0997 Y13.5512
G01 X24.0904 Y13.5502
G01 X24.0739 Y13.5497
G01 X21.8282 Y13.5497
G01 X21.8178 Y13.5501
G01 X21.8027 Y13.5517
G01 X21.7396 Y13.5498
G01 X21.7134 Y13.5497
G01 X21.6975 Y13.5485
G01 X21.6669 Y13.5475
G01 X21.6533 Y13.5440
G01 X21.6310 Y13.5394
G01 X21.6205 Y13.5379
G01 X21.5892 Y13.5256
G01 X21.5753 Y13.5209
G01 X21.5459 Y13.5123
G01 X21.5366 Y13.5070
G01 X21.5162 Y13.4970
G01 X21.5033 Y13.4915
G01 X21.4785 Y13.4735
G01 X21.4663 Y13.4654
G01 X21.4374 Y13.4482
G01 X21.4273 Y13.4386
G01 X21.4099 Y13.4238
G01 X21.4014 Y13.4174
G01 X21.3818 Y13.3938
G01 X21.3679 Y13.3786
G01 X20.1188 Y12.1296
G01 X20.1076 Y12.1196
G01 X20.1002 Y12.1143
G01 X20.0926 Y12.1095
G01 X20.0259 Y12.0730
G01 X20.0174 Y12.0690
G01 X20.0086 Y12.0657
G01 X19.9966 Y12.0623
G01 X19.9843 Y12.0601
G01 X19.9750 Y12.0592
G01 X19.9360 Y12.0570
G01 X19.9293 Y12.0568
G01 X19.9193 Y12.0571
G01 X19.8646 Y12.0627
G01 X19.1525 Y12.0627
G01 X19.0699 Y12.0543
G01 X18.9306 Y12.0081
G01 X18.8065 Y11.9316
G01 X18.7034 Y11.8285
G01 X18.6269 Y11.7044
G01 X18.5807 Y11.5651
G01 X18.5723 Y11.4826
G01 X18.5723 Y10.1455
G00 Z2.0000
G00 X20.3373 Y11.0883
G01 F60.00
G01 Z-0.1000
G01 F120.00
G01 X20.3376 Y11.0894
G01 X20.3378 Y11.0898
G01 X20.3373 Y11.0893
G01 X20.3373 Y11.0883
G00 Z2.0000
G00 X20.0646 Y11.7263
G01 F60.00
G01 Z-0.1000
G01 F120.00
G01 X20.0576 Y11.7322
G01 X20.0354 Y11.7487
G01 X20.0251 Y11.7556
G01 X19.9986 Y11.7713
G01 X19.9652 Y11.7871
G01 X19.9363 Y11.7976
G01 X19.9244 Y11.8012
G01 X19.8945 Y11.8086
G01 X19.8579 Y11.8140
G01 X19.8210 Y11.8158
G01 X19.1960 Y11.8158
G01 X19.1591 Y11.8140
G01 X19.1225 Y11.8086
G01 X19.0926 Y11.8012
G01 X19.0807 Y11.7976
G01 X19.0518 Y11.7871
G01 X19.0239 Y11.7741
G01 X19.0130 Y11.7682
G01 X18.9867 Y11.7523
G01 X18.9570 Y11.7303
G01 X18.9341 Y11.7097
G01 X18.9253 Y11.7009
G01 X18.9047 Y11.6780
G01 X18.8863 Y11.6534
G01 X18.8810 Y11.6457
G01 X18.8652 Y11.6193
G01 X18.8609 Y11.6111
G01 X18.8479 Y11.5832
G01 X18.8374 Y11.5543
G01 X18.8338 Y11.5424
G01 X18.8264 Y11.5125
G01 X18.8218 Y11.4821
G01 X18.8207 Y11.4728
G01 X18.8192 Y11.4421
G01 X18.8192 Y10.1890
G01 X18.8207 Y10.1552
G01 X18.8218 Y10.1459
G01 X18.8264 Y10.1155
G01 X18.8338 Y10.0856
G01 X18.8374 Y10.0737
G01 X18.8479 Y10.0448
G01 X18.8609 Y10.0169
G01 X18.8668 Y10.0060
G01 X18.8827 Y9.9797
G01 X18.9047 Y9.9500
G01 X18.9253 Y9.9271
G01 X18.9341 Y9.9183
G01 X18.9570 Y9.8977
G01 X18.9816 Y9.8793
G01 X18.9893 Y9.8740
G01 X19.0157 Y9.8582
G01 X19.0239 Y9.8539
G01 X19.0518 Y9.8409
G01 X19.0866 Y9.8284
G01 X19.1225 Y9.8194
G01 X19.1529 Y9.8148
G01 X19.1653 Y9.8136
G01 X19.1960 Y9.8122
G01 X19.8210 Y9.8122
G01 X19.8548 Y9.8137
G01 X19.8641 Y9.8148
G01 X19.8945 Y9.8194
G01 X19.9304 Y9.8284
G01 X19.9652 Y9.8409
G01 X19.9931 Y9.8539
G01 X20.0040 Y9.8598
G01 X20.0277 Y9.8740
G01 X20.0354 Y9.8793
G01 X20.0600 Y9.8977
G01 X20.0829 Y9.9183
G01 X20.0896 Y9.9248
G01 X20.1123 Y9.9500
G01 X20.1343 Y9.9797
G01 X20.1533 Y10.0114
G01 X20.1666 Y10.0391
G01 X20.1703 Y10.0477
G01 X20.1796 Y10.0737
G01 X20.1832 Y10.0856
G01 X20.1906 Y10.1155
G01 X20.1960 Y10.1521
G01 X20.1978 Y10.1890
G01 X20.1978 Y11.1471
G01 X21.8498 Y12.7991
G01 X24.5392 Y12.7991
G01 X24.5392 Y12.5010
G01 X24.5402 Y12.4855
G01 X24.5430 Y12.4702
G01 X24.5456 Y12.4612
G01 X24.5489 Y12.4525
G01 X24.5557 Y12.4385
G01 X24.5606 Y12.4306
G01 X24.5660 Y12.4230
G01 X24.5720 Y12.4158
G01 X24.5786 Y12.4092
G01 X24.5856 Y12.4030
G01 X24.5930 Y12.3973
G01 X24.6008 Y12.3922
G01 X24.6090 Y12.3877
G01 X24.6175 Y12.3839
G01 X24.6262 Y12.3806
G01 X24.6413 Y12.3766
G01 X24.6536 Y12.3748
G01 X24.6660 Y12.3742
G01 X26.6660 Y12.3742
G01 X26.6753 Y12.3745
G01 X26.6877 Y12.3761
G01 X26.6998 Y12.3788
G01 X26.7087 Y12.3816
G01 X26.7174 Y12.3851
G01 X26.7258 Y12.3892
G01 X26.7338 Y12.3939
G01 X26.7440 Y12.4010
G01 X26.7534 Y12.4092
G01 X26.7600 Y12.4158
G01 X26.7660 Y12.4230
G01 X26.7731 Y12.4332
G01 X26.7778 Y12.4412
G01 X26.7819 Y12.4496
G01 X26.7864 Y12.4612
G01 X26.7890 Y12.4702
G01 X26.7914 Y12.4824
G01 X26.7925 Y12.4917
G01 X26.7928 Y12.5010
G01 X26.7928 Y13.6010
G01 X26.7918 Y13.6165
G01 X26.7904 Y13.6257
G01 X26.7882 Y13.6348
G01 X26.7854 Y13.6437
G01 X26.7819 Y13.6524
G01 X26.7778 Y13.6608
G01 X26.7714 Y13.6714
G01 X26.7660 Y13.6790
G01 X26.7600 Y13.6862
G01 X26.7512 Y13.6950
G01 X26.7440 Y13.7010
G01 X26.7338 Y13.7081
G01 X26.7258 Y13.7128
G01 X26.7174 Y13.7169
G01 X26.7087 Y13.7204
G01 X26.6998 Y13.7232
G01 X26.6907 Y13.7254
G01 X26.6815 Y13.7268
G01 X26.6722 Y13.7276
G01 X24.6660 Y13.7278
G01 X24.6567 Y13.7275
G01 X24.6474 Y13.7264
G01 X24.6382 Y13.7247
G01 X24.6292 Y13.7223
G01 X24.6204 Y13.7193
G01 X24.6118 Y13.7156
G01 X24.6035 Y13.7113
G01 X24.5930 Y13.7047
G01 X24.5856 Y13.6990
G01 X24.5786 Y13.6928
G01 X24.5720 Y13.6862
G01 X24.5660 Y13.6790
G01 X24.5606 Y13.6714
G01 X24.5557 Y13.6635
G01 X24.5501 Y13.6524
G01 X24.5466 Y13.6437
G01 X24.5438 Y13.6348
G01 X24.5406 Y13.6196
G01 X24.5392 Y13.6041
G01 X24.5392 Y13.3029
G01 X21.7455 Y13.3029
G01 X21.7239 Y13.3019
G01 X21.7146 Y13.3009
G01 X21.6964 Y13.2980
G01 X21.6754 Y13.2929
G01 X21.6665 Y13.2901
G01 X21.6491 Y13.2837
G01 X21.6323 Y13.2759
G01 X21.6240 Y13.2716
G01 X21.6082 Y13.2621
G01 X21.6005 Y13.2568
G01 X21.5857 Y13.2457
G01 X21.5696 Y13.2313
G01 X20.0646 Y11.7263
G00 Z2.0000
G00 X20.0905 Y11.9494
G01 F60.00
G01 Z-0.1000
G01 F120.00
G01 X20.0718 Y11.9406
G01 X20.0596 Y11.9358
G01 X20.0472 Y11.9316
G01 X20.0282 Y11.9264
G01 X20.0154 Y11.9238
G01 X20.0031 Y11.9219
G01 X20.0246 Y11.9134
G01 X20.0449 Y11.9039
G01 X20.0905 Y11.9494
G00 Z2.0000
G00 X21.9070 Y12.6590
G01 F60.00
G01 Z-0.1000
G01 F120.00
G01 X21.9078 Y12.6594
G01 X21.9082 Y12.6597
G01 X21.9076 Y12.6597
G01 X21.9070 Y12.6590
G00 Z2.0000
G00 X24.2213 Y12.6597
G01 F60.00
G01 Z-0.1000
G01 F120.00
G01 X24.2409 Y12.6526
G01 X24.2530 Y12.6473
G01 X24.2649 Y12.6415
G01 X24.2764 Y12.6350
G01 X24.2877 Y12.6280
G01 X24.2985 Y12.6205
G01 X24.3090 Y12.6124
G01 X24.3239 Y12.5993
G01 X24.3378 Y12.5851
G01 X24.3879 Y12.5274
G01 X24.3997 Y12.5127
G01 X24.3997 Y12.6597
G01 X24.2213 Y12.6597
G00 Z2.0000
G00 X24.4878 Y12.0989
G01 F60.00
G01 Z-0.1000
G01 F120.00
G01 X24.4971 Y12.1068
G01 X24.5074 Y12.1149
G01 X24.5181 Y12.1224
G01 X24.5291 Y12.1294
G01 X24.5405 Y12.1358
G01 X24.5522 Y12.1417
G01 X24.5702 Y12.1494
G01 X24.5825 Y12.1538
G01 X24.5950 Y12.1576
G01 X24.6141 Y12.1622
G01 X24.6334 Y12.1653
G01 X24.6464 Y12.1666
G01 X24.6595 Y12.1672
G01 X26.6660 Y12.1673
G01 X26.6856 Y12.1666
G01 X26.6986 Y12.1653
G01 X26.7115 Y12.1634
G01 X26.7243 Y12.1608
G01 X26.7370 Y12.1576
G01 X26.7495 Y12.1538
G01 X26.7618 Y12.1494
G01 X26.7739 Y12.1444
G01 X26.7857 Y12.1388
G01 X26.7972 Y12.1327
G01 X26.8085 Y12.1260
G01 X26.8193 Y12.1187
G01 X26.8298 Y12.1109
G01 X26.8449 Y12.0982
G01 X26.8419 Y12.1135
G01 X26.8394 Y12.1324
G01 X26.8339 Y12.2084
G01 X26.8332 Y12.2274
G01 X26.8339 Y12.2464
G01 X26.8359 Y12.2652
G01 X26.8393 Y12.2840
G01 X26.8442 Y12.3031
G01 X26.8349 Y12.2952
G01 X26.8246 Y12.2871
G01 X26.8139 Y12.2796
G01 X26.8029 Y12.2726
G01 X26.7915 Y12.2662
G01 X26.7798 Y12.2603
G01 X26.7618 Y12.2526
G01 X26.7495 Y12.2482
G01 X26.7370 Y12.2444
G01 X26.7179 Y12.2398
G01 X26.7051 Y12.2376
G01 X26.6921 Y12.2360
G01 X26.6725 Y12.2348
G01 X24.6660 Y12.2347
G01 X24.6529 Y12.2350
G01 X24.6399 Y12.2360
G01 X24.6269 Y12.2376
G01 X24.6141 Y12.2398
G01 X24.6013 Y12.2427
G01 X24.5887 Y12.2462
G01 X24.5702 Y12.2526
G01 X24.5581 Y12.2576
G01 X24.5463 Y12.2632
G01 X24.5348 Y12.2693
G01 X24.5235 Y12.2760
G01 X24.5127 Y12.2833
G01 X24.5022 Y12.2911
G01 X24.4871 Y12.3038
G01 X24.4901 Y12.2885
G01 X24.4926 Y12.2696
G01 X24.4981 Y12.1936
G01 X24.4988 Y12.1746
G01 X24.4981 Y12.1556
G01 X24.4961 Y12.1367
G01 X24.4927 Y12.1180
G01 X24.4878 Y12.0989
G00 Z2.0000
G00 X24.3992 Y11.4322
G01 F60.00
G01 Z-0.1000
G01 F120.00
G01 X24.3997 Y11.4327
G01 X24.3997 Y11.4337
G01 X24.3994 Y11.4326
G01 X24.3992 Y11.4322
G00 Z2.0000
G00 X24.6182 Y10.5391
G01 F60.00
G01 Z-0.1000
G01 F120.00
G01 X24.6138 Y10.5399
G01 X24.6080 Y10.5340
G01 X24.6146 Y10.5374
G01 X24.6182 Y10.5391
G00 Z2.0000
G00 X24.3997 Y13.5929
G01 F60.00
G01 Z-0.1000
G01 F120.00
G01 X24.3614 Y13.5417
G01 X24.3489 Y13.5262
G01 X24.3400 Y13.5165
G01 X24.3306 Y13.5072
G01 X24.3156 Y13.4942
G01 X24.3051 Y13.4861
G01 X24.2942 Y13.4786
G01 X24.2830 Y13.4716
G01 X24.2714 Y13.4652
G01 X24.2596 Y13.4594
G01 X24.2474 Y13.4541
G01 X24.2160 Y13.4423
G01 X24.3997 Y13.4423
G01 X24.3997 Y13.5929
G00 Z2.0000
G00 X24.2213 Y14.3597
G01 F60.00
G01 Z-0.1000
G01 F120.00
G01 X24.2409 Y14.3526
G01 X24.2530 Y14.3473
G01 X24.2649 Y14.3415
G01 X24.2764 Y14.3350
G01 X24.2877 Y14.3280
G01 X24.2985 Y14.3205
G01 X24.3090 Y14.3124
G01 X24.3239 Y14.2993
G01 X24.3378 Y14.2851
G01 X24.3879 Y14.2274
G01 X24.3997 Y14.2127
G01 X24.3997 Y14.3597
G01 X24.2213 Y14.3597
G00 Z2.0000
G00 X24.3997 Y15.2929
G01 F60.00
G01 Z-0.1000
G01 F120.00
G01 X24.3614 Y15.2417
G01 X24.3489 Y15.2262
G01 X24.3353 Y15.2118
G01 X24.3257 Y15.2027
G01 X24.3156 Y15.1942
G01 X24.3051 Y15.1861
G01 X24.2942 Y15.1786
G01 X24.2830 Y15.1716
G01 X24.2714 Y15.1652
G01 X24.2596 Y15.1594
G01 X24.2474 Y15.1541
G01 X24.2160 Y15.1423
G01 X24.3997 Y15.1423
G01 X24.3997 Y15.2929
G00 Z2.0000
G00 X26.8449 Y13.7982
G01 F60.00
G01 Z-0.1000
G01 F120.00
G01 X26.8419 Y13.8135
G01 X26.8394 Y13.8324
G01 X26.8339 Y13.9084
G01 X26.8332 Y13.9274
G01 X26.8339 Y13.9464
G01 X26.8359 Y13.9652
G01 X26.8393 Y13.9840
G01 X26.8442 Y14.0031
G01 X26.8349 Y13.9952
G01 X26.8246 Y13.9871
G01 X26.8139 Y13.9796
G01 X26.8029 Y13.9726
G01 X26.7915 Y13.9662
G01 X26.7798 Y13.9603
G01 X26.7618 Y13.9526
G01 X26.7495 Y13.9482
G01 X26.7370 Y13.9444
G01 X26.7179 Y13.9398
G01 X26.7051 Y13.9376
G01 X26.6921 Y13.9360
G01 X26.6725 Y13.9348
G01 X24.6660 Y13.9347
G01 X24.6529 Y13.9350
G01 X24.6399 Y13.9360
G01 X24.6269 Y13.9376
G01 X24.6141 Y13.9398
G01 X24.6013 Y13.9427
G01 X24.5887 Y13.9462
G01 X24.5702 Y13.9526
G01 X24.5581 Y13.9576
G01 X24.5463 Y13.9632
G01 X24.5348 Y13.9693
G01 X24.5235 Y13.9760
G01 X24.5127 Y13.9833
G01 X24.5022 Y13.9911
G01 X24.4871 Y14.0038
G01 X24.4901 Y13.9885
G01 X24.4926 Y13.9696
G01 X24.4981 Y13.8936
G01 X24.4988 Y13.8746
G01 X24.4981 Y13.8556
G01 X24.4961 Y13.8367
G01 X24.4927 Y13.8180
G01 X24.4878 Y13.7989
G01 X24.4971 Y13.8068
G01 X24.5074 Y13.8149
G01 X24.5181 Y13.8224
G01 X24.5291 Y13.8294
G01 X24.5405 Y13.8358
G01 X24.5522 Y13.8417
G01 X24.5702 Y13.8494
G01 X24.5887 Y13.8558
G01 X24.6013 Y13.8593
G01 X24.6141 Y13.8622
G01 X24.6269 Y13.8644
G01 X24.6399 Y13.8660
G01 X24.6595 Y13.8672
G01 X26.6660 Y13.8673
G01 X26.6856 Y13.8666
G01 X26.6986 Y13.8653
G01 X26.7115 Y13.8634
G01 X26.7243 Y13.8608
G01 X26.7370 Y13.8576
G01 X26.7495 Y13.8538
G01 X26.7618 Y13.8494
G01 X26.7739 Y13.8444
G01 X26.7857 Y13.8388
G01 X26.7972 Y13.8327
G01 X26.8085 Y13.8260
G01 X26.8193 Y13.8187
G01 X26.8298 Y13.8109
G01 X26.8449 Y13.7982
G00 Z2.0000
G00 X20.6751 Y15.1423
G01 F60.00
G01 Z-0.1000
G01 F120.00
G01 X20.6616 Y15.1470
G01 X20.6494 Y15.1520
G01 X20.6315 Y15.1605
G01 X20.6199 Y15.1670
G01 X20.6033 Y15.1777
G01 X20.5926 Y15.1855
G01 X20.5823 Y15.1939
G01 X20.5725 Y15.2027
G01 X20.5631 Y15.2120
G01 X20.5542 Y15.2218
G01 X20.5085 Y15.2746
G01 X20.4960 Y15.2902
G01 X20.4847 Y15.3066
G01 X20.4778 Y15.3180
G01 X20.4716 Y15.3298
G01 X20.4643 Y15.3457
G01 X20.4643 Y15.2377
G01 X20.5596 Y15.1423
G01 X20.6751 Y15.1423
G00 Z2.0000
G00 X20.1916 Y14.6007
G01 F60.00
G01 Z-0.1000
G01 F120.00
G01 X20.2216 Y14.5707
G01 X20.2377 Y14.5563
G01 X20.2576 Y14.5416
G01 X20.2734 Y14.5319
G01 X20.2815 Y14.5274
G01 X20.2983 Y14.5195
G01 X20.3069 Y14.5161
G01 X20.3244 Y14.5100
G01 X20.3423 Y14.5053
G01 X20.3514 Y14.5034
G01 X20.3697 Y14.5007
G01 X20.3944 Y14.4992
G01 X24.5392 Y14.4991
G01 X24.5392 Y14.2010
G01 X24.5402 Y14.1855
G01 X24.5430 Y14.1702
G01 X24.5456 Y14.1612
G01 X24.5489 Y14.1525
G01 X24.5557 Y14.1385
G01 X24.5606 Y14.1306
G01 X24.5660 Y14.1230
G01 X24.5720 Y14.1158
G01 X24.5786 Y14.1092
G01 X24.5856 Y14.1030
G01 X24.5930 Y14.0973
G01 X24.6008 Y14.0922
G01 X24.6090 Y14.0877
G01 X24.6175 Y14.0839
G01 X24.6262 Y14.0806
G01 X24.6413 Y14.0766
G01 X24.6536 Y14.0748
G01 X24.6660 Y14.0742
G01 X26.6660 Y14.0742
G01 X26.6784 Y14.0748
G01 X26.6877 Y14.0761
G01 X26.6998 Y14.0788
G01 X26.7116 Y14.0827
G01 X26.7202 Y14.0864
G01 X26.7312 Y14.0922
G01 X26.7390 Y14.0973
G01 X26.7488 Y14.1050
G01 X26.7557 Y14.1113
G01 X26.7620 Y14.1182
G01 X26.7697 Y14.1280
G01 X26.7748 Y14.1358
G01 X26.7806 Y14.1468
G01 X26.7843 Y14.1554
G01 X26.7882 Y14.1672
G01 X26.7909 Y14.1793
G01 X26.7922 Y14.1886
G01 X26.7928 Y14.2010
G01 X26.7928 Y15.3010
G01 X26.7922 Y15.3134
G01 X26.7904 Y15.3257
G01 X26.7873 Y15.3378
G01 X26.7831 Y15.3495
G01 X26.7793 Y15.3580
G01 X26.7731 Y15.3688
G01 X26.7678 Y15.3765
G01 X26.7600 Y15.3862
G01 X26.7534 Y15.3928
G01 X26.7464 Y15.3990
G01 X26.7364 Y15.4064
G01 X26.7258 Y15.4128
G01 X26.7174 Y15.4169
G01 X26.7087 Y15.4204
G01 X26.6968 Y15.4240
G01 X26.6846 Y15.4264
G01 X26.6722 Y15.4276
G01 X24.6598 Y15.4276
G01 X24.6505 Y15.4268
G01 X24.6382 Y15.4247
G01 X24.6292 Y15.4223
G01 X24.6204 Y15.4193
G01 X24.6118 Y15.4156
G01 X24.6035 Y15.4113
G01 X24.5930 Y15.4047
G01 X24.5856 Y15.3990
G01 X24.5786 Y15.3928
G01 X24.5720 Y15.3862
G01 X24.5660 Y15.3790
G01 X24.5606 Y15.3714
G01 X24.5557 Y15.3635
G01 X24.5501 Y15.3524
G01 X24.5466 Y15.3437
G01 X24.5438 Y15.3348
G01 X24.5406 Y15.3196
G01 X24.5392 Y15.3041
G01 X24.5392 Y15.0029
G01 X20.5018 Y15.0029
G01 X20.3248 Y15.1799
G01 X20.3248 Y16.1380
G01 X20.3230 Y16.1749
G01 X20.3176 Y16.2115
G01 X20.3102 Y16.2414
G01 X20.3066 Y16.2533
G01 X20.2973 Y16.2793
G01 X20.2936 Y16.2879
G01 X20.2803 Y16.3156
G01 X20.2613 Y16.3473
G01 X20.2393 Y16.3770
G01 X20.2187 Y16.3999
G01 X20.2122 Y16.4066
G01 X20.1894 Y16.4273
G01 X20.1624 Y16.4477
G01 X20.1521 Y16.4546
G01 X20.1283 Y16.4688
G01 X20.1201 Y16.4731
G01 X20.0922 Y16.4861
G01 X20.0574 Y16.4986
G01 X20.0215 Y16.5076
G01 X19.9911 Y16.5122
G01 X19.9818 Y16.5133
G01 X19.9480 Y16.5148
G01 X19.3230 Y16.5148
G01 X19.2923 Y16.5134
G01 X19.2799 Y16.5122
G01 X19.2495 Y16.5076
G01 X19.2136 Y16.4986
G01 X19.1788 Y16.4861
G01 X19.1509 Y16.4731
G01 X19.1427 Y16.4688
G01 X19.1163 Y16.4530
G01 X19.1086 Y16.4477
G01 X19.0840 Y16.4293
G01 X19.0611 Y16.4087
G01 X19.0523 Y16.3999
G01 X19.0317 Y16.3770
G01 X19.0097 Y16.3473
G01 X18.9938 Y16.3210
G01 X18.9879 Y16.3101
G01 X18.9749 Y16.2822
G01 X18.9644 Y16.2533
G01 X18.9608 Y16.2414
G01 X18.9534 Y16.2115
G01 X18.9488 Y16.1811
G01 X18.9477 Y16.1718
G01 X18.9462 Y16.1380
G01 X18.9462 Y14.8849
G01 X18.9477 Y14.8542
G01 X18.9488 Y14.8449
G01 X18.9534 Y14.8145
G01 X18.9608 Y14.7846
G01 X18.9644 Y14.7727
G01 X18.9749 Y14.7438
G01 X18.9879 Y14.7159
G01 X18.9922 Y14.7077
G01 X19.0080 Y14.6813
G01 X19.0133 Y14.6736
G01 X19.0317 Y14.6490
G01 X19.0523 Y14.6261
G01 X19.0611 Y14.6173
G01 X19.0840 Y14.5967
G01 X19.1137 Y14.5747
G01 X19.1454 Y14.5557
G01 X19.1731 Y14.5424
G01 X19.1846 Y14.5376
G01 X19.2136 Y14.5274
G01 X19.2434 Y14.5198
G01 X19.2556 Y14.5174
G01 X19.2861 Y14.5130
G01 X19.3230 Y14.5112
G01 X19.9480 Y14.5112
G01 X19.9849 Y14.5130
G01 X20.0215 Y14.5184
G01 X20.0514 Y14.5258
G01 X20.0633 Y14.5294
G01 X20.0922 Y14.5399
G01 X20.1256 Y14.5557
G01 X20.1521 Y14.5714
G01 X20.1624 Y14.5783
G01 X20.1846 Y14.5948
G01 X20.1916 Y14.6007
G00 Z2.0000
G00 X20.1715 Y14.4229
G01 F60.00
G01 Z-0.1000
G01 F120.00
G01 X20.1818 Y14.4233
G01 X20.1836 Y14.4233
G01 X20.1789 Y14.4264
G01 X20.1715 Y14.4229
G00 Z2.0000
G00 X15.6759 Y15.1417
G01 F60.00
G01 Z-0.1000
G01 F120.00
G01 X15.6893 Y15.1371
G01 X15.7015 Y15.1321
G01 X15.7135 Y15.1265
G01 X15.7310 Y15.1171
G01 X15.7422 Y15.1101
G01 X15.7530 Y15.1025
G01 X15.7686 Y15.0902
G01 X15.7784 Y15.0813
G01 X15.7878 Y15.0720
G01 X15.7967 Y15.0622
G01 X15.8425 Y15.0094
G01 X15.8509 Y14.9992
G01 X15.8588 Y14.9885
G01 X15.8662 Y14.9775
G01 X15.8730 Y14.9661
G01 X15.8817 Y14.9493
G01 X15.8817 Y15.1417
G01 X15.6759 Y15.1417
G00 Z2.0000
G00 X15.8817 Y16.1186
G01 F60.00
G01 Z-0.1000
G01 F120.00
G01 X15.8734 Y16.0986
G01 X15.8679 Y16.0866
G01 X15.8617 Y16.0749
G01 X15.8549 Y16.0635
G01 X15.8476 Y16.0525
G01 X15.8397 Y16.0419
G01 X15.8314 Y16.0316
G01 X15.8179 Y16.0171
G01 X15.8034 Y16.0036
G01 X15.7931 Y15.9952
G01 X15.7825 Y15.9873
G01 X15.7198 Y15.9434
G01 X15.7029 Y15.9330
G01 X15.6861 Y15.9244
G01 X15.8817 Y15.9244
G01 X15.8817 Y16.1186
G00 Z2.0000
G00 X16.0056 Y7.1193
G01 F60.00
G01 Z-0.1000
G01 F120.00
G01 X16.0471 Y7.0779
G01 X16.0734 Y7.0900
G01 X16.0975 Y7.0989
G01 X16.0393 Y7.1098
G01 X16.0202 Y7.1146
G01 X16.0056 Y7.1193
G00 Z2.0000
G00 X15.7547 Y6.2627
G01 F60.00
G01 Z-0.1000
G01 F120.00
G01 X15.7547 Y6.2633
G01 X15.7540 Y6.2640
G01 X15.7544 Y6.2632
G01 X15.7547 Y6.2627
G00 Z2.0000
G00 X20.0646 Y6.9003
G01 F60.00
G01 Z-0.1000
G01 F120.00
G01 X20.0576 Y6.9062
G01 X20.0354 Y6.9227
G01 X20.0251 Y6.9296
G01 X19.9986 Y6.9453
G01 X19.9652 Y6.9611
G01 X19.9363 Y6.9716
G01 X19.9244 Y6.9752
G01 X19.8945 Y6.9826
G01 X19.8579 Y6.9880
G01 X19.8210 Y6.9898
G01 X19.1960 Y6.9898
G01 X19.1591 Y6.9880
G01 X19.1225 Y6.9826
G01 X19.0926 Y6.9752
G01 X19.0807 Y6.9716
G01 X19.0518 Y6.9611
G01 X19.0239 Y6.9481
G01 X19.0130 Y6.9422
G01 X18.9867 Y6.9263
G01 X18.9570 Y6.9043
G01 X18.9341 Y6.8837
G01 X18.9253 Y6.8749
G01 X18.9047 Y6.8520
G01 X18.8863 Y6.8274
G01 X18.8810 Y6.8197
G01 X18.8652 Y6.7933
G01 X18.8609 Y6.7851
G01 X18.8479 Y6.7572
G01 X18.8374 Y6.7283
G01 X18.8338 Y6.7164
G01 X18.8264 Y6.6865
G01 X18.8218 Y6.6561
G01 X18.8207 Y6.6468
G01 X18.8192 Y6.6161
G01 X18.8192 Y5.3630
G01 X18.8207 Y5.3292
G01 X18.8218 Y5.3199
G01 X18.8264 Y5.2895
G01 X18.8338 Y5.2596
G01 X18.8374 Y5.2477
G01 X18.8479 Y5.2188
G01 X18.8609 Y5.1909
G01 X18.8668 Y5.1800
G01 X18.8827 Y5.1537
G01 X18.9047 Y5.1240
G01 X18.9253 Y5.1011
G01 X18.9341 Y5.0923
G01 X18.9570 Y5.0717
G01 X18.9816 Y5.0533
G01 X18.9893 Y5.0480
G01 X19.0157 Y5.0322
G01 X19.0239 Y5.0279
G01 X19.0518 Y5.0149
G01 X19.0866 Y5.0024
G01 X19.1225 Y4.9934
G01 X19.1529 Y4.9888
G01 X19.1653 Y4.9876
G01 X19.1960 Y4.9862
G01 X19.8210 Y4.9862
G01 X19.8517 Y4.9876
G01 X19.8610 Y4.9884
G01 X19.8915 Y4.9929
G01 X19.9244 Y5.0008
G01 X19.9363 Y5.0044
G01 X19.9623 Y5.0137
G01 X19.9709 Y5.0174
G01 X19.9986 Y5.0307
G01 X20.0303 Y5.0497
G01 X20.0600 Y5.0717
G01 X20.0874 Y5.0966
G01 X20.1123 Y5.1240
G01 X20.1307 Y5.1486
G01 X20.1360 Y5.1563
G01 X20.1502 Y5.1800
G01 X20.1561 Y5.1909
G01 X20.1691 Y5.2188
G01 X20.1816 Y5.2536
G01 X20.1906 Y5.2895
G01 X20.1960 Y5.3261
G01 X20.1978 Y5.3630
G01 X20.1978 Y6.3211
G01 X24.5824 Y10.7057
G01 X24.5905 Y10.6992
G01 X24.6008 Y10.6922
G01 X24.6090 Y10.6877
G01 X24.6204 Y10.6827
G01 X24.6292 Y10.6797
G01 X24.6413 Y10.6766
G01 X24.6505 Y10.6752
G01 X24.6629 Y10.6742
G01 X26.6660 Y10.6742
G01 X26.6753 Y10.6745
G01 X26.6877 Y10.6761
G01 X26.6998 Y10.6788
G01 X26.7116 Y10.6827
G01 X26.7230 Y10.6877
G01 X26.7338 Y10.6939
G01 X26.7415 Y10.6992
G01 X26.7512 Y10.7070
G01 X26.7600 Y10.7158
G01 X26.7678 Y10.7255
G01 X26.7748 Y10.7358
G01 X26.7819 Y10.7496
G01 X26.7864 Y10.7612
G01 X26.7897 Y10.7732
G01 X26.7918 Y10.7855
G01 X26.7928 Y10.7979
G01 X26.7928 Y11.9041
G01 X26.7922 Y11.9134
G01 X26.7909 Y11.9227
G01 X26.7890 Y11.9318
G01 X26.7864 Y11.9408
G01 X26.7819 Y11.9524
G01 X26.7778 Y11.9608
G01 X26.7731 Y11.9688
G01 X26.7678 Y11.9765
G01 X26.7578 Y11.9884
G01 X26.7464 Y11.9990
G01 X26.7338 Y12.0081
G01 X26.7230 Y12.0143
G01 X26.7087 Y12.0204
G01 X26.6968 Y12.0240
G01 X26.6815 Y12.0268
G01 X26.6660 Y12.0278
G01 X24.6660 Y12.0278
G01 X24.6567 Y12.0275
G01 X24.6474 Y12.0264
G01 X24.6382 Y12.0247
G01 X24.6262 Y12.0214
G01 X24.6175 Y12.0181
G01 X24.6090 Y12.0143
G01 X24.5982 Y12.0081
G01 X24.5905 Y12.0028
G01 X24.5808 Y11.9950
G01 X24.5700 Y11.9838
G01 X24.5623 Y11.9740
G01 X24.5542 Y11.9608
G01 X24.5489 Y11.9495
G01 X24.5438 Y11.9348
G01 X24.5411 Y11.9227
G01 X24.5395 Y11.9103
G01 X24.5392 Y11.9010
G01 X24.5392 Y11.3749
G01 X20.0646 Y6.9003
G00 Z2.0000
G00 X20.0449 Y7.0779
G01 F60.00
G01 Z-0.1000
G01 F120.00
G01 X20.0905 Y7.1234
G01 X20.0718 Y7.1146
G01 X20.0596 Y7.1098
G01 X20.0472 Y7.1056
G01 X20.0282 Y7.1004
G01 X20.0154 Y7.0978
G01 X20.0031 Y7.0959
G01 X20.0246 Y7.0874
G01 X20.0449 Y7.0779
G00 Z2.0000
G00 X20.3378 Y6.2638
G01 F60.00
G01 Z-0.1000
G01 F120.00
G01 X20.3373 Y6.2633
G01 X20.3373 Y6.2623
G01 X20.3376 Y6.2634
G01 X20.3378 Y6.2638
G00 Z2.0000
G00 X-0.3683 Y19.1985
G01 F60.00
G01 Z-0.1000
G01 F120.00
G01 X-0.3683 Y-0.1105
G01 X-0.3677 Y-0.1226
G01 X-0.3660 Y-0.1345
G01 X-0.3535 Y-0.1921
G01 X-0.3488 Y-0.2072
G01 X-0.3451 Y-0.2159
G01 X-0.3407 Y-0.2244
G01 X-0.3339 Y-0.2351
G01 X-0.3282 Y-0.2426
G01 X-0.2783 Y-0.3002
G01 X-0.2717 Y-0.3069
G01 X-0.2646 Y-0.3132
G01 X-0.2570 Y-0.3189
G01 X-0.2463 Y-0.3255
G01 X-0.2351 Y-0.3311
G01 X-0.2233 Y-0.3356
G01 X-0.1503 Y-0.3570
G01 X-0.1355 Y-0.3600
G01 X-0.1265 Y-0.3610
G01 X-0.1175 Y-0.3613
G01 X35.0665 Y-0.3613
G01 X35.0786 Y-0.3607
G01 X35.0905 Y-0.3590
G01 X35.1481 Y-0.3465
G01 X35.1632 Y-0.3418
G01 X35.1719 Y-0.3381
G01 X35.1804 Y-0.3337
G01 X35.1885 Y-0.3287
G01 X35.1986 Y-0.3212
G01 X35.2562 Y-0.2713
G01 X35.2629 Y-0.2647
G01 X35.2692 Y-0.2576
G01 X35.2766 Y-0.2474
G01 X35.2815 Y-0.2393
G01 X35.2871 Y-0.2281
G01 X35.2916 Y-0.2163
G01 X35.3130 Y-0.1433
G01 X35.3150 Y-0.1345
G01 X35.3164 Y-0.1256
G01 X35.3173 Y-0.1105
G01 X35.3173 Y19.1985
G01 X35.3167 Y19.2106
G01 X35.3150 Y19.2225
G01 X35.3025 Y19.2801
G01 X35.2999 Y19.2892
G01 X35.2966 Y19.2981
G01 X35.2897 Y19.3124
G01 X35.2847 Y19.3205
G01 X35.2772 Y19.3306
G01 X35.2273 Y19.3882
G01 X35.2207 Y19.3949
G01 X35.2136 Y19.4012
G01 X35.2034 Y19.4086
G01 X35.1953 Y19.4135
G01 X35.1841 Y19.4191
G01 X35.1723 Y19.4236
G01 X35.0993 Y19.4450
G01 X35.0905 Y19.4470
G01 X35.0816 Y19.4484
G01 X35.0665 Y19.4493
G01 X-0.1175 Y19.4493
G01 X-0.1265 Y19.4490
G01 X-0.1385 Y19.4475
G01 X-0.1960 Y19.4352
G01 X-0.2112 Y19.4309
G01 X-0.2258 Y19.4247
G01 X-0.2368 Y19.4185
G01 X-0.2496 Y19.4092
G01 X-0.3049 Y19.3614
G01 X-0.3118 Y19.3549
G01 X-0.3221 Y19.3431
G01 X-0.3293 Y19.3328
G01 X-0.3368 Y19.3189
G01 X-0.3416 Y19.3073
G01 X-0.3647 Y19.2284
G01 X-0.3674 Y19.2136
G01 X-0.3683 Y19.1985
G00 Z2.0000
G00 X-0.5078 Y19.1985
G01 F60.00
G01 Z-0.1000
G01 F120.00
G01 X-0.5078 Y-0.1105
G01 X-0.5071 Y-0.1295
G01 X-0.5059 Y-0.1421
G01 X-0.5041 Y-0.1547
G01 X-0.5017 Y-0.1671
G01 X-0.4890 Y-0.2251
G01 X-0.4835 Y-0.2443
G01 X-0.4767 Y-0.2630
G01 X-0.4713 Y-0.2752
G01 X-0.4622 Y-0.2930
G01 X-0.4553 Y-0.3044
G01 X-0.4479 Y-0.3154
G01 X-0.4358 Y-0.3313
G01 X-0.3858 Y-0.3892
G01 X-0.3769 Y-0.3990
G01 X-0.3626 Y-0.4128
G01 X-0.3474 Y-0.4255
G01 X-0.3313 Y-0.4370
G01 X-0.3143 Y-0.4473
G01 X-0.2967 Y-0.4563
G01 X-0.2845 Y-0.4616
G01 X-0.2722 Y-0.4663
G01 X-0.2596 Y-0.4703
G01 X-0.1864 Y-0.4917
G01 X-0.1679 Y-0.4960
G01 X-0.1554 Y-0.4981
G01 X-0.1365 Y-0.5001
G01 X-0.1175 Y-0.5008
G01 X35.0665 Y-0.5008
G01 X35.0855 Y-0.5001
G01 X35.0981 Y-0.4989
G01 X35.1107 Y-0.4971
G01 X35.1231 Y-0.4947
G01 X35.1811 Y-0.4820
G01 X35.2003 Y-0.4765
G01 X35.2190 Y-0.4697
G01 X35.2312 Y-0.4643
G01 X35.2490 Y-0.4552
G01 X35.2659 Y-0.4447
G01 X35.2768 Y-0.4370
G01 X35.2873 Y-0.4288
G01 X35.3452 Y-0.3788
G01 X35.3550 Y-0.3699
G01 X35.3688 Y-0.3556
G01 X35.3815 Y-0.3404
G01 X35.3930 Y-0.3243
G01 X35.4033 Y-0.3073
G01 X35.4123 Y-0.2897
G01 X35.4176 Y-0.2775
G01 X35.4223 Y-0.2652
G01 X35.4263 Y-0.2526
G01 X35.4477 Y-0.1794
G01 X35.4520 Y-0.1609
G01 X35.4549 Y-0.1421
G01 X35.4565 Y-0.1232
G01 X35.4568 Y-0.1105
G01 X35.4568 Y19.1985
G01 X35.4565 Y19.2112
G01 X35.4556 Y19.2238
G01 X35.4531 Y19.2427
G01 X35.4507 Y19.2551
G01 X35.4380 Y19.3131
G01 X35.4345 Y19.3259
G01 X35.4281 Y19.3448
G01 X35.4203 Y19.3632
G01 X35.4112 Y19.3810
G01 X35.4043 Y19.3924
G01 X35.3969 Y19.4034
G01 X35.3848 Y19.4193
G01 X35.3348 Y19.4772
G01 X35.3259 Y19.4870
G01 X35.3116 Y19.5008
G01 X35.2964 Y19.5135
G01 X35.2803 Y19.5250
G01 X35.2633 Y19.5353
G01 X35.2516 Y19.5415
G01 X35.2396 Y19.5470
G01 X35.2212 Y19.5543
G01 X35.2086 Y19.5583
G01 X35.1354 Y19.5797
G01 X35.1231 Y19.5827
G01 X35.1044 Y19.5861
G01 X35.0855 Y19.5881
G01 X35.0665 Y19.5888
G01 X-0.1175 Y19.5888
G01 X-0.1302 Y19.5885
G01 X-0.1428 Y19.5876
G01 X-0.1617 Y19.5851
G01 X-0.2256 Y19.5715
G01 X-0.2385 Y19.5683
G01 X-0.2513 Y19.5645
G01 X-0.2700 Y19.5577
G01 X-0.2822 Y19.5523
G01 X-0.2941 Y19.5464
G01 X-0.3057 Y19.5398
G01 X-0.3224 Y19.5289
G01 X-0.3331 Y19.5210
G01 X-0.3434 Y19.5125
G01 X-0.3962 Y19.4668
G01 X-0.4107 Y19.4532
G01 X-0.4198 Y19.4436
G01 X-0.4284 Y19.4336
G01 X-0.4365 Y19.4231
G01 X-0.4440 Y19.4123
G01 X-0.4543 Y19.3953
G01 X-0.4605 Y19.3836
G01 X-0.4660 Y19.3716
G01 X-0.4710 Y19.3594
G01 X-0.4773 Y19.3406
G01 X-0.4970 Y19.2735
G01 X-0.5017 Y19.2551
G01 X-0.5041 Y19.2427
G01 X-0.5066 Y19.2238
G01 X-0.5075 Y19.2112
G01 X-0.5078 Y19.1985
G00 Z2.0000
G00 X-0.6473 Y19.1985
G01 F60.00
G01 Z-0.1000
G01 F120.00
G01 X-0.6471 Y-0.1202
G01 X-0.6454 Y-0.1491
G01 X-0.6416 Y-0.1778
G01 X-0.6380 Y-0.1968
G01 X-0.6268 Y-0.2483
G01 X-0.6220 Y-0.2680
G01 X-0.6192 Y-0.2777
G01 X-0.6129 Y-0.2970
G01 X-0.6057 Y-0.3160
G01 X-0.6018 Y-0.3253
G01 X-0.5931 Y-0.3436
G01 X-0.5836 Y-0.3615
G01 X-0.5785 Y-0.3703
G01 X-0.5732 Y-0.3789
G01 X-0.5619 Y-0.3958
G01 X-0.5498 Y-0.4121
G01 X-0.5435 Y-0.4200
G01 X-0.4912 Y-0.4805
G01 X-0.4845 Y-0.4881
G01 X-0.4706 Y-0.5026
G01 X-0.4559 Y-0.5165
G01 X-0.4483 Y-0.5231
G01 X-0.4406 Y-0.5296
G01 X-0.4247 Y-0.5419
G01 X-0.4165 Y-0.5478
G01 X-0.3997 Y-0.5589
G01 X-0.3823 Y-0.5691
G01 X-0.3734 Y-0.5739
G01 X-0.3645 Y-0.5785
G01 X-0.3462 Y-0.5870
G01 X-0.3369 Y-0.5909
G01 X-0.3180 Y-0.5980
G01 X-0.2989 Y-0.6041
G01 X-0.2225 Y-0.6264
G01 X-0.1943 Y-0.6329
G01 X-0.1657 Y-0.6374
G01 X-0.1464 Y-0.6392
G01 X-0.1175 Y-0.6403
G01 X35.0665 Y-0.6403
G01 X35.0954 Y-0.6392
G01 X35.1147 Y-0.6374
G01 X35.1338 Y-0.6346
G01 X35.1528 Y-0.6310
G01 X35.2043 Y-0.6198
G01 X35.2240 Y-0.6150
G01 X35.2434 Y-0.6092
G01 X35.2530 Y-0.6059
G01 X35.2625 Y-0.6024
G01 X35.2813 Y-0.5948
G01 X35.2996 Y-0.5861
G01 X35.3175 Y-0.5766
G01 X35.3263 Y-0.5715
G01 X35.3349 Y-0.5662
G01 X35.3518 Y-0.5549
G01 X35.3600 Y-0.5490
G01 X35.3760 Y-0.5365
G01 X35.4365 Y-0.4842
G01 X35.4514 Y-0.4706
G01 X35.4586 Y-0.4636
G01 X35.4725 Y-0.4489
G01 X35.4791 Y-0.4413
G01 X35.4918 Y-0.4257
G01 X35.4979 Y-0.4177
G01 X35.5094 Y-0.4011
G01 X35.5149 Y-0.3927
G01 X35.5251 Y-0.3753
G01 X35.5299 Y-0.3664
G01 X35.5345 Y-0.3575
G01 X35.5430 Y-0.3392
G01 X35.5469 Y-0.3299
G01 X35.5540 Y-0.3110
G01 X35.5601 Y-0.2919
G01 X35.5824 Y-0.2155
G01 X35.5889 Y-0.1873
G01 X35.5921 Y-0.1682
G01 X35.5952 Y-0.1394
G01 X35.5963 Y-0.1105
G01 X35.5963 Y19.1985
G01 X35.5958 Y19.2178
G01 X35.5944 Y19.2371
G01 X35.5906 Y19.2658
G01 X35.5870 Y19.2848
G01 X35.5758 Y19.3363
G01 X35.5710 Y19.3560
G01 X35.5682 Y19.3657
G01 X35.5619 Y19.3850
G01 X35.5547 Y19.4040
G01 X35.5466 Y19.4225
G01 X35.5421 Y19.4316
G01 X35.5375 Y19.4406
G01 X35.5275 Y19.4583
G01 X35.5222 Y19.4669
G01 X35.5109 Y19.4838
G01 X35.5050 Y19.4920
G01 X35.4925 Y19.5080
G01 X35.4402 Y19.5685
G01 X35.4335 Y19.5761
G01 X35.4196 Y19.5906
G01 X35.4123 Y19.5976
G01 X35.3973 Y19.6111
G01 X35.3817 Y19.6238
G01 X35.3737 Y19.6299
G01 X35.3571 Y19.6414
G01 X35.3487 Y19.6469
G01 X35.3400 Y19.6521
G01 X35.3224 Y19.6619
G01 X35.3135 Y19.6665
G01 X35.2952 Y19.6750
G01 X35.2765 Y19.6825
G01 X35.2670 Y19.6860
G01 X35.2479 Y19.6921
G01 X35.1715 Y19.7144
G01 X35.1433 Y19.7209
G01 X35.1242 Y19.7241
G01 X35.0954 Y19.7272
G01 X35.0665 Y19.7283
G01 X-0.1272 Y19.7281
G01 X-0.1561 Y19.7264
G01 X-0.1848 Y19.7226
G01 X-0.2038 Y19.7190
G01 X-0.2651 Y19.7055
G01 X-0.2847 Y19.7002
G01 X-0.3040 Y19.6939
G01 X-0.3230 Y19.6867
G01 X-0.3415 Y19.6786
G01 X-0.3596 Y19.6695
G01 X-0.3773 Y19.6595
G01 X-0.3944 Y19.6487
G01 X-0.4110 Y19.6370
G01 X-0.4191 Y19.6308
G01 X-0.4347 Y19.6179
G01 X-0.4875 Y19.5722
G01 X-0.4951 Y19.5655
G01 X-0.5096 Y19.5516
G01 X-0.5235 Y19.5369
G01 X-0.5366 Y19.5216
G01 X-0.5489 Y19.5057
G01 X-0.5604 Y19.4891
G01 X-0.5659 Y19.4807
G01 X-0.5761 Y19.4633
G01 X-0.5855 Y19.4455
G01 X-0.5940 Y19.4272
G01 X-0.6015 Y19.4085
G01 X-0.6050 Y19.3990
G01 X-0.6111 Y19.3799
G01 X-0.6308 Y19.3128
G01 X-0.6380 Y19.2848
G01 X-0.6416 Y19.2658
G01 X-0.6444 Y19.2467
G01 X-0.6468 Y19.2178
G01 X-0.6473 Y19.1985
G00 Z2.0000
M05
G00 Z2.0000
G00 Z15.00


