(G-CODE GENERATED BY FLATCAM v8.994 - www.flatcam.org - Version Date: 2020/11/7)

(Name: RGB-PTH.drl_cnc)
(Type: G-code from Geometry)
(Units: MM)

(Created on Thursday, 14 September 2023 at 19:05)

(This preprocessor is the default preprocessor used by FlatCAM.)
(It is made to work with MACH3 compatible motion controllers.)


(TOOLS DIAMETER: )
(Tool: 1 -> Dia: 1.0)

(FEEDRATE Z: )
(Tool: 1 -> Feedrate: 300.0)

(FEEDRATE RAPIDS: )
(Tool: 1 -> Feedrate Rapids: 1500.0)

(Z_CUT: )
(Tool: 1 -> Z_Cut: -1.7)

(Tools Offset: )
(Tool: 1 -> Offset Z: 0.0)

(Z_MOVE: )
(Tool: 1 -> Z_Move: 2.0)

(Z Toolchange: 15 mm)
(X,Y Toolchange: 0.0000, 0.0000 mm)
(Z Start: None mm)
(Z End: 0.5 mm)
(X,Y End: None mm)
(Steps per circle: 64)
(Preprocessor Excellon: default)

(X range:    5.6710 ...    6.6710  mm)
(Y range:    7.4130 ...   16.0330  mm)

(Spindle Speed: 0.0 RPM)
G21
G90
G94

G01 F300.00

M5
G00 Z15.0000
T2M6
(MSG, Change to Tool Dia = 1.0000 ||| Total drills for tool T1 = 4)
M0
G00 Z15.0000

G01 F300.00
M03
G00 X6.1710 Y15.5330
G01 Z-1.7000
G01 Z0
G00 Z2.0000
G00 X6.1710 Y12.9930
G01 Z-1.7000
G01 Z0
G00 Z2.0000
G00 X6.1710 Y10.4530
G01 Z-1.7000
G01 Z0
G00 Z2.0000
G00 X6.1710 Y7.9130
G01 Z-1.7000
G01 Z0
G00 Z2.0000
M05
G00 Z0.50


