(G-CODE GENERATED BY FLATCAM v8.994 - www.flatcam.org - Version Date: 2020/11/7)

(Name: RGB-Edge_Cuts.gbr_cutout_cnc)
(Type: G-code from Geometry)
(Units: MM)

(Created on Thursday, 14 September 2023 at 19:28)

(This preprocessor is the default preprocessor used by FlatCAM.)
(It is made to work with MACH3 compatible motion controllers.)

(TOOL DIAMETER: 0.7937 mm)
(Feedrate_XY: 120.0 mm/min)
(Feedrate_Z: 60.0 mm/min)
(Feedrate rapids 1500.0 mm/min)

(Z_Cut: -2.4 mm)
(Z_Move: 2.0 mm)
(Z Start: None mm)
(Z End: 15.0 mm)
(X,Y End: None mm)
(Steps per circle: 64)
(Preprocessor Geometry: default)

(X range:   -1.2389 ...   36.1879  mm)
(Y range:   -1.2319 ...   20.3199  mm)

(Spindle Speed: 0.0 RPM)
G21
G90
G94

G01 F120.00

M5
G00 Z15.0000
G00 X0.0000 Y0.0000
T3M6    
(MSG, Change to Tool Dia = 0.7937)
M0
G00 Z15.0000

M03
G01 F120.00
G00 X-1.2389 Y8.8972
G01 F60.00
G01 Z-2.4000
G01 F120.00
G01 X-1.2389 Y-0.2350
G01 X-1.2378 Y-0.2790
G01 X-1.2373 Y-0.2888
G01 X-1.2287 Y-0.3764
G01 X-1.2273 Y-0.3861
G01 X-1.2101 Y-0.4724
G01 X-1.2077 Y-0.4820
G01 X-1.1822 Y-0.5662
G01 X-1.1789 Y-0.5754
G01 X-1.1452 Y-0.6567
G01 X-1.1410 Y-0.6656
G01 X-1.0995 Y-0.7432
G01 X-1.0944 Y-0.7517
G01 X-1.0455 Y-0.8248
G01 X-1.0397 Y-0.8327
G01 X-0.9839 Y-0.9008
G01 X-0.9773 Y-0.9080
G01 X-0.9150 Y-0.9703
G01 X-0.9078 Y-0.9769
G01 X-0.8397 Y-1.0327
G01 X-0.8318 Y-1.0385
G01 X-0.7587 Y-1.0874
G01 X-0.7502 Y-1.0925
G01 X-0.6726 Y-1.1340
G01 X-0.6637 Y-1.1382
G01 X-0.5824 Y-1.1719
G01 X-0.5732 Y-1.1752
G01 X-0.4890 Y-1.2007
G01 X-0.4794 Y-1.2031
G01 X-0.3931 Y-1.2203
G01 X-0.3834 Y-1.2217
G01 X-0.2958 Y-1.2303
G01 X-0.2420 Y-1.2319
G01 X16.8276 Y-1.2319
G00 Z2.0000
G00 X-1.2389 Y11.1909
G01 F60.00
G01 Z-2.4000
G01 F120.00
G01 X-1.2389 Y19.3230
G01 X-1.2373 Y19.3768
G01 X-1.2287 Y19.4644
G01 X-1.2273 Y19.4741
G01 X-1.2101 Y19.5604
G01 X-1.2077 Y19.5700
G01 X-1.1822 Y19.6542
G01 X-1.1789 Y19.6634
G01 X-1.1452 Y19.7447
G01 X-1.1410 Y19.7536
G01 X-1.0995 Y19.8312
G01 X-1.0944 Y19.8397
G01 X-1.0455 Y19.9128
G01 X-1.0397 Y19.9207
G01 X-0.9839 Y19.9888
G01 X-0.9773 Y19.9960
G01 X-0.9150 Y20.0583
G01 X-0.9078 Y20.0649
G01 X-0.8397 Y20.1207
G01 X-0.8318 Y20.1265
G01 X-0.7587 Y20.1754
G01 X-0.7502 Y20.1805
G01 X-0.6726 Y20.2220
G01 X-0.6637 Y20.2262
G01 X-0.5824 Y20.2599
G01 X-0.5732 Y20.2632
G01 X-0.4890 Y20.2887
G01 X-0.4794 Y20.2911
G01 X-0.3931 Y20.3083
G01 X-0.3834 Y20.3097
G01 X-0.2958 Y20.3183
G01 X-0.2420 Y20.3199
G01 X16.8276 Y20.3199
G00 Z2.0000
G00 X19.1213 Y20.3199
G01 F60.00
G01 Z-2.4000
G01 F120.00
G01 X35.1910 Y20.3199
G01 X35.2448 Y20.3183
G01 X35.3324 Y20.3097
G01 X35.3421 Y20.3083
G01 X35.4284 Y20.2911
G01 X35.4380 Y20.2887
G01 X35.5222 Y20.2632
G01 X35.5314 Y20.2599
G01 X35.6127 Y20.2262
G01 X35.6216 Y20.2220
G01 X35.6992 Y20.1805
G01 X35.7077 Y20.1754
G01 X35.7808 Y20.1265
G01 X35.7887 Y20.1207
G01 X35.8568 Y20.0649
G01 X35.8640 Y20.0583
G01 X35.9263 Y19.9960
G01 X35.9329 Y19.9888
G01 X35.9887 Y19.9207
G01 X35.9945 Y19.9128
G01 X36.0434 Y19.8397
G01 X36.0485 Y19.8312
G01 X36.0900 Y19.7536
G01 X36.0942 Y19.7447
G01 X36.1279 Y19.6634
G01 X36.1312 Y19.6542
G01 X36.1567 Y19.5700
G01 X36.1591 Y19.5604
G01 X36.1763 Y19.4741
G01 X36.1777 Y19.4644
G01 X36.1863 Y19.3768
G01 X36.1879 Y19.3230
G01 X36.1879 Y11.1909
G00 Z2.0000
G00 X36.1879 Y8.8972
G01 F60.00
G01 Z-2.4000
G01 F120.00
G01 X36.1879 Y-0.2350
G01 X36.1868 Y-0.2790
G01 X36.1863 Y-0.2888
G01 X36.1777 Y-0.3764
G01 X36.1763 Y-0.3861
G01 X36.1591 Y-0.4724
G01 X36.1567 Y-0.4820
G01 X36.1312 Y-0.5662
G01 X36.1279 Y-0.5754
G01 X36.0942 Y-0.6567
G01 X36.0900 Y-0.6656
G01 X36.0485 Y-0.7432
G01 X36.0434 Y-0.7517
G01 X35.9945 Y-0.8248
G01 X35.9887 Y-0.8327
G01 X35.9329 Y-0.9008
G01 X35.9263 Y-0.9080
G01 X35.8640 Y-0.9703
G01 X35.8568 Y-0.9769
G01 X35.7887 Y-1.0327
G01 X35.7808 Y-1.0385
G01 X35.7077 Y-1.0874
G01 X35.6992 Y-1.0925
G01 X35.6216 Y-1.1340
G01 X35.6127 Y-1.1382
G01 X35.5314 Y-1.1719
G01 X35.5222 Y-1.1752
G01 X35.4380 Y-1.2007
G01 X35.4284 Y-1.2031
G01 X35.3421 Y-1.2203
G01 X35.3324 Y-1.2217
G01 X35.2448 Y-1.2303
G01 X35.1910 Y-1.2319
G01 X19.1213 Y-1.2319
G00 Z2.0000
M05
G00 Z2.0000
G00 Z15.00


