(G-CODE GENERATED BY FLATCAM v8.994 - www.flatcam.org - Version Date: 2020/11/7)

(Name: Current Sense Standalone-F_Cu.gtl_iso_combined_cnc)
(Type: G-code from Geometry)
(Units: MM)

(Created on Tuesday, 29 August 2023 at 10:45)

(This preprocessor is the default preprocessor used by FlatCAM.)
(It is made to work with MACH3 compatible motion controllers.)

(TOOL DIAMETER: 0.2536 mm)
(Feedrate_XY: 120.0 mm/min)
(Feedrate_Z: 60.0 mm/min)
(Feedrate rapids 1500.0 mm/min)

(Z_Cut: -0.1 mm)
(Z_Move: 2.0 mm)
(Z Start: None mm)
(Z End: 15.0 mm)
(X,Y End: None mm)
(Steps per circle: 64)
(Preprocessor Geometry: default)

(X range:    2.7951 ...   66.7410  mm)
(Y range:    3.1625 ...   29.1110  mm)

(Spindle Speed: 0.0 RPM)
G21
G90
G94

G01 F120.00

M5
G00 Z15.0000
G00 X0.0000 Y0.0000
T2
M6    
(MSG, Change to Tool Dia = 0.2536)
M0
G00 Z15.0000

M03
G01 F120.00
G00 X6.2726 Y18.9900
G01 F60.00
G01 Z-0.1000
G01 F120.00
G01 X6.2911 Y18.6369
G01 X6.3464 Y18.2876
G01 X6.4379 Y17.9460
G01 X6.5647 Y17.6159
G01 X6.7252 Y17.3008
G01 X6.9178 Y17.0043
G01 X7.1403 Y16.7295
G01 X7.3904 Y16.4794
G01 X7.6652 Y16.2569
G01 X7.9618 Y16.0643
G01 X8.2768 Y15.9037
G01 X8.6070 Y15.7770
G01 X8.9485 Y15.6855
G01 X9.2978 Y15.6302
G01 X9.6509 Y15.6117
G01 X10.0041 Y15.6302
G01 X10.3533 Y15.6855
G01 X10.6949 Y15.7770
G01 X11.0250 Y15.9037
G01 X11.3401 Y16.0643
G01 X11.6367 Y16.2569
G01 X11.9115 Y16.4794
G01 X11.9771 Y16.5450
G01 X11.9838 Y16.5510
G01 X11.9935 Y16.5582
G01 X12.0038 Y16.5645
G01 X12.0651 Y16.5980
G01 X12.0735 Y16.6021
G01 X12.0821 Y16.6057
G01 X12.0940 Y16.6094
G01 X12.1062 Y16.6119
G01 X12.1455 Y16.6161
G01 X16.6002 Y16.6163
G01 X16.6237 Y16.6152
G01 X16.6882 Y16.6083
G01 X20.5055 Y16.6083
G01 X20.5261 Y16.6074
G01 X20.5546 Y16.6048
G01 X20.6705 Y16.6083
G01 X24.5703 Y16.6083
G01 X24.6074 Y16.6123
G01 X24.7102 Y16.6506
G01 X24.7889 Y16.7095
G01 X24.8017 Y16.7175
G01 X24.8153 Y16.7239
G01 X24.8836 Y16.7494
G01 X24.8956 Y16.7532
G01 X24.9079 Y16.7558
G01 X24.9173 Y16.7570
G01 X24.9267 Y16.7574
G01 X24.9393 Y16.7569
G01 X24.9549 Y16.7545
G01 X25.0232 Y16.7397
G01 X25.0355 Y16.7363
G01 X25.0445 Y16.7330
G01 X25.0560 Y16.7276
G01 X25.0670 Y16.7210
G01 X25.1028 Y16.6943
G01 X25.1120 Y16.6864
G01 X27.4975 Y14.3009
G01 X27.6007 Y14.2167
G01 X27.7582 Y14.1345
G01 X27.9291 Y14.0856
G01 X28.1062 Y14.0721
G01 X28.2766 Y14.0938
G01 X28.2856 Y14.0946
G01 X28.2947 Y14.0948
G01 X28.3097 Y14.0936
G01 X28.3848 Y14.0816
G01 X28.3970 Y14.0787
G01 X28.4089 Y14.0746
G01 X28.4175 Y14.0707
G01 X28.4259 Y14.0662
G01 X28.4338 Y14.0612
G01 X28.4414 Y14.0555
G01 X28.4982 Y14.0048
G01 X28.5089 Y13.9940
G01 X28.5165 Y13.9845
G01 X28.5232 Y13.9742
G01 X28.5390 Y13.9426
G01 X28.6044 Y13.8552
G01 X28.6905 Y13.7908
G01 X28.7446 Y13.7706
G01 X28.7446 Y13.8309
G01 X28.7460 Y13.8464
G01 X28.7484 Y13.8586
G01 X28.7520 Y13.8705
G01 X28.7568 Y13.8820
G01 X28.7626 Y13.8930
G01 X28.7714 Y13.9058
G01 X28.7817 Y13.9175
G01 X28.7934 Y13.9278
G01 X28.8036 Y13.9349
G01 X28.8144 Y13.9411
G01 X28.8287 Y13.9472
G01 X28.8436 Y13.9515
G01 X28.8559 Y13.9536
G01 X28.8714 Y13.9546
G01 X30.3446 Y13.9546
G01 X30.3570 Y13.9540
G01 X30.3724 Y13.9515
G01 X30.3873 Y13.9472
G01 X30.4016 Y13.9411
G01 X30.4150 Y13.9332
G01 X30.4274 Y13.9238
G01 X30.4386 Y13.9130
G01 X30.4483 Y13.9008
G01 X30.4549 Y13.8903
G01 X30.4617 Y13.8763
G01 X30.4668 Y13.8616
G01 X30.4695 Y13.8495
G01 X30.4708 Y13.8402
G01 X30.4714 Y13.8309
G01 X30.4714 Y13.7706
G01 X30.5255 Y13.7908
G01 X30.6116 Y13.8552
G01 X30.6760 Y13.9413
G01 X30.7143 Y14.0441
G01 X30.7183 Y14.0811
G01 X30.7183 Y14.5189
G01 X30.7107 Y14.5903
G01 X30.7102 Y14.6028
G01 X30.7107 Y14.6121
G01 X30.7083 Y14.6513
G01 X30.7091 Y14.6664
G01 X30.7111 Y14.6783
G01 X30.7137 Y14.6880
G01 X30.7183 Y14.7311
G01 X30.7183 Y15.1689
G01 X30.7107 Y15.2403
G01 X30.7102 Y15.2528
G01 X30.7107 Y15.2621
G01 X30.7083 Y15.3014
G01 X30.7092 Y15.3164
G01 X30.7112 Y15.3283
G01 X30.7137 Y15.3380
G01 X30.7183 Y15.3811
G01 X30.7183 Y15.8189
G01 X30.7143 Y15.8559
G01 X30.6760 Y15.9587
G01 X30.6116 Y16.0448
G01 X30.5255 Y16.1092
G01 X30.5126 Y16.1140
G01 X30.5016 Y16.1190
G01 X30.4912 Y16.1251
G01 X30.4837 Y16.1302
G01 X30.4229 Y16.1760
G01 X30.4158 Y16.1823
G01 X30.4093 Y16.1891
G01 X30.3995 Y16.2015
G01 X30.3914 Y16.2149
G01 X30.3861 Y16.2264
G01 X30.3585 Y16.3007
G01 X30.3553 Y16.3129
G01 X30.3533 Y16.3253
G01 X30.3526 Y16.3379
G01 X30.3531 Y16.3505
G01 X30.3555 Y16.3660
G01 X30.3703 Y16.4343
G01 X30.3726 Y16.4433
G01 X30.3768 Y16.4551
G01 X30.3806 Y16.4636
G01 X30.3866 Y16.4744
G01 X30.3919 Y16.4822
G01 X30.3976 Y16.4895
G01 X30.4303 Y16.5279
G01 X30.4416 Y16.5396
G01 X30.4490 Y16.5458
G01 X30.5416 Y16.6179
G01 X30.6958 Y16.7854
G01 X30.8203 Y16.9759
G01 X30.9117 Y17.1844
G01 X30.9676 Y17.4051
G01 X30.9817 Y17.5752
G01 X30.9817 Y20.0101
G01 X30.9830 Y20.0252
G01 X30.9860 Y20.0399
G01 X31.0065 Y20.1099
G01 X31.0118 Y20.1245
G01 X31.0173 Y20.1357
G01 X31.0257 Y20.1488
G01 X31.0461 Y20.1744
G01 X31.0552 Y20.1845
G01 X34.6755 Y23.8048
G01 X34.6868 Y23.8149
G01 X34.6992 Y23.8235
G01 X34.7713 Y23.8628
G01 X34.7857 Y23.8687
G01 X34.7946 Y23.8714
G01 X34.8037 Y23.8734
G01 X34.8130 Y23.8747
G01 X34.8393 Y23.8776
G01 X34.8529 Y23.8783
G01 X51.1392 Y23.8783
G01 X51.1542 Y23.8774
G01 X51.1691 Y23.8747
G01 X51.2419 Y23.8535
G01 X51.2508 Y23.8505
G01 X51.2594 Y23.8469
G01 X51.2677 Y23.8427
G01 X51.2757 Y23.8379
G01 X51.2833 Y23.8325
G01 X51.3064 Y23.8139
G01 X51.3165 Y23.8048
G01 X54.5585 Y20.5628
G01 X54.5645 Y20.5560
G01 X54.5700 Y20.5488
G01 X54.5780 Y20.5361
G01 X54.6144 Y20.4691
G01 X54.6193 Y20.4575
G01 X54.6230 Y20.4455
G01 X54.6260 Y20.4301
G01 X54.6268 Y20.4207
G01 X54.6270 Y20.4112
G01 X54.6217 Y20.3352
G01 X54.6207 Y20.3258
G01 X54.6189 Y20.3164
G01 X54.6155 Y20.3042
G01 X54.6109 Y20.2924
G01 X54.6067 Y20.2839
G01 X54.6019 Y20.2757
G01 X54.5717 Y20.2289
G01 X54.5645 Y20.2192
G01 X54.5564 Y20.2103
G01 X50.8707 Y16.5246
G01 X50.7862 Y16.4451
G01 X50.7160 Y16.3603
G01 X50.6407 Y16.2747
G01 X50.6246 Y16.2511
G01 X50.6158 Y16.2394
G01 X50.5958 Y16.2150
G01 X50.5368 Y16.1220
G01 X50.4728 Y16.0277
G01 X50.4584 Y15.9996
G01 X50.4511 Y15.9869
G01 X50.4358 Y15.9628
G01 X50.3889 Y15.8632
G01 X50.3372 Y15.7616
G01 X50.3264 Y15.7319
G01 X50.3208 Y15.7184
G01 X50.3086 Y15.6925
G01 X50.2746 Y15.5878
G01 X50.2360 Y15.4805
G01 X50.2290 Y15.4498
G01 X50.2251 Y15.4356
G01 X50.2163 Y15.4085
G01 X50.1949 Y15.2965
G01 X50.1709 Y15.1890
G01 X50.1682 Y15.1606
G01 X50.1661 Y15.1461
G01 X50.1604 Y15.1151
G01 X50.1531 Y15.0013
G01 X50.1428 Y14.8917
G01 X50.1463 Y14.7757
G01 X50.1463 Y11.1511
G01 X50.1457 Y11.1391
G01 X50.1440 Y11.1271
G01 X50.1412 Y11.1154
G01 X50.1215 Y11.0483
G01 X50.1185 Y11.0395
G01 X50.1149 Y11.0309
G01 X50.1092 Y11.0199
G01 X50.1023 Y11.0094
G01 X50.0819 Y10.9839
G01 X50.0752 Y10.9762
G01 X49.5241 Y10.4250
G01 X49.5126 Y10.4153
G01 X49.5000 Y10.4070
G01 X49.4360 Y10.3720
G01 X49.4219 Y10.3654
G01 X49.4072 Y10.3606
G01 X49.3950 Y10.3581
G01 X49.3625 Y10.3544
G01 X49.3489 Y10.3537
G01 X24.6023 Y10.3537
G01 X24.5823 Y10.3546
G01 X24.5704 Y10.3557
G01 X16.6882 Y10.3557
G01 X16.6512 Y10.3517
G01 X16.5483 Y10.3134
G01 X16.4623 Y10.2490
G01 X16.3979 Y10.1629
G01 X16.3596 Y10.0601
G01 X16.3556 Y10.0231
G01 X16.3556 Y5.9409
G01 X16.3596 Y5.9039
G01 X16.3979 Y5.8011
G01 X16.4623 Y5.7150
G01 X16.5483 Y5.6506
G01 X16.6512 Y5.6123
G01 X16.6882 Y5.6083
G01 X20.5172 Y5.6083
G01 X20.5329 Y5.6078
G01 X20.5567 Y5.6063
G01 X50.3948 Y5.6063
G01 X50.5107 Y5.6028
G01 X50.6204 Y5.6131
G01 X50.7341 Y5.6204
G01 X50.7651 Y5.6261
G01 X50.7796 Y5.6282
G01 X50.8081 Y5.6309
G01 X50.9193 Y5.6557
G01 X51.0275 Y5.6763
G01 X51.0547 Y5.6851
G01 X51.0688 Y5.6890
G01 X51.0996 Y5.6960
G01 X51.2032 Y5.7334
G01 X51.3115 Y5.7686
G01 X51.3402 Y5.7819
G01 X51.3537 Y5.7875
G01 X51.3806 Y5.7972
G01 X51.4787 Y5.8472
G01 X51.5818 Y5.8958
G01 X51.6059 Y5.9111
G01 X51.6186 Y5.9184
G01 X51.6467 Y5.9328
G01 X51.7378 Y5.9947
G01 X51.8340 Y6.0558
G01 X51.8584 Y6.0759
G01 X51.8701 Y6.0846
G01 X51.8937 Y6.1007
G01 X51.9793 Y6.1760
G01 X52.0641 Y6.2462
G01 X52.1436 Y6.3307
G01 X54.1693 Y8.3564
G01 X54.2538 Y8.4359
G01 X54.3240 Y8.5208
G01 X54.3993 Y8.6063
G01 X54.4154 Y8.6299
G01 X54.4241 Y8.6416
G01 X54.4442 Y8.6660
G01 X54.5032 Y8.7590
G01 X54.5672 Y8.8533
G01 X54.5816 Y8.8814
G01 X54.5889 Y8.8941
G01 X54.6042 Y8.9182
G01 X54.6528 Y9.0213
G01 X54.7028 Y9.1194
G01 X54.7125 Y9.1463
G01 X54.7181 Y9.1599
G01 X54.7314 Y9.1885
G01 X54.7666 Y9.2968
G01 X54.8040 Y9.4004
G01 X54.8110 Y9.4312
G01 X54.8149 Y9.4453
G01 X54.8237 Y9.4725
G01 X54.8443 Y9.5807
G01 X54.8691 Y9.6919
G01 X54.8718 Y9.7204
G01 X54.8739 Y9.7349
G01 X54.8796 Y9.7659
G01 X54.8866 Y9.8758
G01 X54.8972 Y9.9893
G01 X54.8937 Y10.1052
G01 X54.8937 Y13.7329
G01 X54.8950 Y13.7479
G01 X54.8980 Y13.7627
G01 X54.9185 Y13.8326
G01 X54.9226 Y13.8444
G01 X54.9293 Y13.8584
G01 X54.9359 Y13.8690
G01 X54.9414 Y13.8765
G01 X54.9625 Y13.9023
G01 X57.1895 Y16.1296
G01 X57.1962 Y16.1358
G01 X57.2032 Y16.1415
G01 X57.2158 Y16.1498
G01 X57.2825 Y16.1862
G01 X57.2970 Y16.1925
G01 X57.3090 Y16.1962
G01 X57.3213 Y16.1988
G01 X57.3338 Y16.2000
G01 X57.3464 Y16.2001
G01 X57.4255 Y16.1943
G01 X57.4348 Y16.1928
G01 X57.4439 Y16.1907
G01 X57.4587 Y16.1856
G01 X57.4673 Y16.1817
G01 X57.4915 Y16.1695
G01 X57.5005 Y16.1644
G01 X57.6549 Y16.0643
G01 X57.9700 Y15.9037
G01 X58.3001 Y15.7770
G01 X58.6417 Y15.6855
G01 X58.9909 Y15.6302
G01 X59.3440 Y15.6117
G01 X59.6972 Y15.6302
G01 X60.0464 Y15.6855
G01 X60.3880 Y15.7770
G01 X60.7181 Y15.9037
G01 X61.0332 Y16.0643
G01 X61.3298 Y16.2569
G01 X61.6046 Y16.4794
G01 X61.8546 Y16.7295
G01 X62.0772 Y17.0043
G01 X62.2698 Y17.3008
G01 X62.4303 Y17.6159
G01 X62.5570 Y17.9460
G01 X62.6486 Y18.2876
G01 X62.7039 Y18.6369
G01 X62.7224 Y18.9900
G01 X62.7039 Y19.3431
G01 X62.6486 Y19.6924
G01 X62.5570 Y20.0340
G01 X62.4303 Y20.3641
G01 X62.2698 Y20.6792
G01 X62.0772 Y20.9757
G01 X61.8546 Y21.2505
G01 X61.6046 Y21.5006
G01 X61.3298 Y21.7231
G01 X61.0332 Y21.9157
G01 X60.7181 Y22.0763
G01 X60.3880 Y22.2030
G01 X60.0464 Y22.2945
G01 X59.6972 Y22.3498
G01 X59.3440 Y22.3683
G01 X58.9909 Y22.3498
G01 X58.6416 Y22.2945
G01 X58.3001 Y22.2030
G01 X57.9700 Y22.0763
G01 X57.6549 Y21.9157
G01 X57.4808 Y21.8027
G01 X57.4702 Y21.7969
G01 X57.4592 Y21.7921
G01 X57.4506 Y21.7892
G01 X57.3776 Y21.7675
G01 X57.3683 Y21.7656
G01 X57.3590 Y21.7644
G01 X57.3432 Y21.7639
G01 X57.3276 Y21.7654
G01 X57.3122 Y21.7688
G01 X57.2421 Y21.7891
G01 X57.2332 Y21.7923
G01 X57.2218 Y21.7975
G01 X57.2137 Y21.8021
G01 X57.2034 Y21.8092
G01 X57.1771 Y21.8303
G01 X57.1694 Y21.8373
G01 X52.8547 Y26.1520
G01 X52.8374 Y26.1713
G01 X52.8262 Y26.1856
G01 X52.7671 Y26.2399
G01 X52.7432 Y26.2635
G01 X52.7196 Y26.2837
G01 X52.6587 Y26.3398
G01 X52.6414 Y26.3514
G01 X52.6270 Y26.3621
G01 X52.6130 Y26.3738
G01 X52.5375 Y26.4190
G01 X52.4681 Y26.4643
G01 X52.4515 Y26.4717
G01 X52.4355 Y26.4799
G01 X52.4174 Y26.4903
G01 X52.3355 Y26.5225
G01 X52.2596 Y26.5557
G01 X52.2395 Y26.5611
G01 X52.2224 Y26.5666
G01 X52.2054 Y26.5731
G01 X52.1193 Y26.5913
G01 X52.0389 Y26.6116
G01 X52.0208 Y26.6132
G01 X52.0030 Y26.6158
G01 X51.9825 Y26.6198
G01 X51.8998 Y26.6233
G01 X51.8689 Y26.6257
G01 X51.8353 Y26.6259
G01 X51.7551 Y26.6292
G01 X51.7370 Y26.6271
G01 X51.7112 Y26.6257
G01 X34.2809 Y26.6257
G01 X34.2551 Y26.6271
G01 X34.2370 Y26.6292
G01 X34.1568 Y26.6259
G01 X34.1232 Y26.6257
G01 X34.0923 Y26.6233
G01 X34.0095 Y26.6198
G01 X33.9891 Y26.6158
G01 X33.9713 Y26.6132
G01 X33.9531 Y26.6116
G01 X33.8728 Y26.5913
G01 X33.7867 Y26.5731
G01 X33.7697 Y26.5666
G01 X33.7526 Y26.5611
G01 X33.7324 Y26.5557
G01 X33.6518 Y26.5205
G01 X33.5746 Y26.4903
G01 X33.5589 Y26.4811
G01 X33.5429 Y26.4729
G01 X33.5240 Y26.4643
G01 X33.4502 Y26.4163
G01 X33.3790 Y26.3738
G01 X33.3630 Y26.3605
G01 X33.3485 Y26.3498
G01 X33.3334 Y26.3398
G01 X33.2743 Y26.2854
G01 X33.2488 Y26.2635
G01 X33.2268 Y26.2417
G01 X33.1659 Y26.1856
G01 X33.1546 Y26.1713
G01 X33.1373 Y26.1520
G01 X28.7080 Y21.7227
G01 X28.6887 Y21.7054
G01 X28.6744 Y21.6941
G01 X28.6183 Y21.6332
G01 X28.5965 Y21.6112
G01 X28.5763 Y21.5876
G01 X28.5202 Y21.5266
G01 X28.5102 Y21.5115
G01 X28.4995 Y21.4970
G01 X28.4862 Y21.4810
G01 X28.4437 Y21.4098
G01 X28.3957 Y21.3361
G01 X28.3883 Y21.3194
G01 X28.3801 Y21.3034
G01 X28.3696 Y21.2854
G01 X28.3375 Y21.2035
G01 X28.3043 Y21.1276
G01 X28.2989 Y21.1074
G01 X28.2934 Y21.0903
G01 X28.2869 Y21.0733
G01 X28.2687 Y20.9872
G01 X28.2484 Y20.9069
G01 X28.2468 Y20.8887
G01 X28.2442 Y20.8709
G01 X28.2402 Y20.8505
G01 X28.2367 Y20.7677
G01 X28.2343 Y20.7368
G01 X28.2341 Y20.7032
G01 X28.2308 Y20.6230
G01 X28.2329 Y20.6049
G01 X28.2343 Y20.5791
G01 X28.2343 Y17.5752
G01 X28.2484 Y17.4051
G01 X28.3043 Y17.1844
G01 X28.3957 Y16.9760
G01 X28.5202 Y16.7854
G01 X28.6744 Y16.6179
G01 X28.7670 Y16.5458
G01 X28.7739 Y16.5400
G01 X28.7804 Y16.5337
G01 X28.7902 Y16.5223
G01 X28.8328 Y16.4631
G01 X28.8397 Y16.4526
G01 X28.8467 Y16.4385
G01 X28.8510 Y16.4267
G01 X28.8541 Y16.4145
G01 X28.8563 Y16.3989
G01 X28.8603 Y16.3228
G01 X28.8598 Y16.3071
G01 X28.8573 Y16.2915
G01 X28.8539 Y16.2794
G01 X28.8481 Y16.2648
G01 X28.8437 Y16.2564
G01 X28.8059 Y16.1904
G01 X28.7967 Y16.1779
G01 X28.7861 Y16.1665
G01 X28.7791 Y16.1604
G01 X28.7691 Y16.1530
G01 X28.7210 Y16.1227
G01 X28.7066 Y16.1154
G01 X28.6905 Y16.1092
G01 X28.5288 Y15.9883
G01 X28.5208 Y15.9834
G01 X28.5124 Y15.9790
G01 X28.5037 Y15.9752
G01 X28.4918 Y15.9713
G01 X28.4795 Y15.9685
G01 X28.4701 Y15.9673
G01 X28.3941 Y15.9619
G01 X28.3847 Y15.9618
G01 X28.3753 Y15.9624
G01 X28.3598 Y15.9650
G01 X28.3447 Y15.9694
G01 X28.3359 Y15.9730
G01 X28.3275 Y15.9772
G01 X28.2609 Y16.0137
G01 X28.2485 Y16.0223
G01 X28.2394 Y16.0302
G01 X24.9764 Y19.2932
G01 X24.9703 Y19.2998
G01 X24.9628 Y19.3093
G01 X24.9548 Y19.3221
G01 X24.9213 Y19.3834
G01 X24.9171 Y19.3917
G01 X24.9136 Y19.4004
G01 X24.9099 Y19.4122
G01 X24.9073 Y19.4244
G01 X24.9037 Y19.4570
G01 X24.9030 Y19.4671
G01 X24.9030 Y21.0231
G01 X24.8990 Y21.0601
G01 X24.8606 Y21.1629
G01 X24.7962 Y21.2490
G01 X24.7102 Y21.3134
G01 X24.6074 Y21.3517
G01 X24.5703 Y21.3557
G01 X20.8311 Y21.3557
G01 X20.8056 Y21.3569
G01 X20.6960 Y21.3672
G01 X20.5800 Y21.3637
G01 X12.1523 Y21.3637
G01 X12.1432 Y21.3640
G01 X12.1312 Y21.3655
G01 X12.1194 Y21.3680
G01 X12.0465 Y21.3894
G01 X12.0377 Y21.3926
G01 X12.0292 Y21.3964
G01 X12.0210 Y21.4008
G01 X12.0131 Y21.4059
G01 X12.0057 Y21.4115
G01 X11.9850 Y21.4281
G01 X11.9773 Y21.4348
G01 X11.9115 Y21.5006
G01 X11.6367 Y21.7231
G01 X11.3401 Y21.9157
G01 X11.0250 Y22.0763
G01 X10.6949 Y22.2030
G01 X10.3533 Y22.2945
G01 X10.0041 Y22.3498
G01 X9.6509 Y22.3683
G01 X9.2978 Y22.3498
G01 X8.9485 Y22.2945
G01 X8.6070 Y22.2030
G01 X8.2768 Y22.0763
G01 X7.9618 Y21.9157
G01 X7.6652 Y21.7231
G01 X7.3904 Y21.5006
G01 X7.1403 Y21.2505
G01 X6.9178 Y20.9757
G01 X6.7252 Y20.6792
G01 X6.5647 Y20.3641
G01 X6.4380 Y20.0340
G01 X6.3464 Y19.6924
G01 X6.2911 Y19.3431
G01 X6.2726 Y18.9900
G00 Z2.0000
G00 X3.4799 Y28.1755
G01 F60.00
G01 Z-0.1000
G01 F120.00
G01 X3.4799 Y4.0980
G01 X3.4804 Y4.0860
G01 X3.4821 Y4.0740
G01 X3.4955 Y4.0134
G01 X3.4983 Y4.0043
G01 X3.5018 Y3.9955
G01 X3.5059 Y3.9869
G01 X3.5107 Y3.9787
G01 X3.5161 Y3.9709
G01 X3.5220 Y3.9635
G01 X3.5678 Y3.9107
G01 X3.5765 Y3.9016
G01 X3.5861 Y3.8934
G01 X3.5964 Y3.8862
G01 X3.6074 Y3.8801
G01 X3.6189 Y3.8750
G01 X3.6279 Y3.8720
G01 X3.7008 Y3.8508
G01 X3.7156 Y3.8481
G01 X3.7307 Y3.8472
G01 X65.8055 Y3.8472
G01 X65.8176 Y3.8478
G01 X65.8295 Y3.8495
G01 X65.8901 Y3.8628
G01 X65.8992 Y3.8657
G01 X65.9080 Y3.8691
G01 X65.9166 Y3.8733
G01 X65.9248 Y3.8781
G01 X65.9326 Y3.8834
G01 X65.9400 Y3.8894
G01 X65.9929 Y3.9352
G01 X66.0019 Y3.9439
G01 X66.0101 Y3.9534
G01 X66.0173 Y3.9638
G01 X66.0235 Y3.9748
G01 X66.0285 Y3.9863
G01 X66.0315 Y3.9953
G01 X66.0527 Y4.0681
G01 X66.0554 Y4.0830
G01 X66.0563 Y4.0980
G01 X66.0563 Y28.1755
G01 X66.0557 Y28.1876
G01 X66.0540 Y28.1995
G01 X66.0407 Y28.2601
G01 X66.0379 Y28.2692
G01 X66.0344 Y28.2780
G01 X66.0302 Y28.2866
G01 X66.0255 Y28.2948
G01 X66.0201 Y28.3026
G01 X66.0141 Y28.3100
G01 X65.9684 Y28.3629
G01 X65.9597 Y28.3719
G01 X65.9501 Y28.3801
G01 X65.9398 Y28.3873
G01 X65.9288 Y28.3935
G01 X65.9172 Y28.3985
G01 X65.9083 Y28.4015
G01 X65.8354 Y28.4227
G01 X65.8206 Y28.4254
G01 X65.8055 Y28.4263
G01 X3.7307 Y28.4263
G01 X3.7216 Y28.4260
G01 X3.7096 Y28.4245
G01 X3.6522 Y28.4122
G01 X3.6370 Y28.4079
G01 X3.6224 Y28.4017
G01 X3.6114 Y28.3955
G01 X3.5985 Y28.3862
G01 X3.5433 Y28.3384
G01 X3.5364 Y28.3319
G01 X3.5280 Y28.3226
G01 X3.5188 Y28.3098
G01 X3.5113 Y28.2959
G01 X3.5066 Y28.2843
G01 X3.4834 Y28.2054
G01 X3.4807 Y28.1906
G01 X3.4799 Y28.1755
G00 Z2.0000
G00 X3.2516 Y28.1755
G01 F60.00
G01 Z-0.1000
G01 F120.00
G01 X3.2516 Y4.0980
G01 X3.2525 Y4.0727
G01 X3.2541 Y4.0559
G01 X3.2565 Y4.0391
G01 X3.2597 Y4.0225
G01 X3.2709 Y3.9710
G01 X3.2776 Y3.9453
G01 X3.2861 Y3.9201
G01 X3.2965 Y3.8956
G01 X3.3087 Y3.8719
G01 X3.3227 Y3.8493
G01 X3.3329 Y3.8348
G01 X3.3438 Y3.8208
G01 X3.3953 Y3.7612
G01 X3.4133 Y3.7419
G01 X3.4328 Y3.7239
G01 X3.4535 Y3.7075
G01 X3.4680 Y3.6974
G01 X3.4829 Y3.6881
G01 X3.4983 Y3.6795
G01 X3.5141 Y3.6717
G01 X3.5385 Y3.6614
G01 X3.5636 Y3.6530
G01 X3.6306 Y3.6334
G01 X3.6552 Y3.6271
G01 X3.6718 Y3.6239
G01 X3.6885 Y3.6215
G01 X3.7138 Y3.6194
G01 X3.7307 Y3.6190
G01 X65.8055 Y3.6190
G01 X65.8308 Y3.6199
G01 X65.8477 Y3.6215
G01 X65.8644 Y3.6239
G01 X65.8810 Y3.6271
G01 X65.9325 Y3.6383
G01 X65.9583 Y3.6449
G01 X65.9835 Y3.6535
G01 X66.0080 Y3.6639
G01 X66.0316 Y3.6761
G01 X66.0543 Y3.6900
G01 X66.0688 Y3.7002
G01 X66.0827 Y3.7112
G01 X66.1423 Y3.7627
G01 X66.1616 Y3.7807
G01 X66.1796 Y3.8002
G01 X66.1907 Y3.8138
G01 X66.2011 Y3.8280
G01 X66.2154 Y3.8503
G01 X66.2280 Y3.8735
G01 X66.2355 Y3.8895
G01 X66.2421 Y3.9059
G01 X66.2505 Y3.9310
G01 X66.2702 Y3.9980
G01 X66.2764 Y4.0226
G01 X66.2796 Y4.0391
G01 X66.2829 Y4.0643
G01 X66.2841 Y4.0811
G01 X66.2845 Y4.0980
G01 X66.2845 Y28.1755
G01 X66.2841 Y28.1924
G01 X66.2829 Y28.2093
G01 X66.2796 Y28.2344
G01 X66.2764 Y28.2510
G01 X66.2652 Y28.3025
G01 X66.2586 Y28.3283
G01 X66.2501 Y28.3535
G01 X66.2397 Y28.3780
G01 X66.2274 Y28.4016
G01 X66.2135 Y28.4243
G01 X66.2033 Y28.4388
G01 X66.1923 Y28.4527
G01 X66.1409 Y28.5123
G01 X66.1228 Y28.5316
G01 X66.1034 Y28.5496
G01 X66.0827 Y28.5660
G01 X66.0682 Y28.5761
G01 X66.0532 Y28.5854
G01 X66.0300 Y28.5980
G01 X66.0140 Y28.6055
G01 X65.9976 Y28.6121
G01 X65.9726 Y28.6205
G01 X65.9055 Y28.6402
G01 X65.8810 Y28.6464
G01 X65.8644 Y28.6496
G01 X65.8477 Y28.6520
G01 X65.8308 Y28.6536
G01 X65.8055 Y28.6545
G01 X3.7307 Y28.6545
G01 X3.7138 Y28.6541
G01 X3.6969 Y28.6529
G01 X3.6801 Y28.6509
G01 X3.6552 Y28.6464
G01 X3.6037 Y28.6352
G01 X3.5864 Y28.6310
G01 X3.5610 Y28.6231
G01 X3.5363 Y28.6133
G01 X3.5202 Y28.6058
G01 X3.5046 Y28.5974
G01 X3.4893 Y28.5883
G01 X3.4674 Y28.5733
G01 X3.4466 Y28.5566
G01 X3.3938 Y28.5109
G01 X3.3745 Y28.4928
G01 X3.3624 Y28.4800
G01 X3.3509 Y28.4666
G01 X3.3401 Y28.4527
G01 X3.3253 Y28.4308
G01 X3.3163 Y28.4156
G01 X3.3081 Y28.4000
G01 X3.3007 Y28.3840
G01 X3.2941 Y28.3676
G01 X3.2857 Y28.3426
G01 X3.2660 Y28.2755
G01 X3.2597 Y28.2510
G01 X3.2565 Y28.2344
G01 X3.2532 Y28.2092
G01 X3.2520 Y28.1924
G01 X3.2516 Y28.1755
G00 Z2.0000
G00 X3.0234 Y28.1755
G01 F60.00
G01 Z-0.1000
G01 F120.00
G01 X3.0235 Y4.0841
G01 X3.0249 Y4.0564
G01 X3.0260 Y4.0426
G01 X3.0293 Y4.0150
G01 X3.0314 Y4.0013
G01 X3.0367 Y3.9740
G01 X3.0479 Y3.9225
G01 X3.0512 Y3.9083
G01 X3.0588 Y3.8802
G01 X3.0631 Y3.8663
G01 X3.0728 Y3.8388
G01 X3.0782 Y3.8252
G01 X3.0899 Y3.7985
G01 X3.1030 Y3.7725
G01 X3.1100 Y3.7597
G01 X3.1249 Y3.7347
G01 X3.1329 Y3.7225
G01 X3.1497 Y3.6986
G01 X3.1676 Y3.6757
G01 X3.2228 Y3.6117
G01 X3.2423 Y3.5903
G01 X3.2525 Y3.5800
G01 X3.2629 Y3.5699
G01 X3.2844 Y3.5505
G01 X3.2955 Y3.5413
G01 X3.3184 Y3.5235
G01 X3.3422 Y3.5070
G01 X3.3668 Y3.4916
G01 X3.3793 Y3.4844
G01 X3.4050 Y3.4709
G01 X3.4312 Y3.4587
G01 X3.4581 Y3.4478
G01 X3.4717 Y3.4429
G01 X3.4993 Y3.4341
G01 X3.5797 Y3.4106
G01 X3.6067 Y3.4041
G01 X3.6339 Y3.3988
G01 X3.6614 Y3.3949
G01 X3.6752 Y3.3934
G01 X3.7029 Y3.3914
G01 X3.7307 Y3.3907
G01 X65.8055 Y3.3907
G01 X65.8333 Y3.3914
G01 X65.8471 Y3.3922
G01 X65.8747 Y3.3949
G01 X65.9022 Y3.3988
G01 X65.9295 Y3.4041
G01 X65.9810 Y3.4153
G01 X66.0093 Y3.4222
G01 X66.0233 Y3.4262
G01 X66.0373 Y3.4305
G01 X66.0647 Y3.4402
G01 X66.0917 Y3.4513
G01 X66.1050 Y3.4573
G01 X66.1181 Y3.4636
G01 X66.1438 Y3.4773
G01 X66.1564 Y3.4847
G01 X66.1811 Y3.5002
G01 X66.2049 Y3.5170
G01 X66.2278 Y3.5350
G01 X66.2918 Y3.5902
G01 X66.3132 Y3.6097
G01 X66.3235 Y3.6198
G01 X66.3434 Y3.6409
G01 X66.3530 Y3.6518
G01 X66.3713 Y3.6742
G01 X66.3800 Y3.6858
G01 X66.3965 Y3.7096
G01 X66.4119 Y3.7341
G01 X66.4260 Y3.7594
G01 X66.4389 Y3.7854
G01 X66.4504 Y3.8120
G01 X66.4557 Y3.8254
G01 X66.4652 Y3.8528
G01 X66.4695 Y3.8666
G01 X66.4929 Y3.9471
G01 X66.4994 Y3.9740
G01 X66.5022 Y3.9876
G01 X66.5068 Y4.0150
G01 X66.5101 Y4.0426
G01 X66.5121 Y4.0703
G01 X66.5128 Y4.0980
G01 X66.5126 Y28.1894
G01 X66.5121 Y28.2033
G01 X66.5101 Y28.2309
G01 X66.5087 Y28.2447
G01 X66.5047 Y28.2722
G01 X66.4994 Y28.2995
G01 X66.4882 Y28.3510
G01 X66.4813 Y28.3793
G01 X66.4774 Y28.3933
G01 X66.4730 Y28.4073
G01 X66.4633 Y28.4347
G01 X66.4580 Y28.4483
G01 X66.4462 Y28.4750
G01 X66.4399 Y28.4881
G01 X66.4262 Y28.5138
G01 X66.4112 Y28.5388
G01 X66.4033 Y28.5511
G01 X66.3865 Y28.5749
G01 X66.3685 Y28.5978
G01 X66.3134 Y28.6618
G01 X66.3037 Y28.6726
G01 X66.2837 Y28.6935
G01 X66.2627 Y28.7134
G01 X66.2518 Y28.7230
G01 X66.2293 Y28.7413
G01 X66.2177 Y28.7500
G01 X66.1940 Y28.7665
G01 X66.1694 Y28.7819
G01 X66.1441 Y28.7960
G01 X66.1181 Y28.8089
G01 X66.0916 Y28.8204
G01 X66.0781 Y28.8257
G01 X66.0645 Y28.8306
G01 X66.0369 Y28.8395
G01 X65.9565 Y28.8629
G01 X65.9295 Y28.8694
G01 X65.9022 Y28.8747
G01 X65.8747 Y28.8787
G01 X65.8609 Y28.8801
G01 X65.8333 Y28.8821
G01 X65.8055 Y28.8828
G01 X3.7307 Y28.8828
G01 X3.7029 Y28.8821
G01 X3.6752 Y28.8801
G01 X3.6614 Y28.8787
G01 X3.6339 Y28.8747
G01 X3.6067 Y28.8694
G01 X3.5409 Y28.8550
G01 X3.5128 Y28.8474
G01 X3.4989 Y28.8430
G01 X3.4714 Y28.8333
G01 X3.4444 Y28.8223
G01 X3.4181 Y28.8099
G01 X3.3923 Y28.7962
G01 X3.3673 Y28.7812
G01 X3.3431 Y28.7650
G01 X3.3313 Y28.7565
G01 X3.3197 Y28.7476
G01 X3.2972 Y28.7291
G01 X3.2335 Y28.6737
G01 X3.2126 Y28.6537
G01 X3.1927 Y28.6327
G01 X3.1739 Y28.6106
G01 X3.1562 Y28.5877
G01 X3.1396 Y28.5640
G01 X3.1242 Y28.5394
G01 X3.1101 Y28.5141
G01 X3.0973 Y28.4881
G01 X3.0857 Y28.4616
G01 X3.0755 Y28.4345
G01 X3.0667 Y28.4069
G01 X3.0432 Y28.3265
G01 X3.0367 Y28.2995
G01 X3.0314 Y28.2722
G01 X3.0293 Y28.2585
G01 X3.0260 Y28.2309
G01 X3.0240 Y28.2033
G01 X3.0234 Y28.1755
G00 Z2.0000
G00 X2.7951 Y28.1755
G01 F60.00
G01 Z-0.1000
G01 F120.00
G01 X2.7954 Y4.0787
G01 X2.7961 Y4.0594
G01 X2.7988 Y4.0209
G01 X2.8009 Y4.0017
G01 X2.8064 Y3.9634
G01 X2.8137 Y3.9255
G01 X2.8294 Y3.8542
G01 X2.8345 Y3.8346
G01 X2.8400 Y3.8151
G01 X2.8461 Y3.7957
G01 X2.8526 Y3.7765
G01 X2.8596 Y3.7575
G01 X2.8670 Y3.7386
G01 X2.8749 Y3.7200
G01 X2.8833 Y3.7015
G01 X2.8922 Y3.6833
G01 X2.9015 Y3.6652
G01 X2.9112 Y3.6475
G01 X2.9214 Y3.6299
G01 X2.9321 Y3.6127
G01 X2.9431 Y3.5957
G01 X2.9546 Y3.5789
G01 X2.9665 Y3.5625
G01 X2.9788 Y3.5464
G01 X2.9915 Y3.5306
G01 X3.0046 Y3.5151
G01 X3.0637 Y3.4472
G01 X3.0774 Y3.4325
G01 X3.0916 Y3.4181
G01 X3.1060 Y3.4041
G01 X3.1209 Y3.3904
G01 X3.1360 Y3.3771
G01 X3.1515 Y3.3642
G01 X3.1673 Y3.3517
G01 X3.1834 Y3.3396
G01 X3.1997 Y3.3278
G01 X3.2164 Y3.3165
G01 X3.2334 Y3.3056
G01 X3.2506 Y3.2951
G01 X3.2681 Y3.2851
G01 X3.2858 Y3.2755
G01 X3.3037 Y3.2663
G01 X3.3219 Y3.2576
G01 X3.3403 Y3.2494
G01 X3.3589 Y3.2416
G01 X3.3777 Y3.2342
G01 X3.3966 Y3.2274
G01 X3.4157 Y3.2210
G01 X3.5020 Y3.1954
G01 X3.5393 Y3.1854
G01 X3.5771 Y3.1772
G01 X3.6152 Y3.1708
G01 X3.6535 Y3.1662
G01 X3.6920 Y3.1634
G01 X3.7307 Y3.1625
G01 X65.8055 Y3.1625
G01 X65.8441 Y3.1634
G01 X65.8634 Y3.1646
G01 X65.9018 Y3.1682
G01 X65.9401 Y3.1737
G01 X65.9780 Y3.1810
G01 X66.0295 Y3.1923
G01 X66.0493 Y3.1968
G01 X66.0689 Y3.2019
G01 X66.0884 Y3.2074
G01 X66.1078 Y3.2134
G01 X66.1270 Y3.2199
G01 X66.1460 Y3.2269
G01 X66.1649 Y3.2344
G01 X66.1836 Y3.2423
G01 X66.2020 Y3.2507
G01 X66.2203 Y3.2595
G01 X66.2383 Y3.2689
G01 X66.2561 Y3.2786
G01 X66.2736 Y3.2888
G01 X66.2909 Y3.2994
G01 X66.3079 Y3.3105
G01 X66.3246 Y3.3220
G01 X66.3410 Y3.3338
G01 X66.3571 Y3.3461
G01 X66.3730 Y3.3588
G01 X66.3884 Y3.3719
G01 X66.4563 Y3.4311
G01 X66.4710 Y3.4448
G01 X66.4854 Y3.4589
G01 X66.4995 Y3.4734
G01 X66.5131 Y3.4882
G01 X66.5264 Y3.5034
G01 X66.5393 Y3.5188
G01 X66.5518 Y3.5346
G01 X66.5640 Y3.5507
G01 X66.5757 Y3.5671
G01 X66.5870 Y3.5838
G01 X66.5979 Y3.6008
G01 X66.6084 Y3.6180
G01 X66.6184 Y3.6354
G01 X66.6280 Y3.6532
G01 X66.6372 Y3.6711
G01 X66.6459 Y3.6893
G01 X66.6541 Y3.7077
G01 X66.6619 Y3.7263
G01 X66.6693 Y3.7450
G01 X66.6761 Y3.7640
G01 X66.6825 Y3.7831
G01 X66.7081 Y3.8694
G01 X66.7181 Y3.9067
G01 X66.7264 Y3.9444
G01 X66.7328 Y3.9825
G01 X66.7373 Y4.0209
G01 X66.7401 Y4.0594
G01 X66.7410 Y4.0980
G01 X66.7408 Y28.1948
G01 X66.7390 Y28.2334
G01 X66.7373 Y28.2526
G01 X66.7353 Y28.2718
G01 X66.7298 Y28.3101
G01 X66.7225 Y28.3480
G01 X66.7067 Y28.4193
G01 X66.7017 Y28.4389
G01 X66.6961 Y28.4584
G01 X66.6901 Y28.4778
G01 X66.6836 Y28.4970
G01 X66.6766 Y28.5160
G01 X66.6691 Y28.5349
G01 X66.6612 Y28.5536
G01 X66.6528 Y28.5720
G01 X66.6440 Y28.5903
G01 X66.6347 Y28.6083
G01 X66.6249 Y28.6261
G01 X66.6147 Y28.6436
G01 X66.6041 Y28.6609
G01 X66.5930 Y28.6779
G01 X66.5816 Y28.6946
G01 X66.5697 Y28.7110
G01 X66.5574 Y28.7271
G01 X66.5447 Y28.7430
G01 X66.5316 Y28.7584
G01 X66.4725 Y28.8263
G01 X66.4587 Y28.8410
G01 X66.4446 Y28.8554
G01 X66.4301 Y28.8695
G01 X66.4153 Y28.8831
G01 X66.4002 Y28.8964
G01 X66.3847 Y28.9093
G01 X66.3689 Y28.9218
G01 X66.3528 Y28.9340
G01 X66.3364 Y28.9457
G01 X66.3197 Y28.9570
G01 X66.3028 Y28.9679
G01 X66.2856 Y28.9784
G01 X66.2681 Y28.9884
G01 X66.2504 Y28.9980
G01 X66.2324 Y29.0072
G01 X66.2142 Y29.0159
G01 X66.1959 Y29.0241
G01 X66.1773 Y29.0319
G01 X66.1585 Y29.0393
G01 X66.1396 Y29.0461
G01 X66.1204 Y29.0525
G01 X66.0341 Y29.0781
G01 X65.9968 Y29.0881
G01 X65.9591 Y29.0964
G01 X65.9210 Y29.1028
G01 X65.8826 Y29.1073
G01 X65.8441 Y29.1101
G01 X65.8055 Y29.1110
G01 X3.7113 Y29.1108
G01 X3.6728 Y29.1090
G01 X3.6535 Y29.1073
G01 X3.6152 Y29.1028
G01 X3.5771 Y29.0964
G01 X3.5066 Y29.0813
G01 X3.4869 Y29.0767
G01 X3.4672 Y29.0717
G01 X3.4477 Y29.0661
G01 X3.4284 Y29.0601
G01 X3.4092 Y29.0536
G01 X3.3901 Y29.0466
G01 X3.3713 Y29.0391
G01 X3.3526 Y29.0312
G01 X3.3341 Y29.0228
G01 X3.3159 Y29.0140
G01 X3.2979 Y29.0047
G01 X3.2801 Y28.9949
G01 X3.2626 Y28.9847
G01 X3.2453 Y28.9741
G01 X3.2283 Y28.9630
G01 X3.2116 Y28.9516
G01 X3.1951 Y28.9397
G01 X3.1790 Y28.9274
G01 X3.1632 Y28.9147
G01 X3.1477 Y28.9016
G01 X3.0798 Y28.8425
G01 X3.0651 Y28.8287
G01 X3.0507 Y28.8146
G01 X3.0367 Y28.8001
G01 X3.0230 Y28.7853
G01 X3.0097 Y28.7702
G01 X2.9968 Y28.7547
G01 X2.9843 Y28.7389
G01 X2.9722 Y28.7228
G01 X2.9605 Y28.7064
G01 X2.9491 Y28.6897
G01 X2.9383 Y28.6728
G01 X2.9278 Y28.6556
G01 X2.9177 Y28.6381
G01 X2.9081 Y28.6204
G01 X2.8990 Y28.6024
G01 X2.8903 Y28.5842
G01 X2.8820 Y28.5659
G01 X2.8742 Y28.5473
G01 X2.8669 Y28.5285
G01 X2.8600 Y28.5096
G01 X2.8536 Y28.4904
G01 X2.8477 Y28.4712
G01 X2.8228 Y28.3855
G01 X2.8137 Y28.3480
G01 X2.8064 Y28.3101
G01 X2.8009 Y28.2718
G01 X2.7988 Y28.2526
G01 X2.7961 Y28.2141
G01 X2.7951 Y28.1755
G00 Z2.0000
G00 X28.5164 Y15.7272
G01 F60.00
G01 Z-0.1000
G01 F120.00
G01 X28.5164 Y15.7433
G01 X28.5023 Y15.7413
G01 X28.5164 Y15.7272
G00 Z2.0000
G00 X29.0360 Y16.1328
G01 F60.00
G01 Z-0.1000
G01 F120.00
G01 X29.0610 Y16.1328
G01 X29.0457 Y16.1501
G01 X29.0360 Y16.1328
G00 Z2.0000
G00 X30.1707 Y16.1507
G01 F60.00
G01 Z-0.1000
G01 F120.00
G01 X30.1669 Y16.1461
G01 X30.1550 Y16.1328
G01 X30.1779 Y16.1328
G01 X30.1707 Y16.1507
G00 Z2.0000
G00 X28.7446 Y14.4778
G01 F60.00
G01 Z-0.1000
G01 F120.00
G01 X28.7446 Y14.1222
G01 X28.7452 Y14.1098
G01 X28.7470 Y14.0975
G01 X28.7492 Y14.0884
G01 X28.7520 Y14.0795
G01 X28.7581 Y14.0652
G01 X28.7626 Y14.0570
G01 X28.7677 Y14.0492
G01 X28.7734 Y14.0418
G01 X28.7796 Y14.0348
G01 X28.7910 Y14.0242
G01 X28.7984 Y14.0185
G01 X28.8062 Y14.0134
G01 X28.8144 Y14.0089
G01 X28.8229 Y14.0051
G01 X28.8316 Y14.0018
G01 X28.8406 Y13.9992
G01 X28.8559 Y13.9964
G01 X28.8714 Y13.9954
G01 X30.3477 Y13.9954
G01 X30.3632 Y13.9968
G01 X30.3784 Y14.0000
G01 X30.3931 Y14.0051
G01 X30.4071 Y14.0119
G01 X30.4150 Y14.0168
G01 X30.4226 Y14.0222
G01 X30.4343 Y14.0325
G01 X30.4446 Y14.0442
G01 X30.4534 Y14.0570
G01 X30.4605 Y14.0708
G01 X30.4659 Y14.0854
G01 X30.4695 Y14.1005
G01 X30.4712 Y14.1160
G01 X30.4714 Y14.4778
G01 X30.4708 Y14.4902
G01 X30.4683 Y14.5056
G01 X30.4659 Y14.5146
G01 X30.4629 Y14.5234
G01 X30.4564 Y14.5376
G01 X30.4483 Y14.5508
G01 X30.4386 Y14.5630
G01 X30.4320 Y14.5696
G01 X30.4250 Y14.5758
G01 X30.4176 Y14.5815
G01 X30.4098 Y14.5866
G01 X30.3960 Y14.5937
G01 X30.3844 Y14.5982
G01 X30.3724 Y14.6015
G01 X30.3570 Y14.6040
G01 X30.3446 Y14.6046
G01 X29.2506 Y14.6046
G01 X29.2804 Y14.6191
G01 X29.3068 Y14.6349
G01 X29.3215 Y14.6454
G01 X30.3477 Y14.6454
G01 X30.3632 Y14.6468
G01 X30.3754 Y14.6492
G01 X30.3902 Y14.6539
G01 X30.4016 Y14.6589
G01 X30.4098 Y14.6634
G01 X30.4176 Y14.6685
G01 X30.4298 Y14.6782
G01 X30.4406 Y14.6894
G01 X30.4500 Y14.7018
G01 X30.4579 Y14.7152
G01 X30.4617 Y14.7237
G01 X30.4650 Y14.7324
G01 X30.4690 Y14.7475
G01 X30.4711 Y14.7629
G01 X30.4714 Y14.7722
G01 X30.4714 Y15.1278
G01 X30.4711 Y15.1371
G01 X30.4695 Y15.1495
G01 X30.4676 Y15.1586
G01 X30.4650 Y15.1676
G01 X30.4605 Y15.1792
G01 X30.4564 Y15.1876
G01 X30.4500 Y15.1982
G01 X30.4446 Y15.2058
G01 X30.4364 Y15.2152
G01 X30.4274 Y15.2238
G01 X30.4176 Y15.2315
G01 X30.4071 Y15.2381
G01 X30.3960 Y15.2437
G01 X30.3844 Y15.2482
G01 X30.3724 Y15.2515
G01 X30.3601 Y15.2536
G01 X30.3477 Y15.2546
G01 X29.3215 Y15.2546
G01 X29.3068 Y15.2651
G01 X29.2804 Y15.2809
G01 X29.2506 Y15.2954
G01 X30.3446 Y15.2954
G01 X30.3539 Y15.2957
G01 X30.3632 Y15.2968
G01 X30.3724 Y15.2985
G01 X30.3814 Y15.3009
G01 X30.3902 Y15.3039
G01 X30.3988 Y15.3076
G01 X30.4071 Y15.3119
G01 X30.4150 Y15.3168
G01 X30.4226 Y15.3222
G01 X30.4320 Y15.3304
G01 X30.4386 Y15.3370
G01 X30.4446 Y15.3442
G01 X30.4500 Y15.3518
G01 X30.4549 Y15.3597
G01 X30.4592 Y15.3680
G01 X30.4629 Y15.3766
G01 X30.4659 Y15.3854
G01 X30.4683 Y15.3944
G01 X30.4700 Y15.4036
G01 X30.4714 Y15.4191
G01 X30.4712 Y15.7840
G01 X30.4704 Y15.7933
G01 X30.4690 Y15.8025
G01 X30.4668 Y15.8116
G01 X30.4640 Y15.8205
G01 X30.4605 Y15.8292
G01 X30.4564 Y15.8376
G01 X30.4517 Y15.8456
G01 X30.4464 Y15.8533
G01 X30.4386 Y15.8630
G01 X30.4298 Y15.8718
G01 X30.4176 Y15.8815
G01 X30.4071 Y15.8881
G01 X30.3960 Y15.8937
G01 X30.3814 Y15.8991
G01 X30.3693 Y15.9022
G01 X30.3570 Y15.9040
G01 X30.3446 Y15.9046
G01 X29.8599 Y15.9046
G01 X29.8599 Y16.1822
G01 X29.8869 Y16.1986
G01 X29.9240 Y16.2260
G01 X29.9312 Y16.2320
G01 X29.9585 Y16.2567
G01 X29.9651 Y16.2633
G01 X29.9960 Y16.2975
G01 X30.0218 Y16.3320
G01 X30.0287 Y16.3424
G01 X30.0492 Y16.3766
G01 X30.0535 Y16.3849
G01 X30.0693 Y16.4182
G01 X30.0740 Y16.4297
G01 X30.0884 Y16.4703
G01 X30.0990 Y16.5120
G01 X30.1014 Y16.5242
G01 X30.1076 Y16.5668
G01 X30.1098 Y16.6098
G01 X30.1100 Y16.6237
G01 X30.1338 Y16.6350
G01 X30.1421 Y16.6393
G01 X30.2317 Y16.6930
G01 X30.2394 Y16.6983
G01 X30.3182 Y16.7568
G01 X30.3255 Y16.7626
G01 X30.4051 Y16.8349
G01 X30.4753 Y16.9121
G01 X30.4832 Y16.9218
G01 X30.5436 Y17.0031
G01 X30.5486 Y17.0110
G01 X30.6022 Y17.1006
G01 X30.6495 Y17.2006
G01 X30.6868 Y17.3048
G01 X30.7130 Y17.4090
G01 X30.7147 Y17.4182
G01 X30.7299 Y17.5215
G01 X30.7353 Y17.6320
G01 X30.7353 Y20.2131
G01 X34.6469 Y24.1247
G01 X51.3451 Y24.1247
G01 X55.0818 Y20.3880
G01 X51.0132 Y16.3193
G01 X50.8752 Y16.1668
G01 X50.7544 Y16.0042
G01 X50.7475 Y15.9939
G01 X50.6434 Y15.8200
G01 X50.5542 Y15.6312
G01 X50.4838 Y15.4346
G01 X50.4331 Y15.2321
G01 X50.4032 Y15.0317
G01 X50.4020 Y15.0193
G01 X50.3922 Y14.8170
G01 X50.3922 Y10.9454
G01 X49.5546 Y10.1078
G01 X24.5293 Y10.1088
G01 X16.7293 Y10.1088
G01 X16.7138 Y10.1078
G01 X16.7045 Y10.1064
G01 X16.6925 Y10.1033
G01 X16.6807 Y10.0991
G01 X16.6723 Y10.0952
G01 X16.6614 Y10.0891
G01 X16.6537 Y10.0838
G01 X16.6441 Y10.0759
G01 X16.6353 Y10.0671
G01 X16.6274 Y10.0575
G01 X16.6221 Y10.0498
G01 X16.6174 Y10.0418
G01 X16.6121 Y10.0305
G01 X16.6079 Y10.0188
G01 X16.6049 Y10.0067
G01 X16.6031 Y9.9944
G01 X16.6025 Y9.9851
G01 X16.6025 Y5.9820
G01 X16.6028 Y5.9727
G01 X16.6038 Y5.9634
G01 X16.6056 Y5.9542
G01 X16.6089 Y5.9422
G01 X16.6121 Y5.9335
G01 X16.6160 Y5.9250
G01 X16.6205 Y5.9168
G01 X16.6256 Y5.9090
G01 X16.6353 Y5.8968
G01 X16.6441 Y5.8880
G01 X16.6563 Y5.8783
G01 X16.6695 Y5.8702
G01 X16.6836 Y5.8637
G01 X16.6985 Y5.8590
G01 X16.7138 Y5.8561
G01 X16.7293 Y5.8552
G01 X20.5673 Y5.8552
G01 X20.6313 Y5.8522
G01 X50.4360 Y5.8522
G01 X50.6384 Y5.8620
G01 X50.6507 Y5.8632
G01 X50.8511 Y5.8931
G01 X51.0537 Y5.9438
G01 X51.2503 Y6.0142
G01 X51.4335 Y6.1006
G01 X51.4445 Y6.1065
G01 X51.6181 Y6.2108
G01 X51.7810 Y6.3314
G01 X51.7906 Y6.3393
G01 X51.9384 Y6.4732
G01 X54.0289 Y8.5639
G01 X54.1648 Y8.7141
G01 X54.2892 Y8.8819
G01 X54.3966 Y9.0610
G01 X54.4846 Y9.2469
G01 X54.4881 Y9.2555
G01 X54.5562 Y9.4463
G01 X54.6069 Y9.6489
G01 X54.6376 Y9.8554
G01 X54.6478 Y10.0609
G01 X54.6478 Y13.9356
G01 X57.3208 Y16.6086
G01 X57.3557 Y16.5770
G01 X57.3629 Y16.5710
G01 X57.6018 Y16.3937
G01 X57.6121 Y16.3868
G01 X57.8701 Y16.2324
G01 X58.1475 Y16.1012
G01 X58.4364 Y15.9978
G01 X58.7280 Y15.9246
G01 X58.7402 Y15.9222
G01 X59.0314 Y15.8790
G01 X59.0438 Y15.8778
G01 X59.3440 Y15.8632
G01 X59.6505 Y15.8783
G01 X59.9541 Y15.9233
G01 X60.2457 Y15.9962
G01 X60.2576 Y15.9998
G01 X60.5348 Y16.0990
G01 X60.5463 Y16.1037
G01 X60.8180 Y16.2324
G01 X61.0759 Y16.3868
G01 X61.0838 Y16.3919
G01 X61.3277 Y16.5730
G01 X61.5505 Y16.7747
G01 X61.5593 Y16.7835
G01 X61.7611 Y17.0064
G01 X61.9403 Y17.2478
G01 X61.9472 Y17.2581
G01 X62.1016 Y17.5160
G01 X62.2303 Y17.7877
G01 X62.2351 Y17.7992
G01 X62.3343 Y18.0764
G01 X62.3379 Y18.0883
G01 X62.4108 Y18.3800
G01 X62.4550 Y18.6773
G01 X62.4562 Y18.6897
G01 X62.4708 Y18.9900
G01 X62.4562 Y19.2903
G01 X62.4550 Y19.3027
G01 X62.4108 Y19.6000
G01 X62.3379 Y19.8917
G01 X62.3343 Y19.9036
G01 X62.2328 Y20.1866
G01 X62.1044 Y20.4584
G01 X62.0986 Y20.4694
G01 X61.9472 Y20.7219
G01 X61.9403 Y20.7322
G01 X61.7611 Y20.9736
G01 X61.5550 Y21.2010
G01 X61.3277 Y21.4070
G01 X61.0812 Y21.5898
G01 X60.8180 Y21.7476
G01 X60.5463 Y21.8763
G01 X60.5348 Y21.8810
G01 X60.2576 Y21.9802
G01 X60.2457 Y21.9838
G01 X59.9541 Y22.0567
G01 X59.6505 Y22.1017
G01 X59.3440 Y22.1168
G01 X59.0407 Y22.1020
G01 X59.0314 Y22.1010
G01 X58.7340 Y22.0567
G01 X58.4424 Y21.9838
G01 X58.4305 Y21.9802
G01 X58.1533 Y21.8810
G01 X58.1446 Y21.8776
G01 X57.8701 Y21.7476
G01 X57.6095 Y21.5915
G01 X57.6018 Y21.5863
G01 X57.3629 Y21.4090
G01 X57.3557 Y21.4030
G01 X57.3030 Y21.3552
G01 X52.6047 Y26.0534
G01 X52.5272 Y26.1234
G01 X52.4383 Y26.1893
G01 X52.3435 Y26.2462
G01 X52.2434 Y26.2935
G01 X52.1393 Y26.3308
G01 X52.0320 Y26.3576
G01 X51.9225 Y26.3739
G01 X51.8120 Y26.3793
G01 X34.1800 Y26.3793
G01 X34.0695 Y26.3739
G01 X33.9662 Y26.3587
G01 X33.9540 Y26.3563
G01 X33.8588 Y26.3324
G01 X33.8469 Y26.3288
G01 X33.7486 Y26.2935
G01 X33.6542 Y26.2490
G01 X33.6432 Y26.2431
G01 X33.5590 Y26.1926
G01 X33.5486 Y26.1857
G01 X33.4648 Y26.1234
G01 X33.3829 Y26.0491
G01 X28.8109 Y21.4771
G01 X28.7366 Y21.3952
G01 X28.6707 Y21.3063
G01 X28.6138 Y21.2114
G01 X28.5677 Y21.1143
G01 X28.5643 Y21.1056
G01 X28.5292 Y21.0072
G01 X28.5024 Y20.8999
G01 X28.4861 Y20.7905
G01 X28.4807 Y20.6831
G01 X28.4807 Y17.6320
G01 X28.4861 Y17.5215
G01 X28.5013 Y17.4182
G01 X28.5037 Y17.4060
G01 X28.5292 Y17.3048
G01 X28.5665 Y17.2006
G01 X28.6138 Y17.1006
G01 X28.6674 Y17.0110
G01 X28.6724 Y17.0031
G01 X28.7328 Y16.9218
G01 X28.7407 Y16.9121
G01 X28.8109 Y16.8349
G01 X28.8905 Y16.7626
G01 X28.8978 Y16.7568
G01 X28.9766 Y16.6983
G01 X28.9843 Y16.6930
G01 X29.0739 Y16.6393
G01 X29.0822 Y16.6350
G01 X29.1060 Y16.6237
G01 X29.1062 Y16.6098
G01 X29.1084 Y16.5668
G01 X29.1146 Y16.5242
G01 X29.1170 Y16.5120
G01 X29.1276 Y16.4703
G01 X29.1420 Y16.4297
G01 X29.1467 Y16.4182
G01 X29.1625 Y16.3849
G01 X29.1668 Y16.3766
G01 X29.1873 Y16.3424
G01 X29.1942 Y16.3320
G01 X29.2200 Y16.2975
G01 X29.2509 Y16.2633
G01 X29.2575 Y16.2567
G01 X29.2848 Y16.2320
G01 X29.2920 Y16.2260
G01 X29.3291 Y16.1986
G01 X29.3561 Y16.1822
G01 X29.3561 Y15.9046
G01 X28.8714 Y15.9046
G01 X28.8590 Y15.9040
G01 X28.8467 Y15.9022
G01 X28.8316 Y15.8982
G01 X28.8172 Y15.8924
G01 X28.8062 Y15.8866
G01 X28.7959 Y15.8796
G01 X28.7840 Y15.8696
G01 X28.7754 Y15.8606
G01 X28.7660 Y15.8482
G01 X28.7581 Y15.8348
G01 X28.7543 Y15.8263
G01 X28.7510 Y15.8176
G01 X28.7484 Y15.8086
G01 X28.7465 Y15.7995
G01 X28.7448 Y15.7840
G01 X28.7448 Y15.4160
G01 X28.7460 Y15.4036
G01 X28.7484 Y15.3914
G01 X28.7520 Y15.3795
G01 X28.7568 Y15.3680
G01 X28.7626 Y15.3570
G01 X28.7696 Y15.3467
G01 X28.7774 Y15.3370
G01 X28.7877 Y15.3269
G01 X28.5844 Y15.3269
G01 X28.5667 Y15.3502
G01 X28.5274 Y15.3934
G01 X24.6561 Y19.2647
G01 X24.6559 Y20.9882
G01 X24.6551 Y20.9975
G01 X24.6536 Y21.0067
G01 X24.6515 Y21.0158
G01 X24.6476 Y21.0276
G01 X24.6425 Y21.0390
G01 X24.6380 Y21.0472
G01 X24.6311 Y21.0575
G01 X24.6253 Y21.0648
G01 X24.6189 Y21.0717
G01 X24.6097 Y21.0800
G01 X24.5997 Y21.0874
G01 X24.5918 Y21.0923
G01 X24.5835 Y21.0966
G01 X24.5720 Y21.1014
G01 X24.5631 Y21.1042
G01 X24.5540 Y21.1064
G01 X24.5417 Y21.1082
G01 X24.5293 Y21.1088
G01 X20.8078 Y21.1088
G01 X20.6213 Y21.1178
G01 X11.9375 Y21.1178
G01 X11.8662 Y21.1965
G01 X11.8597 Y21.2032
G01 X11.6369 Y21.4050
G01 X11.6297 Y21.4109
G01 X11.3907 Y21.5881
G01 X11.3828 Y21.5932
G01 X11.1249 Y21.7476
G01 X10.8532 Y21.8763
G01 X10.8446 Y21.8799
G01 X10.5645 Y21.9802
G01 X10.5526 Y21.9838
G01 X10.2609 Y22.0567
G01 X9.9636 Y22.1010
G01 X9.9512 Y22.1022
G01 X9.6509 Y22.1168
G01 X9.3476 Y22.1020
G01 X9.3383 Y22.1010
G01 X9.0471 Y22.0578
G01 X9.0349 Y22.0554
G01 X8.7433 Y21.9822
G01 X8.4544 Y21.8788
G01 X8.1770 Y21.7476
G01 X7.9190 Y21.5932
G01 X7.9087 Y21.5863
G01 X7.6722 Y21.4109
G01 X7.6626 Y21.4030
G01 X7.4400 Y21.2010
G01 X7.2339 Y20.9736
G01 X7.0511 Y20.7272
G01 X6.8964 Y20.4694
G01 X6.8905 Y20.4584
G01 X6.7647 Y20.1923
G01 X6.7599 Y20.1808
G01 X6.6588 Y19.8977
G01 X6.5849 Y19.6031
G01 X6.5832 Y19.5939
G01 X6.5392 Y19.2965
G01 X6.5241 Y18.9900
G01 X6.5392 Y18.6835
G01 X6.5842 Y18.3800
G01 X6.6588 Y18.0823
G01 X6.7621 Y17.7934
G01 X6.8933 Y17.5160
G01 X7.0511 Y17.2528
G01 X7.2339 Y17.0064
G01 X7.4400 Y16.7790
G01 X7.6673 Y16.5730
G01 X7.9138 Y16.3902
G01 X8.1770 Y16.2324
G01 X8.4544 Y16.1012
G01 X8.7433 Y15.9978
G01 X9.0379 Y15.9239
G01 X9.0471 Y15.9222
G01 X9.3445 Y15.8783
G01 X9.6447 Y15.8634
G01 X9.6572 Y15.8634
G01 X9.9574 Y15.8783
G01 X10.2548 Y15.9222
G01 X10.2670 Y15.9246
G01 X10.5526 Y15.9962
G01 X10.5616 Y15.9988
G01 X10.8475 Y16.1012
G01 X11.1193 Y16.2296
G01 X11.1303 Y16.2355
G01 X11.3855 Y16.3885
G01 X11.3932 Y16.3937
G01 X11.6297 Y16.5691
G01 X11.6369 Y16.5750
G01 X11.8597 Y16.7768
G01 X11.8662 Y16.7835
G01 X11.9375 Y16.8622
G01 X16.6877 Y16.8622
G01 X16.6985 Y16.8590
G01 X16.7076 Y16.8571
G01 X16.7168 Y16.8558
G01 X16.7293 Y16.8552
G01 X20.6058 Y16.8552
G01 X20.6293 Y16.8542
G01 X20.6528 Y16.8552
G01 X24.5355 Y16.8553
G01 X24.5448 Y16.8561
G01 X24.5540 Y16.8576
G01 X24.5661 Y16.8606
G01 X24.5749 Y16.8637
G01 X24.5863 Y16.8687
G01 X24.5945 Y16.8732
G01 X24.6023 Y16.8783
G01 X24.6121 Y16.8860
G01 X24.6189 Y16.8923
G01 X24.6273 Y16.9015
G01 X24.6329 Y16.9090
G01 X24.6396 Y16.9195
G01 X24.6439 Y16.9278
G01 X24.6487 Y16.9393
G01 X24.6515 Y16.9482
G01 X24.6536 Y16.9573
G01 X24.6555 Y16.9696
G01 X24.6561 Y16.9820
G01 X24.6561 Y17.4911
G01 X27.6406 Y14.5066
G01 X27.6862 Y14.4653
G01 X27.7305 Y14.4322
G01 X27.7409 Y14.4253
G01 X27.7830 Y14.4001
G01 X27.7940 Y14.3942
G01 X27.8440 Y14.3707
G01 X27.9020 Y14.3500
G01 X27.9617 Y14.3350
G01 X28.0164 Y14.3267
G01 X28.0287 Y14.3255
G01 X28.0778 Y14.3231
G01 X28.0902 Y14.3231
G01 X28.1455 Y14.3260
G01 X28.2002 Y14.3339
G01 X28.2124 Y14.3364
G01 X28.2600 Y14.3483
G01 X28.2719 Y14.3519
G01 X28.3240 Y14.3707
G01 X28.3768 Y14.3956
G01 X28.3850 Y14.4001
G01 X28.4324 Y14.4286
G01 X28.4769 Y14.4615
G01 X28.4842 Y14.4673
G01 X28.5229 Y14.5023
G01 X28.5296 Y14.5088
G01 X28.5667 Y14.5498
G01 X28.5844 Y14.5731
G01 X28.7877 Y14.5731
G01 X28.7774 Y14.5630
G01 X28.7696 Y14.5533
G01 X28.7626 Y14.5430
G01 X28.7555 Y14.5292
G01 X28.7501 Y14.5146
G01 X28.7470 Y14.5025
G01 X28.7452 Y14.4902
G01 X28.7446 Y14.4778
G00 Z2.0000
G00 X34.3443 Y14.5620
G01 F60.00
G01 Z-0.1000
G01 F120.00
G01 X34.3397 Y14.5189
G01 X34.3397 Y14.0811
G01 X34.3473 Y14.0097
G01 X34.3478 Y13.9972
G01 X34.3473 Y13.9879
G01 X34.3497 Y13.9486
G01 X34.3488 Y13.9336
G01 X34.3468 Y13.9217
G01 X34.3443 Y13.9120
G01 X34.3397 Y13.8689
G01 X34.3397 Y13.4311
G01 X34.3437 Y13.3941
G01 X34.3820 Y13.2913
G01 X34.4464 Y13.2052
G01 X34.5325 Y13.1408
G01 X34.6353 Y13.1025
G01 X34.6723 Y13.0985
G01 X36.2277 Y13.0985
G01 X36.2647 Y13.1025
G01 X36.3675 Y13.1408
G01 X36.4536 Y13.2052
G01 X36.5180 Y13.2913
G01 X36.5563 Y13.3941
G01 X36.5603 Y13.4311
G01 X36.5603 Y13.5505
G01 X36.5606 Y13.5595
G01 X36.5616 Y13.5685
G01 X36.5646 Y13.5833
G01 X36.5860 Y13.6563
G01 X36.5905 Y13.6681
G01 X36.5976 Y13.6821
G01 X36.6027 Y13.6900
G01 X36.6084 Y13.6976
G01 X36.6147 Y13.7047
G01 X36.6214 Y13.7113
G01 X36.6790 Y13.7612
G01 X36.6865 Y13.7669
G01 X36.6945 Y13.7721
G01 X36.7086 Y13.7794
G01 X36.7174 Y13.7829
G01 X36.7265 Y13.7857
G01 X36.7841 Y13.7984
G01 X36.7990 Y13.8007
G01 X36.8111 Y13.8013
G01 X42.9573 Y13.8013
G01 X42.9677 Y13.8009
G01 X42.9827 Y13.7993
G01 X43.0459 Y13.8012
G01 X43.0721 Y13.8013
G01 X43.0880 Y13.8025
G01 X43.1186 Y13.8035
G01 X43.1322 Y13.8070
G01 X43.1545 Y13.8116
G01 X43.1650 Y13.8131
G01 X43.1935 Y13.8244
G01 X43.2074 Y13.8292
G01 X43.2396 Y13.8387
G01 X43.2489 Y13.8439
G01 X43.2693 Y13.8540
G01 X43.2822 Y13.8595
G01 X43.3095 Y13.8792
G01 X43.3217 Y13.8872
G01 X43.3481 Y13.9028
G01 X43.3557 Y13.9102
G01 X43.3730 Y13.9250
G01 X43.3841 Y13.9336
G01 X43.4037 Y13.9572
G01 X43.4176 Y13.9724
G01 X44.1160 Y14.6707
G01 X44.1275 Y14.6804
G01 X44.1401 Y14.6888
G01 X44.2041 Y14.7237
G01 X44.2183 Y14.7304
G01 X44.2303 Y14.7344
G01 X44.2394 Y14.7367
G01 X44.2488 Y14.7382
G01 X44.2613 Y14.7392
G01 X44.2739 Y14.7389
G01 X44.3436 Y14.7339
G01 X44.3526 Y14.7329
G01 X44.3644 Y14.7307
G01 X44.3760 Y14.7273
G01 X44.4753 Y14.6903
G01 X44.5123 Y14.6863
G01 X46.3945 Y14.6863
G01 X46.4315 Y14.6903
G01 X46.5343 Y14.7286
G01 X46.6203 Y14.7930
G01 X46.6847 Y14.8791
G01 X46.7231 Y14.9819
G01 X46.7271 Y15.0189
G01 X46.7272 Y15.0615
G01 X46.7280 Y15.0706
G01 X46.7300 Y15.0825
G01 X46.7322 Y15.0912
G01 X46.7538 Y15.1643
G01 X46.7599 Y15.1788
G01 X46.7677 Y15.1924
G01 X46.7772 Y15.2050
G01 X46.7882 Y15.2163
G01 X46.8457 Y15.2662
G01 X46.8533 Y15.2719
G01 X46.8613 Y15.2771
G01 X46.8696 Y15.2817
G01 X46.8783 Y15.2856
G01 X46.8933 Y15.2907
G01 X46.9509 Y15.3034
G01 X46.9598 Y15.3050
G01 X46.9749 Y15.3063
G01 X46.9944 Y15.3062
G01 X47.0064 Y15.3050
G01 X47.0183 Y15.3027
G01 X47.0970 Y15.2796
G01 X47.1112 Y15.2737
G01 X47.1245 Y15.2661
G01 X47.1345 Y15.2589
G01 X47.1437 Y15.2508
G01 X47.1866 Y15.2071
G01 X47.1947 Y15.1975
G01 X47.2018 Y15.1872
G01 X47.2614 Y15.0905
G01 X47.3645 Y14.9874
G01 X47.4886 Y14.9109
G01 X47.6279 Y14.8647
G01 X47.7105 Y14.8563
G01 X49.0975 Y14.8563
G01 X49.1801 Y14.8647
G01 X49.3194 Y14.9109
G01 X49.4435 Y14.9874
G01 X49.5466 Y15.0905
G01 X49.6231 Y15.2146
G01 X49.6693 Y15.3539
G01 X49.6777 Y15.4365
G01 X49.6779 Y15.8541
G01 X49.6792 Y15.8669
G01 X49.6872 Y15.9063
G01 X49.7107 Y16.0546
G01 X49.6988 Y16.1800
G01 X49.6450 Y16.3294
G01 X49.6231 Y16.3954
G01 X49.5466 Y16.5195
G01 X49.4435 Y16.6226
G01 X49.3194 Y16.6991
G01 X49.1801 Y16.7453
G01 X49.0976 Y16.7537
G01 X47.7105 Y16.7537
G01 X47.6758 Y16.7502
G01 X47.6637 Y16.7498
G01 X47.6547 Y16.7503
G01 X47.6457 Y16.7514
G01 X47.5679 Y16.7660
G01 X47.5528 Y16.7706
G01 X47.5412 Y16.7756
G01 X47.5276 Y16.7834
G01 X47.5174 Y16.7908
G01 X47.5103 Y16.7970
G01 X47.4572 Y16.8471
G01 X47.4487 Y16.8564
G01 X47.4411 Y16.8665
G01 X47.4361 Y16.8745
G01 X47.4318 Y16.8829
G01 X47.4269 Y16.8945
G01 X47.4241 Y16.9035
G01 X47.4056 Y16.9774
G01 X47.4035 Y16.9898
G01 X47.4026 Y17.0055
G01 X47.4036 Y17.0212
G01 X47.4052 Y17.0305
G01 X47.4074 Y17.0397
G01 X47.4317 Y17.1119
G01 X47.4351 Y17.1207
G01 X47.4406 Y17.1321
G01 X47.4489 Y17.1454
G01 X47.4547 Y17.1528
G01 X47.4721 Y17.1733
G01 X48.4441 Y18.1455
G01 X48.4518 Y18.1526
G01 X48.4636 Y18.1621
G01 X48.5069 Y18.2081
G01 X48.5254 Y18.2267
G01 X48.5357 Y18.2388
G01 X48.5567 Y18.2612
G01 X48.5637 Y18.2732
G01 X48.5763 Y18.2922
G01 X48.5827 Y18.3007
G01 X48.5962 Y18.3316
G01 X48.6026 Y18.3447
G01 X48.6174 Y18.3716
G01 X48.6212 Y18.3850
G01 X48.6286 Y18.4065
G01 X48.6327 Y18.4164
G01 X48.6375 Y18.4467
G01 X48.6405 Y18.4610
G01 X48.6487 Y18.4936
G01 X48.6491 Y18.5076
G01 X48.6509 Y18.5303
G01 X48.6524 Y18.5408
G01 X48.6496 Y18.5713
G01 X48.6487 Y18.5920
G01 X48.6488 Y19.2115
G01 X48.6505 Y19.2265
G01 X48.6530 Y19.2383
G01 X48.6744 Y19.3113
G01 X48.6789 Y19.3231
G01 X48.6830 Y19.3316
G01 X48.6877 Y19.3398
G01 X48.6930 Y19.3476
G01 X48.7009 Y19.3573
G01 X48.7098 Y19.3663
G01 X48.7698 Y19.4182
G01 X48.7802 Y19.4255
G01 X48.7884 Y19.4302
G01 X48.7999 Y19.4356
G01 X48.8118 Y19.4398
G01 X48.8210 Y19.4422
G01 X48.8725 Y19.4534
G01 X48.8815 Y19.4550
G01 X48.8905 Y19.4560
G01 X48.8995 Y19.4563
G01 X49.0411 Y19.4563
G01 X49.0781 Y19.4603
G01 X49.1809 Y19.4986
G01 X49.2670 Y19.5630
G01 X49.3314 Y19.6491
G01 X49.3697 Y19.7519
G01 X49.3737 Y19.7889
G01 X49.3737 Y21.5711
G01 X49.3697 Y21.6081
G01 X49.3314 Y21.7109
G01 X49.2670 Y21.7970
G01 X49.1809 Y21.8614
G01 X49.0781 Y21.8997
G01 X49.0411 Y21.9037
G01 X47.2589 Y21.9037
G01 X47.2219 Y21.8997
G01 X47.1191 Y21.8614
G01 X47.0330 Y21.7970
G01 X46.9686 Y21.7109
G01 X46.9303 Y21.6081
G01 X46.9263 Y21.5711
G01 X46.9263 Y19.7889
G01 X46.9303 Y19.7519
G01 X46.9686 Y19.6491
G01 X47.0330 Y19.5630
G01 X47.1191 Y19.4986
G01 X47.2219 Y19.4603
G01 X47.2589 Y19.4563
G01 X47.4005 Y19.4563
G01 X47.4126 Y19.4557
G01 X47.4245 Y19.4540
G01 X47.4333 Y19.4520
G01 X47.5093 Y19.4296
G01 X47.5209 Y19.4248
G01 X47.5348 Y19.4173
G01 X47.5451 Y19.4101
G01 X47.5547 Y19.4019
G01 X47.5634 Y19.3929
G01 X47.6091 Y19.3400
G01 X47.6187 Y19.3275
G01 X47.6237 Y19.3194
G01 X47.6281 Y19.3109
G01 X47.6318 Y19.3022
G01 X47.6348 Y19.2932
G01 X47.6372 Y19.2840
G01 X47.6484 Y19.2325
G01 X47.6500 Y19.2235
G01 X47.6510 Y19.2145
G01 X47.6513 Y19.2055
G01 X47.6513 Y18.8671
G01 X47.6510 Y18.8580
G01 X47.6500 Y18.8490
G01 X47.6484 Y18.8401
G01 X47.6462 Y18.8314
G01 X47.6246 Y18.7584
G01 X47.6199 Y18.7469
G01 X47.6142 Y18.7358
G01 X47.6091 Y18.7280
G01 X47.6035 Y18.7205
G01 X47.5847 Y18.6972
G01 X47.5778 Y18.6897
G01 X45.9953 Y17.1072
G01 X45.9840 Y17.0971
G01 X45.9716 Y17.0885
G01 X45.9050 Y17.0520
G01 X45.8967 Y17.0479
G01 X45.8881 Y17.0443
G01 X45.8792 Y17.0414
G01 X45.8701 Y17.0392
G01 X45.8609 Y17.0376
G01 X45.8315 Y17.0344
G01 X45.8179 Y17.0337
G01 X44.5123 Y17.0337
G01 X44.4753 Y17.0297
G01 X44.3724 Y16.9914
G01 X44.2864 Y16.9270
G01 X44.2220 Y16.8409
G01 X44.1837 Y16.7381
G01 X44.1797 Y16.7011
G01 X44.1797 Y16.2277
G01 X44.1794 Y16.2187
G01 X44.1779 Y16.2067
G01 X44.1754 Y16.1949
G01 X44.1539 Y16.1220
G01 X44.1507 Y16.1131
G01 X44.1468 Y16.1045
G01 X44.1423 Y16.0962
G01 X44.1372 Y16.0882
G01 X44.1316 Y16.0807
G01 X44.1253 Y16.0736
G01 X44.0938 Y16.0402
G01 X44.0853 Y16.0321
G01 X44.0753 Y16.0241
G01 X44.0607 Y16.0144
G01 X44.0319 Y15.9972
G01 X44.0218 Y15.9876
G01 X44.0044 Y15.9728
G01 X43.9959 Y15.9664
G01 X43.9763 Y15.9428
G01 X43.9624 Y15.9276
G01 X42.9069 Y14.8722
G01 X42.9003 Y14.8660
G01 X42.8932 Y14.8603
G01 X42.8858 Y14.8551
G01 X42.8780 Y14.8505
G01 X42.8139 Y14.8156
G01 X42.8055 Y14.8116
G01 X42.7968 Y14.8083
G01 X42.7848 Y14.8049
G01 X42.7726 Y14.8026
G01 X42.7397 Y14.7991
G01 X42.7295 Y14.7987
G01 X36.8051 Y14.7988
G01 X36.7931 Y14.8000
G01 X36.7783 Y14.8030
G01 X36.7053 Y14.8244
G01 X36.6964 Y14.8277
G01 X36.6878 Y14.8315
G01 X36.6742 Y14.8394
G01 X36.6665 Y14.8449
G01 X36.6593 Y14.8509
G01 X36.6482 Y14.8621
G01 X36.5984 Y14.9198
G01 X36.5911 Y14.9302
G01 X36.5849 Y14.9412
G01 X36.5787 Y14.9558
G01 X36.5751 Y14.9679
G01 X36.5626 Y15.0255
G01 X36.5609 Y15.0374
G01 X36.5603 Y15.0495
G01 X36.5603 Y15.1689
G01 X36.5527 Y15.2403
G01 X36.5522 Y15.2528
G01 X36.5527 Y15.2621
G01 X36.5503 Y15.2983
G01 X36.5504 Y15.3074
G01 X36.5512 Y15.3164
G01 X36.5532 Y15.3283
G01 X36.5557 Y15.3380
G01 X36.5603 Y15.3811
G01 X36.5603 Y15.8189
G01 X36.5578 Y15.8427
G01 X36.5574 Y15.8578
G01 X36.5581 Y15.8668
G01 X36.5594 Y15.8758
G01 X36.5718 Y15.9445
G01 X36.5746 Y15.9568
G01 X36.5787 Y15.9687
G01 X36.5839 Y15.9802
G01 X36.5902 Y15.9911
G01 X36.5976 Y16.0013
G01 X36.6037 Y16.0084
G01 X36.6535 Y16.0618
G01 X36.6601 Y16.0681
G01 X36.6671 Y16.0739
G01 X36.6746 Y16.0792
G01 X36.6824 Y16.0839
G01 X36.6934 Y16.0893
G01 X36.7019 Y16.0927
G01 X36.7106 Y16.0954
G01 X36.7769 Y16.1136
G01 X36.7920 Y16.1164
G01 X36.8074 Y16.1173
G01 X37.6089 Y16.1173
G01 X37.6240 Y16.1160
G01 X37.6387 Y16.1130
G01 X37.7117 Y16.0916
G01 X37.7206 Y16.0883
G01 X37.7292 Y16.0845
G01 X37.7375 Y16.0800
G01 X37.7480 Y16.0730
G01 X37.7578 Y16.0651
G01 X37.7645 Y16.0585
G01 X37.8166 Y15.9986
G01 X37.8258 Y15.9858
G01 X37.8321 Y15.9748
G01 X37.8372 Y15.9633
G01 X37.8402 Y15.9543
G01 X37.8531 Y15.9066
G01 X37.8551 Y15.8949
G01 X37.8607 Y15.8399
G01 X37.9069 Y15.7006
G01 X37.9834 Y15.5765
G01 X38.0865 Y15.4734
G01 X38.2106 Y15.3969
G01 X38.3499 Y15.3507
G01 X38.4325 Y15.3423
G01 X39.1695 Y15.3423
G01 X39.2521 Y15.3507
G01 X39.3914 Y15.3969
G01 X39.5155 Y15.4734
G01 X39.6186 Y15.5765
G01 X39.6951 Y15.7006
G01 X39.7413 Y15.8399
G01 X39.7497 Y15.9225
G01 X39.7497 Y17.3095
G01 X39.7413 Y17.3921
G01 X39.6951 Y17.5314
G01 X39.6186 Y17.6555
G01 X39.5155 Y17.7586
G01 X39.3914 Y17.8351
G01 X39.2521 Y17.8813
G01 X39.1696 Y17.8897
G01 X38.4325 Y17.8897
G01 X38.3697 Y17.8833
G01 X38.3546 Y17.8826
G01 X38.3455 Y17.8831
G01 X38.3366 Y17.8842
G01 X38.2588 Y17.8988
G01 X38.2498 Y17.9013
G01 X38.2409 Y17.9045
G01 X38.2324 Y17.9083
G01 X38.2214 Y17.9143
G01 X38.2136 Y17.9195
G01 X38.1794 Y17.9444
G01 X38.1717 Y17.9508
G01 X38.1668 Y17.9554
G01 X37.2900 Y18.8323
G01 X37.2803 Y18.8438
G01 X37.2720 Y18.8564
G01 X37.2370 Y18.9203
G01 X37.2304 Y18.9344
G01 X37.2264 Y18.9462
G01 X37.2231 Y18.9614
G01 X37.2194 Y18.9939
G01 X37.2187 Y19.0041
G01 X37.2187 Y19.7165
G01 X37.2200 Y19.7315
G01 X37.2230 Y19.7463
G01 X37.2444 Y19.8193
G01 X37.2477 Y19.8282
G01 X37.2530 Y19.8396
G01 X37.2577 Y19.8478
G01 X37.2630 Y19.8556
G01 X37.2688 Y19.8630
G01 X37.2752 Y19.8699
G01 X37.2821 Y19.8764
G01 X37.3350 Y19.9221
G01 X37.3449 Y19.9299
G01 X37.3556 Y19.9367
G01 X37.3670 Y19.9424
G01 X37.3788 Y19.9469
G01 X37.3910 Y19.9502
G01 X37.4425 Y19.9614
G01 X37.4515 Y19.9630
G01 X37.4605 Y19.9640
G01 X37.4695 Y19.9643
G01 X37.6111 Y19.9643
G01 X37.6481 Y19.9683
G01 X37.7509 Y20.0066
G01 X37.8370 Y20.0710
G01 X37.9014 Y20.1571
G01 X37.9397 Y20.2599
G01 X37.9437 Y20.2969
G01 X37.9437 Y22.0791
G01 X37.9397 Y22.1161
G01 X37.9014 Y22.2189
G01 X37.8370 Y22.3050
G01 X37.7509 Y22.3694
G01 X37.6481 Y22.4077
G01 X37.6111 Y22.4117
G01 X35.8289 Y22.4117
G01 X35.7919 Y22.4077
G01 X35.6891 Y22.3694
G01 X35.6030 Y22.3050
G01 X35.5386 Y22.2189
G01 X35.5003 Y22.1161
G01 X35.4963 Y22.0791
G01 X35.4963 Y20.2969
G01 X35.5003 Y20.2599
G01 X35.5386 Y20.1571
G01 X35.6030 Y20.0710
G01 X35.6891 Y20.0066
G01 X35.7919 Y19.9683
G01 X35.8289 Y19.9643
G01 X35.9705 Y19.9643
G01 X35.9826 Y19.9637
G01 X35.9945 Y19.9620
G01 X36.0033 Y19.9600
G01 X36.0793 Y19.9376
G01 X36.0909 Y19.9328
G01 X36.1048 Y19.9253
G01 X36.1151 Y19.9181
G01 X36.1247 Y19.9099
G01 X36.1334 Y19.9009
G01 X36.1812 Y19.8456
G01 X36.1869 Y19.8381
G01 X36.1921 Y19.8301
G01 X36.1967 Y19.8218
G01 X36.2006 Y19.8131
G01 X36.2039 Y19.8042
G01 X36.2065 Y19.7951
G01 X36.2190 Y19.7375
G01 X36.2204 Y19.7286
G01 X36.2213 Y19.7165
G01 X36.2213 Y18.7797
G01 X36.2209 Y18.7693
G01 X36.2193 Y18.7542
G01 X36.2212 Y18.6911
G01 X36.2213 Y18.6649
G01 X36.2225 Y18.6490
G01 X36.2235 Y18.6184
G01 X36.2270 Y18.6049
G01 X36.2316 Y18.5825
G01 X36.2331 Y18.5720
G01 X36.2444 Y18.5435
G01 X36.2492 Y18.5296
G01 X36.2587 Y18.4974
G01 X36.2654 Y18.4851
G01 X36.2754 Y18.4647
G01 X36.2795 Y18.4548
G01 X36.2975 Y18.4300
G01 X36.3056 Y18.4178
G01 X36.3228 Y18.3889
G01 X36.3302 Y18.3813
G01 X36.3450 Y18.3640
G01 X36.3536 Y18.3529
G01 X36.3772 Y18.3333
G01 X36.3924 Y18.3194
G01 X37.1689 Y17.5428
G01 X37.1770 Y17.5339
G01 X37.1842 Y17.5243
G01 X37.1890 Y17.5166
G01 X37.2255 Y17.4498
G01 X37.2318 Y17.4354
G01 X37.2363 Y17.4203
G01 X37.2388 Y17.4048
G01 X37.2395 Y17.3891
G01 X37.2342 Y17.3131
G01 X37.2327 Y17.3006
G01 X37.2299 Y17.2883
G01 X37.2260 Y17.2764
G01 X37.2209 Y17.2649
G01 X37.2146 Y17.2539
G01 X37.2092 Y17.2462
G01 X37.1654 Y17.1877
G01 X37.1572 Y17.1783
G01 X37.1504 Y17.1717
G01 X37.1431 Y17.1657
G01 X37.1354 Y17.1602
G01 X37.1245 Y17.1538
G01 X37.1160 Y17.1498
G01 X37.0447 Y17.1230
G01 X37.0297 Y17.1185
G01 X37.0143 Y17.1158
G01 X36.9915 Y17.1147
G01 X36.5487 Y17.1147
G01 X36.5383 Y17.1151
G01 X36.5232 Y17.1167
G01 X36.4601 Y17.1148
G01 X36.4339 Y17.1147
G01 X36.4180 Y17.1135
G01 X36.3874 Y17.1125
G01 X36.3771 Y17.1097
G01 X36.3548 Y17.1050
G01 X36.3410 Y17.1029
G01 X36.3097 Y17.0906
G01 X36.2958 Y17.0859
G01 X36.2664 Y17.0773
G01 X36.2571 Y17.0720
G01 X36.2367 Y17.0620
G01 X36.2238 Y17.0565
G01 X36.1990 Y17.0385
G01 X36.1868 Y17.0304
G01 X36.1579 Y17.0132
G01 X36.1478 Y17.0036
G01 X36.1304 Y16.9888
G01 X36.1219 Y16.9824
G01 X36.1023 Y16.9588
G01 X36.0884 Y16.9436
G01 X35.3675 Y16.2228
G01 X35.3560 Y16.2131
G01 X35.3434 Y16.2048
G01 X35.2795 Y16.1698
G01 X35.2711 Y16.1657
G01 X35.2566 Y16.1601
G01 X35.2415 Y16.1564
G01 X35.2323 Y16.1551
G01 X35.2059 Y16.1522
G01 X35.1957 Y16.1515
G01 X34.6723 Y16.1515
G01 X34.6353 Y16.1475
G01 X34.5325 Y16.1092
G01 X34.4464 Y16.0448
G01 X34.3820 Y15.9587
G01 X34.3437 Y15.8559
G01 X34.3397 Y15.8189
G01 X34.3397 Y15.3811
G01 X34.3473 Y15.3097
G01 X34.3478 Y15.2972
G01 X34.3473 Y15.2879
G01 X34.3497 Y15.2486
G01 X34.3488 Y15.2336
G01 X34.3468 Y15.2217
G01 X34.3443 Y15.2120
G01 X34.3397 Y15.1689
G01 X34.3397 Y14.7311
G01 X34.3473 Y14.6597
G01 X34.3478 Y14.6472
G01 X34.3473 Y14.6379
G01 X34.3497 Y14.5986
G01 X34.3494 Y14.5896
G01 X34.3485 Y14.5806
G01 X34.3468 Y14.5717
G01 X34.3443 Y14.5620
G00 Z2.0000
G00 X34.5866 Y14.4778
G01 F60.00
G01 Z-0.1000
G01 F120.00
G01 X34.5866 Y14.1222
G01 X34.5876 Y14.1067
G01 X34.5904 Y14.0914
G01 X34.5940 Y14.0795
G01 X34.5975 Y14.0708
G01 X34.6016 Y14.0624
G01 X34.6063 Y14.0544
G01 X34.6116 Y14.0467
G01 X34.6174 Y14.0394
G01 X34.6237 Y14.0325
G01 X34.6330 Y14.0242
G01 X34.6404 Y14.0185
G01 X34.6482 Y14.0134
G01 X34.6564 Y14.0089
G01 X34.6678 Y14.0039
G01 X34.6766 Y14.0009
G01 X34.6856 Y13.9985
G01 X34.6979 Y13.9964
G01 X34.7072 Y13.9956
G01 X36.1897 Y13.9954
G01 X36.2052 Y13.9968
G01 X36.2204 Y14.0000
G01 X36.2322 Y14.0039
G01 X36.2464 Y14.0104
G01 X36.2570 Y14.0168
G01 X36.2694 Y14.0262
G01 X36.2806 Y14.0370
G01 X36.2895 Y14.0481
G01 X43.0462 Y14.0483
G01 X43.0647 Y14.0494
G01 X43.0891 Y14.0530
G01 X43.1131 Y14.0590
G01 X43.1364 Y14.0673
G01 X43.1587 Y14.0779
G01 X43.1799 Y14.0906
G01 X43.1998 Y14.1053
G01 X43.2136 Y14.1176
G01 X44.4266 Y15.3304
G01 X44.4266 Y15.0569
G01 X44.4272 Y15.0476
G01 X44.4284 Y15.0383
G01 X44.4320 Y15.0232
G01 X44.4351 Y15.0144
G01 X44.4387 Y15.0058
G01 X44.4446 Y14.9948
G01 X44.4497 Y14.9870
G01 X44.4554 Y14.9796
G01 X44.4615 Y14.9726
G01 X44.4682 Y14.9660
G01 X44.4754 Y14.9600
G01 X44.4829 Y14.9546
G01 X44.4909 Y14.9497
G01 X44.4992 Y14.9454
G01 X44.5107 Y14.9406
G01 X44.5196 Y14.9378
G01 X44.5286 Y14.9356
G01 X44.5379 Y14.9342
G01 X44.5472 Y14.9334
G01 X46.3534 Y14.9332
G01 X46.3627 Y14.9335
G01 X46.3751 Y14.9351
G01 X46.3842 Y14.9370
G01 X46.3931 Y14.9396
G01 X46.4019 Y14.9429
G01 X46.4104 Y14.9467
G01 X46.4238 Y14.9546
G01 X46.4314 Y14.9600
G01 X46.4385 Y14.9660
G01 X46.4494 Y14.9772
G01 X46.4588 Y14.9896
G01 X46.4637 Y14.9975
G01 X46.4680 Y15.0058
G01 X46.4717 Y15.0144
G01 X46.4747 Y15.0232
G01 X46.4771 Y15.0322
G01 X46.4788 Y15.0414
G01 X46.4798 Y15.0507
G01 X46.4802 Y15.0600
G01 X46.4802 Y15.5531
G01 X47.3772 Y15.5531
G01 X47.3772 Y15.4769
G01 X47.3787 Y15.4462
G01 X47.3798 Y15.4369
G01 X47.3844 Y15.4065
G01 X47.3926 Y15.3736
G01 X47.3954 Y15.3647
G01 X47.4059 Y15.3358
G01 X47.4217 Y15.3024
G01 X47.4407 Y15.2707
G01 X47.4589 Y15.2459
G01 X47.4647 Y15.2386
G01 X47.4854 Y15.2158
G01 X47.4921 Y15.2093
G01 X47.5126 Y15.1907
G01 X47.5199 Y15.1849
G01 X47.5447 Y15.1667
G01 X47.5737 Y15.1492
G01 X47.5819 Y15.1449
G01 X47.6098 Y15.1319
G01 X47.6446 Y15.1194
G01 X47.6805 Y15.1104
G01 X47.7109 Y15.1058
G01 X47.7233 Y15.1046
G01 X47.7540 Y15.1032
G01 X49.0571 Y15.1032
G01 X49.0847 Y15.1046
G01 X49.0940 Y15.1054
G01 X49.1245 Y15.1099
G01 X49.1336 Y15.1118
G01 X49.1634 Y15.1194
G01 X49.1924 Y15.1296
G01 X49.2011 Y15.1331
G01 X49.2289 Y15.1463
G01 X49.2370 Y15.1508
G01 X49.2633 Y15.1667
G01 X49.2930 Y15.1887
G01 X49.3204 Y15.2136
G01 X49.3412 Y15.2362
G01 X49.3491 Y15.2459
G01 X49.3690 Y15.2733
G01 X49.3848 Y15.2997
G01 X49.3891 Y15.3079
G01 X49.4009 Y15.3329
G01 X49.4044 Y15.3416
G01 X49.4146 Y15.3706
G01 X49.4222 Y15.4004
G01 X49.4241 Y15.4095
G01 X49.4286 Y15.4400
G01 X49.4294 Y15.4493
G01 X49.4308 Y15.4769
G01 X49.4308 Y15.9525
G01 X49.4397 Y15.9711
G01 X49.4432 Y15.9798
G01 X49.4493 Y15.9973
G01 X49.4546 Y16.0182
G01 X49.4563 Y16.0274
G01 X49.4589 Y16.0457
G01 X49.4601 Y16.0673
G01 X49.4599 Y16.0766
G01 X49.4589 Y16.0951
G01 X49.4558 Y16.1165
G01 X49.4509 Y16.1375
G01 X49.4473 Y16.1494
G01 X49.4421 Y16.1639
G01 X49.4384 Y16.1724
G01 X49.4304 Y16.1891
G01 X49.4243 Y16.1996
G01 X49.4222 Y16.2096
G01 X49.4146 Y16.2394
G01 X49.4021 Y16.2742
G01 X49.3863 Y16.3076
G01 X49.3706 Y16.3341
G01 X49.3655 Y16.3419
G01 X49.3453 Y16.3690
G01 X49.3204 Y16.3964
G01 X49.2930 Y16.4213
G01 X49.2684 Y16.4397
G01 X49.2581 Y16.4466
G01 X49.2289 Y16.4637
G01 X49.1982 Y16.4781
G01 X49.1663 Y16.4896
G01 X49.1336 Y16.4982
G01 X49.1214 Y16.5006
G01 X49.0909 Y16.5050
G01 X49.0540 Y16.5068
G01 X47.7540 Y16.5068
G01 X47.7171 Y16.5050
G01 X47.6835 Y16.5001
G01 X47.6744 Y16.4982
G01 X47.6446 Y16.4906
G01 X47.6098 Y16.4781
G01 X47.5764 Y16.4623
G01 X47.5447 Y16.4433
G01 X47.5150 Y16.4213
G01 X47.4876 Y16.3964
G01 X47.4627 Y16.3690
G01 X47.4425 Y16.3419
G01 X47.4374 Y16.3341
G01 X47.4217 Y16.3076
G01 X47.4059 Y16.2742
G01 X47.3934 Y16.2394
G01 X47.3851 Y16.2066
G01 X47.3798 Y16.1731
G01 X47.3786 Y16.1607
G01 X47.3772 Y16.1331
G01 X47.3772 Y16.0569
G01 X46.4802 Y16.0569
G01 X46.4802 Y16.5306
G01 X48.3281 Y18.3785
G01 X48.3427 Y18.3945
G01 X48.3485 Y18.4018
G01 X48.3594 Y18.4167
G01 X48.3721 Y18.4379
G01 X48.3802 Y18.4546
G01 X48.3838 Y18.4631
G01 X48.3901 Y18.4805
G01 X48.3927 Y18.4895
G01 X48.3970 Y18.5075
G01 X48.3999 Y18.5258
G01 X48.4009 Y18.5350
G01 X48.4018 Y18.5535
G01 X48.4019 Y19.7032
G01 X49.0000 Y19.7032
G01 X49.0124 Y19.7038
G01 X49.0217 Y19.7051
G01 X49.0308 Y19.7070
G01 X49.0456 Y19.7117
G01 X49.0598 Y19.7182
G01 X49.0730 Y19.7263
G01 X49.0852 Y19.7360
G01 X49.0960 Y19.7472
G01 X49.1018 Y19.7545
G01 X49.1071 Y19.7622
G01 X49.1146 Y19.7758
G01 X49.1194 Y19.7873
G01 X49.1237 Y19.8022
G01 X49.1258 Y19.8145
G01 X49.1268 Y19.8300
G01 X49.1268 Y21.5300
G01 X49.1258 Y21.5455
G01 X49.1237 Y21.5578
G01 X49.1194 Y21.5727
G01 X49.1133 Y21.5870
G01 X49.1054 Y21.6004
G01 X49.1000 Y21.6080
G01 X49.0940 Y21.6152
G01 X49.0828 Y21.6260
G01 X49.0755 Y21.6318
G01 X49.0678 Y21.6371
G01 X49.0542 Y21.6446
G01 X49.0456 Y21.6483
G01 X49.0368 Y21.6513
G01 X49.0278 Y21.6537
G01 X49.0186 Y21.6554
G01 X49.0031 Y21.6568
G01 X47.2969 Y21.6568
G01 X47.2814 Y21.6554
G01 X47.2692 Y21.6530
G01 X47.2573 Y21.6494
G01 X47.2458 Y21.6446
G01 X47.2348 Y21.6388
G01 X47.2220 Y21.6300
G01 X47.2126 Y21.6218
G01 X47.2040 Y21.6128
G01 X47.1963 Y21.6030
G01 X47.1912 Y21.5952
G01 X47.1867 Y21.5870
G01 X47.1817 Y21.5756
G01 X47.1787 Y21.5668
G01 X47.1756 Y21.5547
G01 X47.1738 Y21.5424
G01 X47.1732 Y21.5331
G01 X47.1732 Y19.8300
G01 X47.1738 Y19.8176
G01 X47.1763 Y19.8022
G01 X47.1796 Y19.7902
G01 X47.1829 Y19.7815
G01 X47.1867 Y19.7730
G01 X47.1912 Y19.7648
G01 X47.1963 Y19.7570
G01 X47.2020 Y19.7496
G01 X47.2082 Y19.7426
G01 X47.2148 Y19.7360
G01 X47.2220 Y19.7300
G01 X47.2296 Y19.7246
G01 X47.2375 Y19.7197
G01 X47.2458 Y19.7154
G01 X47.2544 Y19.7117
G01 X47.2632 Y19.7087
G01 X47.2722 Y19.7063
G01 X47.2814 Y19.7046
G01 X47.2907 Y19.7035
G01 X47.3000 Y19.7032
G01 X47.8981 Y19.7032
G01 X47.8981 Y18.6609
G01 X46.0240 Y16.7868
G01 X44.5503 Y16.7868
G01 X44.5409 Y16.7862
G01 X44.5286 Y16.7844
G01 X44.5196 Y16.7822
G01 X44.5077 Y16.7783
G01 X44.4992 Y16.7746
G01 X44.4909 Y16.7703
G01 X44.4804 Y16.7637
G01 X44.4729 Y16.7580
G01 X44.4615 Y16.7474
G01 X44.4534 Y16.7380
G01 X44.4462 Y16.7278
G01 X44.4401 Y16.7170
G01 X44.4340 Y16.7027
G01 X44.4304 Y16.6908
G01 X44.4279 Y16.6786
G01 X44.4267 Y16.6662
G01 X44.4266 Y15.8519
G01 X44.3338 Y15.8517
G01 X44.3122 Y15.8503
G01 X44.2939 Y15.8476
G01 X44.2848 Y15.8457
G01 X44.2669 Y15.8410
G01 X44.2494 Y15.8349
G01 X44.2408 Y15.8315
G01 X44.2240 Y15.8236
G01 X44.2159 Y15.8191
G01 X44.2001 Y15.8094
G01 X44.1851 Y15.7985
G01 X44.1778 Y15.7927
G01 X44.1619 Y15.7781
G01 X42.9357 Y14.5519
G01 X36.2895 Y14.5519
G01 X36.2806 Y14.5630
G01 X36.2694 Y14.5738
G01 X36.2596 Y14.5815
G01 X36.2464 Y14.5896
G01 X36.2322 Y14.5961
G01 X36.2204 Y14.6000
G01 X36.2052 Y14.6032
G01 X36.1897 Y14.6046
G01 X34.7134 Y14.6046
G01 X34.7010 Y14.6040
G01 X34.6887 Y14.6022
G01 X34.6766 Y14.5991
G01 X34.6649 Y14.5949
G01 X34.6536 Y14.5896
G01 X34.6430 Y14.5832
G01 X34.6330 Y14.5758
G01 X34.6237 Y14.5675
G01 X34.6154 Y14.5582
G01 X34.6080 Y14.5482
G01 X34.6016 Y14.5376
G01 X34.5963 Y14.5263
G01 X34.5921 Y14.5146
G01 X34.5890 Y14.5025
G01 X34.5872 Y14.4902
G01 X34.5866 Y14.4778
G00 Z2.0000
G00 X34.5866 Y13.8278
G01 F60.00
G01 Z-0.1000
G01 F120.00
G01 X34.5866 Y13.4722
G01 X34.5872 Y13.4598
G01 X34.5890 Y13.4475
G01 X34.5912 Y13.4384
G01 X34.5940 Y13.4295
G01 X34.5975 Y13.4208
G01 X34.6016 Y13.4124
G01 X34.6063 Y13.4044
G01 X34.6116 Y13.3967
G01 X34.6174 Y13.3894
G01 X34.6237 Y13.3825
G01 X34.6306 Y13.3762
G01 X34.6379 Y13.3704
G01 X34.6456 Y13.3651
G01 X34.6536 Y13.3604
G01 X34.6620 Y13.3563
G01 X34.6707 Y13.3528
G01 X34.6856 Y13.3485
G01 X34.6979 Y13.3464
G01 X34.7134 Y13.3454
G01 X36.1928 Y13.3456
G01 X36.2021 Y13.3464
G01 X36.2144 Y13.3485
G01 X36.2234 Y13.3509
G01 X36.2322 Y13.3539
G01 X36.2408 Y13.3576
G01 X36.2491 Y13.3619
G01 X36.2596 Y13.3685
G01 X36.2670 Y13.3742
G01 X36.2763 Y13.3825
G01 X36.2826 Y13.3894
G01 X36.2884 Y13.3967
G01 X36.2954 Y13.4070
G01 X36.2999 Y13.4152
G01 X36.3037 Y13.4237
G01 X36.3070 Y13.4324
G01 X36.3103 Y13.4444
G01 X36.3124 Y13.4567
G01 X36.3134 Y13.4722
G01 X36.3134 Y13.8278
G01 X36.3128 Y13.8402
G01 X36.3110 Y13.8525
G01 X36.3088 Y13.8616
G01 X36.3060 Y13.8705
G01 X36.3025 Y13.8792
G01 X36.2984 Y13.8876
G01 X36.2937 Y13.8956
G01 X36.2884 Y13.9033
G01 X36.2826 Y13.9106
G01 X36.2763 Y13.9175
G01 X36.2646 Y13.9278
G01 X36.2570 Y13.9332
G01 X36.2491 Y13.9381
G01 X36.2408 Y13.9424
G01 X36.2322 Y13.9461
G01 X36.2234 Y13.9491
G01 X36.2144 Y13.9515
G01 X36.1990 Y13.9540
G01 X36.1866 Y13.9546
G01 X34.7134 Y13.9546
G01 X34.7041 Y13.9543
G01 X34.6917 Y13.9527
G01 X34.6796 Y13.9500
G01 X34.6678 Y13.9461
G01 X34.6592 Y13.9424
G01 X34.6482 Y13.9366
G01 X34.6379 Y13.9296
G01 X34.6306 Y13.9238
G01 X34.6216 Y13.9152
G01 X34.6134 Y13.9058
G01 X34.6063 Y13.8956
G01 X34.6001 Y13.8848
G01 X34.5963 Y13.8763
G01 X34.5921 Y13.8646
G01 X34.5890 Y13.8525
G01 X34.5872 Y13.8402
G01 X34.5866 Y13.8278
G00 Z2.0000
G00 X34.5866 Y15.1278
G01 F60.00
G01 Z-0.1000
G01 F120.00
G01 X34.5866 Y14.7722
G01 X34.5872 Y14.7598
G01 X34.5890 Y14.7475
G01 X34.5912 Y14.7384
G01 X34.5940 Y14.7295
G01 X34.5975 Y14.7208
G01 X34.6016 Y14.7124
G01 X34.6063 Y14.7044
G01 X34.6116 Y14.6967
G01 X34.6174 Y14.6894
G01 X34.6237 Y14.6825
G01 X34.6306 Y14.6762
G01 X34.6379 Y14.6704
G01 X34.6456 Y14.6651
G01 X34.6536 Y14.6604
G01 X34.6620 Y14.6563
G01 X34.6707 Y14.6528
G01 X34.6856 Y14.6485
G01 X34.6979 Y14.6464
G01 X34.7134 Y14.6454
G01 X36.1928 Y14.6456
G01 X36.2021 Y14.6464
G01 X36.2144 Y14.6485
G01 X36.2234 Y14.6509
G01 X36.2322 Y14.6539
G01 X36.2408 Y14.6576
G01 X36.2491 Y14.6619
G01 X36.2596 Y14.6685
G01 X36.2670 Y14.6742
G01 X36.2763 Y14.6825
G01 X36.2826 Y14.6894
G01 X36.2884 Y14.6967
G01 X36.2954 Y14.7070
G01 X36.2999 Y14.7152
G01 X36.3037 Y14.7237
G01 X36.3070 Y14.7324
G01 X36.3103 Y14.7444
G01 X36.3124 Y14.7567
G01 X36.3134 Y14.7722
G01 X36.3134 Y15.1278
G01 X36.3128 Y15.1402
G01 X36.3110 Y15.1525
G01 X36.3088 Y15.1616
G01 X36.3060 Y15.1705
G01 X36.3025 Y15.1792
G01 X36.2984 Y15.1876
G01 X36.2937 Y15.1956
G01 X36.2884 Y15.2033
G01 X36.2826 Y15.2106
G01 X36.2763 Y15.2175
G01 X36.2646 Y15.2278
G01 X36.2570 Y15.2332
G01 X36.2491 Y15.2381
G01 X36.2408 Y15.2424
G01 X36.2322 Y15.2461
G01 X36.2234 Y15.2491
G01 X36.2144 Y15.2515
G01 X36.1990 Y15.2540
G01 X36.1866 Y15.2546
G01 X34.7134 Y15.2546
G01 X34.7041 Y15.2543
G01 X34.6917 Y15.2527
G01 X34.6796 Y15.2500
G01 X34.6678 Y15.2461
G01 X34.6592 Y15.2424
G01 X34.6482 Y15.2366
G01 X34.6379 Y15.2296
G01 X34.6306 Y15.2238
G01 X34.6216 Y15.2152
G01 X34.6134 Y15.2058
G01 X34.6063 Y15.1956
G01 X34.6001 Y15.1848
G01 X34.5963 Y15.1763
G01 X34.5921 Y15.1646
G01 X34.5890 Y15.1525
G01 X34.5872 Y15.1402
G01 X34.5866 Y15.1278
G00 Z2.0000
G00 X34.5866 Y15.7778
G01 F60.00
G01 Z-0.1000
G01 F120.00
G01 X34.5866 Y15.4222
G01 X34.5872 Y15.4098
G01 X34.5890 Y15.3975
G01 X34.5912 Y15.3884
G01 X34.5940 Y15.3795
G01 X34.6001 Y15.3652
G01 X34.6080 Y15.3518
G01 X34.6134 Y15.3442
G01 X34.6194 Y15.3370
G01 X34.6260 Y15.3304
G01 X34.6330 Y15.3242
G01 X34.6456 Y15.3151
G01 X34.6536 Y15.3104
G01 X34.6620 Y15.3063
G01 X34.6766 Y15.3009
G01 X34.6856 Y15.2985
G01 X34.6948 Y15.2968
G01 X34.7041 Y15.2957
G01 X34.7134 Y15.2954
G01 X36.1866 Y15.2954
G01 X36.1959 Y15.2957
G01 X36.2052 Y15.2968
G01 X36.2144 Y15.2985
G01 X36.2234 Y15.3009
G01 X36.2380 Y15.3063
G01 X36.2464 Y15.3104
G01 X36.2544 Y15.3151
G01 X36.2670 Y15.3242
G01 X36.2740 Y15.3304
G01 X36.2806 Y15.3370
G01 X36.2903 Y15.3492
G01 X36.2954 Y15.3570
G01 X36.2999 Y15.3652
G01 X36.3037 Y15.3737
G01 X36.3070 Y15.3824
G01 X36.3096 Y15.3914
G01 X36.3115 Y15.4005
G01 X36.3131 Y15.4129
G01 X36.3134 Y15.4222
G01 X36.3134 Y15.7778
G01 X36.3128 Y15.7902
G01 X36.3110 Y15.8025
G01 X36.3079 Y15.8146
G01 X36.3025 Y15.8292
G01 X36.2954 Y15.8430
G01 X36.2866 Y15.8558
G01 X36.2784 Y15.8652
G01 X36.2670 Y15.8758
G01 X36.2544 Y15.8849
G01 X36.2436 Y15.8911
G01 X36.2351 Y15.8949
G01 X36.2234 Y15.8991
G01 X36.2113 Y15.9022
G01 X36.1990 Y15.9040
G01 X36.1866 Y15.9046
G01 X36.1108 Y15.9046
G01 X36.5703 Y16.3641
G01 X38.0992 Y16.3641
G01 X38.0992 Y15.9660
G01 X38.1006 Y15.9353
G01 X38.1018 Y15.9229
G01 X38.1071 Y15.8894
G01 X38.1154 Y15.8566
G01 X38.1267 Y15.8247
G01 X38.1304 Y15.8161
G01 X38.1437 Y15.7884
G01 X38.1594 Y15.7619
G01 X38.1663 Y15.7516
G01 X38.1847 Y15.7270
G01 X38.2053 Y15.7041
G01 X38.2141 Y15.6953
G01 X38.2370 Y15.6747
G01 X38.2667 Y15.6527
G01 X38.2930 Y15.6368
G01 X38.3039 Y15.6309
G01 X38.3318 Y15.6179
G01 X38.3607 Y15.6074
G01 X38.3726 Y15.6038
G01 X38.4025 Y15.5964
G01 X38.4391 Y15.5910
G01 X38.4760 Y15.5892
G01 X39.1260 Y15.5892
G01 X39.1629 Y15.5910
G01 X39.1995 Y15.5964
G01 X39.2354 Y15.6054
G01 X39.2644 Y15.6156
G01 X39.2759 Y15.6204
G01 X39.3036 Y15.6337
G01 X39.3301 Y15.6494
G01 X39.3379 Y15.6545
G01 X39.3601 Y15.6709
G01 X39.3698 Y15.6788
G01 X39.3924 Y15.6996
G01 X39.4173 Y15.7270
G01 X39.4393 Y15.7567
G01 X39.4552 Y15.7830
G01 X39.4611 Y15.7939
G01 X39.4729 Y15.8189
G01 X39.4764 Y15.8276
G01 X39.4866 Y15.8566
G01 X39.4942 Y15.8864
G01 X39.4961 Y15.8955
G01 X39.5006 Y15.9260
G01 X39.5014 Y15.9353
G01 X39.5028 Y15.9629
G01 X39.5028 Y17.2691
G01 X39.5010 Y17.3029
G01 X39.4956 Y17.3395
G01 X39.4866 Y17.3754
G01 X39.4764 Y17.4044
G01 X39.4729 Y17.4131
G01 X39.4611 Y17.4381
G01 X39.4552 Y17.4490
G01 X39.4393 Y17.4753
G01 X39.4173 Y17.5050
G01 X39.3924 Y17.5324
G01 X39.3650 Y17.5573
G01 X39.3353 Y17.5793
G01 X39.3090 Y17.5952
G01 X39.2981 Y17.6011
G01 X39.2731 Y17.6129
G01 X39.2644 Y17.6164
G01 X39.2354 Y17.6266
G01 X39.2056 Y17.6342
G01 X39.1965 Y17.6361
G01 X39.1660 Y17.6406
G01 X39.1567 Y17.6414
G01 X39.1291 Y17.6428
G01 X38.4760 Y17.6428
G01 X38.4391 Y17.6410
G01 X38.4025 Y17.6356
G01 X38.3726 Y17.6282
G01 X38.3607 Y17.6246
G01 X38.3289 Y17.6129
G01 X38.2984 Y17.5983
G01 X38.2693 Y17.5810
G01 X38.2616 Y17.5757
G01 X38.2394 Y17.5592
G01 X38.2258 Y17.5474
G01 X36.9719 Y18.8013
G01 X36.9719 Y20.2112
G01 X37.5700 Y20.2112
G01 X37.5793 Y20.2115
G01 X37.5886 Y20.2126
G01 X37.5978 Y20.2143
G01 X37.6068 Y20.2167
G01 X37.6156 Y20.2197
G01 X37.6242 Y20.2234
G01 X37.6352 Y20.2292
G01 X37.6430 Y20.2343
G01 X37.6504 Y20.2400
G01 X37.6574 Y20.2462
G01 X37.6640 Y20.2528
G01 X37.6700 Y20.2600
G01 X37.6754 Y20.2676
G01 X37.6803 Y20.2755
G01 X37.6859 Y20.2866
G01 X37.6894 Y20.2953
G01 X37.6922 Y20.3042
G01 X37.6944 Y20.3133
G01 X37.6962 Y20.3256
G01 X37.6968 Y20.3380
G01 X37.6966 Y22.0442
G01 X37.6949 Y22.0597
G01 X37.6930 Y22.0688
G01 X37.6904 Y22.0778
G01 X37.6846 Y22.0922
G01 X37.6803 Y22.1005
G01 X37.6754 Y22.1084
G01 X37.6700 Y22.1160
G01 X37.6640 Y22.1232
G01 X37.6528 Y22.1340
G01 X37.6404 Y22.1434
G01 X37.6325 Y22.1483
G01 X37.6242 Y22.1526
G01 X37.6098 Y22.1584
G01 X37.5978 Y22.1617
G01 X37.5855 Y22.1638
G01 X37.5700 Y22.1648
G01 X35.8669 Y22.1648
G01 X35.8545 Y22.1638
G01 X35.8422 Y22.1617
G01 X35.8332 Y22.1593
G01 X35.8215 Y22.1551
G01 X35.8102 Y22.1498
G01 X35.7996 Y22.1434
G01 X35.7896 Y22.1360
G01 X35.7826 Y22.1298
G01 X35.7740 Y22.1208
G01 X35.7663 Y22.1110
G01 X35.7597 Y22.1005
G01 X35.7541 Y22.0894
G01 X35.7496 Y22.0778
G01 X35.7463 Y22.0658
G01 X35.7442 Y22.0535
G01 X35.7432 Y22.0411
G01 X35.7432 Y20.3380
G01 X35.7438 Y20.3256
G01 X35.7456 Y20.3133
G01 X35.7478 Y20.3042
G01 X35.7506 Y20.2953
G01 X35.7541 Y20.2866
G01 X35.7597 Y20.2755
G01 X35.7646 Y20.2676
G01 X35.7720 Y20.2576
G01 X35.7782 Y20.2506
G01 X35.7848 Y20.2440
G01 X35.7920 Y20.2380
G01 X35.7996 Y20.2326
G01 X35.8102 Y20.2262
G01 X35.8186 Y20.2221
G01 X35.8302 Y20.2176
G01 X35.8392 Y20.2150
G01 X35.8514 Y20.2126
G01 X35.8607 Y20.2115
G01 X35.8700 Y20.2112
G01 X36.4681 Y20.2112
G01 X36.4682 Y18.6939
G01 X36.4697 Y18.6692
G01 X36.4724 Y18.6509
G01 X36.4743 Y18.6418
G01 X36.4781 Y18.6269
G01 X36.4809 Y18.6180
G01 X36.4873 Y18.6006
G01 X36.4951 Y18.5838
G01 X36.5009 Y18.5729
G01 X36.5123 Y18.5545
G01 X36.5253 Y18.5372
G01 X36.5419 Y18.5189
G01 X38.0992 Y16.9616
G01 X38.0992 Y16.8679
G01 X36.4660 Y16.8679
G01 X36.4444 Y16.8669
G01 X36.4351 Y16.8659
G01 X36.4169 Y16.8630
G01 X36.3929 Y16.8570
G01 X36.3754 Y16.8509
G01 X36.3668 Y16.8475
G01 X36.3500 Y16.8396
G01 X36.3419 Y16.8351
G01 X36.3261 Y16.8254
G01 X36.3111 Y16.8145
G01 X36.3038 Y16.8087
G01 X36.2901 Y16.7963
G01 X35.3984 Y15.9046
G01 X34.7134 Y15.9046
G01 X34.7041 Y15.9043
G01 X34.6948 Y15.9032
G01 X34.6826 Y15.9008
G01 X34.6736 Y15.8982
G01 X34.6620 Y15.8937
G01 X34.6509 Y15.8881
G01 X34.6430 Y15.8832
G01 X34.6330 Y15.8758
G01 X34.6260 Y15.8696
G01 X34.6174 Y15.8606
G01 X34.6097 Y15.8508
G01 X34.6046 Y15.8430
G01 X34.5988 Y15.8320
G01 X34.5951 Y15.8234
G01 X34.5921 Y15.8146
G01 X34.5890 Y15.8025
G01 X34.5872 Y15.7902
G01 X34.5866 Y15.7778
G00 Z2.0000
G00 X37.4600 Y17.2780
G01 F60.00
G01 Z-0.1000
G01 F120.00
G01 X37.4560 Y17.2532
G01 X37.4499 Y17.2274
G01 X37.4419 Y17.2022
G01 X37.4355 Y17.1858
G01 X37.4245 Y17.1618
G01 X37.4117 Y17.1386
G01 X37.3971 Y17.1165
G01 X37.3820 Y17.0961
G01 X37.6419 Y17.0961
G01 X37.4600 Y17.2780
G00 Z2.0000
G00 X47.3820 Y16.6070
G01 F60.00
G01 Z-0.1000
G01 F120.00
G01 X47.3670 Y16.6191
G01 X47.3539 Y16.6308
G01 X47.3030 Y16.6787
G01 X47.2905 Y16.6911
G01 X47.2786 Y16.7041
G01 X47.2673 Y16.7177
G01 X47.2568 Y16.7318
G01 X47.2469 Y16.7464
G01 X47.2335 Y16.7693
G01 X47.2256 Y16.7850
G01 X47.2184 Y16.8011
G01 X47.2121 Y16.8175
G01 X47.2041 Y16.8428
G01 X47.1862 Y16.9139
G01 X46.7084 Y16.4361
G01 X46.7084 Y16.2851
G01 X47.1694 Y16.2851
G01 X47.1726 Y16.2973
G01 X47.1776 Y16.3139
G01 X47.1918 Y16.3534
G01 X47.1984 Y16.3695
G01 X47.2126 Y16.3996
G01 X47.2204 Y16.4152
G01 X47.2290 Y16.4304
G01 X47.2416 Y16.4514
G01 X47.2509 Y16.4661
G01 X47.2610 Y16.4804
G01 X47.2756 Y16.5001
G01 X47.2863 Y16.5138
G01 X47.2977 Y16.5270
G01 X47.3201 Y16.5516
G01 X47.3324 Y16.5639
G01 X47.3570 Y16.5863
G01 X47.3702 Y16.5977
G01 X47.3820 Y16.6070
G00 Z2.0000
M05
G00 Z2.0000
G00 Z15.00


