(G-CODE GENERATED BY FLATCAM v8.994 - www.flatcam.org - Version Date: 2020/11/7)

(Name: Current Sense Standalone-Edge_Cuts.gm1_cutout_cnc)
(Type: G-code from Geometry)
(Units: MM)

(Created on Tuesday, 29 August 2023 at 13:52)

(This preprocessor is the default preprocessor used by FlatCAM.)
(It is made to work with MACH3 compatible motion controllers.)

(TOOL DIAMETER: 0.7937 mm)
(Feedrate_XY: 120.0 mm/min)
(Feedrate_Z: 60.0 mm/min)
(Feedrate rapids 1500.0 mm/min)

(Z_Cut: -2.4 mm)
(Z_Move: 2.0 mm)
(Z Start: None mm)
(Z End: 15.0 mm)
(X,Y End: None mm)
(Steps per circle: 64)
(Preprocessor Geometry: default)

(X range:   -1.3907 ...   64.9269  mm)
(Y range:   -1.0234 ...   27.2969  mm)

(Spindle Speed: 0.0 RPM)
G21
G90
G94

G01 F120.00

M5
G00 Z15.0000
G00 X0.0000 Y0.0000
T3M6    
(MSG, Change to Tool Dia = 0.7937)
M0
G00 Z15.0000

M03
G01 F120.00
G00 X-1.3907 Y13.2399
G01 F60.00
G01 Z-2.4000
G01 F120.00
G01 X-1.3907 Y0.9735
G01 X-1.3880 Y0.8706
G01 X-1.3697 Y0.6854
G01 X-1.3683 Y0.6757
G01 X-1.3320 Y0.4931
G01 X-1.3296 Y0.4836
G01 X-1.2756 Y0.3054
G01 X-1.2722 Y0.2962
G01 X-1.2010 Y0.1242
G01 X-1.1968 Y0.1154
G01 X-1.1091 Y-0.0488
G01 X-1.1040 Y-0.0572
G01 X-1.0006 Y-0.2120
G01 X-0.9948 Y-0.2199
G01 X-0.8767 Y-0.3638
G01 X-0.8701 Y-0.3711
G01 X-0.7384 Y-0.5027
G01 X-0.7312 Y-0.5093
G01 X-0.5873 Y-0.6274
G01 X-0.5794 Y-0.6332
G01 X-0.4246 Y-0.7366
G01 X-0.4162 Y-0.7417
G01 X-0.2520 Y-0.8294
G01 X-0.2431 Y-0.8336
G01 X-0.0712 Y-0.9049
G01 X-0.0619 Y-0.9082
G01 X0.1162 Y-0.9622
G01 X0.1257 Y-0.9646
G01 X0.3083 Y-1.0009
G01 X0.3180 Y-1.0024
G01 X0.5033 Y-1.0206
G01 X0.6062 Y-1.0234
G01 X31.8712 Y-1.0234
G00 Z2.0000
G00 X-1.3907 Y16.0336
G01 F60.00
G01 Z-2.4000
G01 F120.00
G01 X-1.3907 Y25.3000
G01 X-1.3880 Y25.4029
G01 X-1.3697 Y25.5881
G01 X-1.3683 Y25.5978
G01 X-1.3320 Y25.7804
G01 X-1.3296 Y25.7899
G01 X-1.2756 Y25.9681
G01 X-1.2722 Y25.9773
G01 X-1.2010 Y26.1493
G01 X-1.1968 Y26.1582
G01 X-1.1091 Y26.3223
G01 X-1.1040 Y26.3308
G01 X-1.0006 Y26.4855
G01 X-0.9948 Y26.4934
G01 X-0.8767 Y26.6373
G01 X-0.8701 Y26.6446
G01 X-0.7384 Y26.7762
G01 X-0.7312 Y26.7828
G01 X-0.5873 Y26.9009
G01 X-0.5794 Y26.9068
G01 X-0.4246 Y27.0102
G01 X-0.4162 Y27.0152
G01 X-0.2520 Y27.1030
G01 X-0.2431 Y27.1072
G01 X-0.0712 Y27.1784
G01 X-0.0619 Y27.1817
G01 X0.1162 Y27.2357
G01 X0.1257 Y27.2381
G01 X0.3083 Y27.2744
G01 X0.3180 Y27.2759
G01 X0.5033 Y27.2941
G01 X0.6062 Y27.2969
G01 X31.8712 Y27.2969
G00 Z2.0000
G00 X34.6649 Y27.2969
G01 F60.00
G01 Z-2.4000
G01 F120.00
G01 X62.9300 Y27.2969
G01 X63.0329 Y27.2941
G01 X63.2181 Y27.2759
G01 X63.2278 Y27.2744
G01 X63.4104 Y27.2381
G01 X63.4199 Y27.2357
G01 X63.5981 Y27.1817
G01 X63.6073 Y27.1784
G01 X63.7793 Y27.1072
G01 X63.7882 Y27.1030
G01 X63.9523 Y27.0152
G01 X63.9608 Y27.0102
G01 X64.1155 Y26.9068
G01 X64.1234 Y26.9009
G01 X64.2673 Y26.7828
G01 X64.2746 Y26.7762
G01 X64.4062 Y26.6446
G01 X64.4128 Y26.6373
G01 X64.5309 Y26.4934
G01 X64.5368 Y26.4855
G01 X64.6402 Y26.3308
G01 X64.6452 Y26.3223
G01 X64.7330 Y26.1582
G01 X64.7372 Y26.1493
G01 X64.8084 Y25.9773
G01 X64.8117 Y25.9681
G01 X64.8657 Y25.7899
G01 X64.8681 Y25.7804
G01 X64.9044 Y25.5978
G01 X64.9059 Y25.5881
G01 X64.9241 Y25.4029
G01 X64.9269 Y25.3000
G01 X64.9269 Y16.0336
G00 Z2.0000
G00 X64.9269 Y13.2399
G01 F60.00
G01 Z-2.4000
G01 F120.00
G01 X64.9269 Y0.9735
G01 X64.9241 Y0.8706
G01 X64.9059 Y0.6854
G01 X64.9044 Y0.6757
G01 X64.8681 Y0.4931
G01 X64.8657 Y0.4836
G01 X64.8117 Y0.3054
G01 X64.8084 Y0.2962
G01 X64.7372 Y0.1242
G01 X64.7330 Y0.1154
G01 X64.6452 Y-0.0488
G01 X64.6402 Y-0.0572
G01 X64.5368 Y-0.2120
G01 X64.5309 Y-0.2199
G01 X64.4128 Y-0.3638
G01 X64.4062 Y-0.3711
G01 X64.2746 Y-0.5027
G01 X64.2673 Y-0.5093
G01 X64.1234 Y-0.6274
G01 X64.1155 Y-0.6332
G01 X63.9608 Y-0.7366
G01 X63.9523 Y-0.7417
G01 X63.7882 Y-0.8294
G01 X63.7793 Y-0.8336
G01 X63.6073 Y-0.9049
G01 X63.5981 Y-0.9082
G01 X63.4199 Y-0.9622
G01 X63.4104 Y-0.9646
G01 X63.2278 Y-1.0009
G01 X63.2181 Y-1.0024
G01 X63.0329 Y-1.0206
G01 X62.9300 Y-1.0234
G01 X34.6649 Y-1.0234
G00 Z2.0000
M05
G00 Z2.0000
G00 Z15.00


