(G-CODE GENERATED BY FLATCAM v8.991 - www.flatcam.org - Version Date: 2019/12/27)

(Name: Current Sense Standalone-F_Cu.gtl_iso_cnc)
(Type: G-code from Geometry)
(Units: MM)

(Created on Wednesday, 06 September 2023 at 17:06)

(TOOL DIAMETER: 0.2536 mm)
(Feedrate: 120.0 mm/min)
(Feedrate_Z: 60.0 mm/min)
(Feedrate rapids 1500.0 mm/min)

(Z_Cut: -0.1 mm)
(Z_Move: 2.0 mm)
(Z Toolchange: 15.0 mm)
(X,Y Toolchange: 0.0000, 0.0000 mm)
(Z Start: None mm)
(Z End: 5.0 mm)
(Steps per circle: 64)
(Preprocessor Geometry: default)

(X range:    0.2360 ...  101.8253  mm)
(Y range:    0.5147 ...   74.9653  mm)

(Spindle Speed: None RPM)
G21
G90
G94




G01 F120.00
G00 Z2.0000

M03
G00 X5.5813 Y39.1508
G01 F60.00
G01 Z-0.1000
G01 F120.00
G01 X5.5914 Y39.0569
G01 X5.5997 Y39.0186
G01 X5.6267 Y38.9377
G01 X5.6909 Y38.8376
G01 X5.7248 Y38.7985
G01 X5.8129 Y38.7222
G01 X5.9190 Y38.6738
G01 X5.9686 Y38.6592
G01 X6.0931 Y38.6413
G01 X21.9928 Y38.6413
G01 X22.0401 Y38.6438
G01 X22.0597 Y38.6459
G01 X22.0873 Y38.6504
G01 X22.2010 Y38.6789
G01 X22.2132 Y38.6813
G01 X22.3588 Y38.7029
G01 X22.3712 Y38.7041
G01 X22.5245 Y38.7115
G01 X25.5245 Y38.7115
G01 X25.6777 Y38.7041
G01 X25.6901 Y38.7029
G01 X25.8357 Y38.6813
G01 X25.8479 Y38.6789
G01 X25.9616 Y38.6504
G01 X25.9892 Y38.6459
G01 X26.0088 Y38.6438
G01 X26.0561 Y38.6413
G01 X42.4955 Y38.6413
G01 X42.5076 Y38.6407
G01 X42.5195 Y38.6390
G01 X42.5312 Y38.6362
G01 X42.5983 Y38.6165
G01 X42.6097 Y38.6125
G01 X42.6206 Y38.6075
G01 X42.6311 Y38.6015
G01 X42.6409 Y38.5945
G01 X42.6500 Y38.5866
G01 X42.6584 Y38.5779
G01 X42.7041 Y38.5250
G01 X42.7119 Y38.5151
G01 X42.7187 Y38.5044
G01 X42.7244 Y38.4930
G01 X42.7289 Y38.4812
G01 X42.7322 Y38.4690
G01 X42.7434 Y38.4175
G01 X42.7456 Y38.4041
G01 X42.7463 Y38.3905
G01 X42.7463 Y37.4739
G01 X42.7450 Y37.4494
G01 X42.7422 Y37.4264
G01 X42.7585 Y37.3027
G01 X42.8062 Y37.1875
G01 X42.8822 Y37.0886
G01 X42.9004 Y37.0742
G01 X42.9186 Y37.0579
G01 X46.0129 Y33.9636
G01 X46.0292 Y33.9454
G01 X46.0436 Y33.9272
G01 X46.1096 Y33.8765
G01 X46.1188 Y33.8687
G01 X46.1272 Y33.8601
G01 X46.1348 Y33.8507
G01 X46.1760 Y33.7942
G01 X46.1824 Y33.7846
G01 X46.1879 Y33.7743
G01 X46.1924 Y33.7636
G01 X46.1960 Y33.7526
G01 X46.1985 Y33.7412
G01 X46.2058 Y33.6993
G01 X46.2072 Y33.6884
G01 X46.2077 Y33.6775
G01 X46.2077 Y33.3961
G01 X46.2117 Y33.3591
G01 X46.2500 Y33.2563
G01 X46.3144 Y33.1702
G01 X46.4005 Y33.1058
G01 X46.4546 Y33.0856
G01 X46.4546 Y33.1428
G01 X46.4552 Y33.1552
G01 X46.4570 Y33.1675
G01 X46.4601 Y33.1796
G01 X46.4643 Y33.1913
G01 X46.4696 Y33.2026
G01 X46.4760 Y33.2132
G01 X46.4834 Y33.2232
G01 X46.4917 Y33.2325
G01 X46.5010 Y33.2408
G01 X46.5110 Y33.2482
G01 X46.5216 Y33.2546
G01 X46.5329 Y33.2599
G01 X46.5446 Y33.2641
G01 X46.5567 Y33.2672
G01 X46.5690 Y33.2690
G01 X46.5814 Y33.2696
G01 X48.0546 Y33.2696
G01 X48.0670 Y33.2690
G01 X48.0793 Y33.2672
G01 X48.0914 Y33.2641
G01 X48.1031 Y33.2599
G01 X48.1144 Y33.2546
G01 X48.1250 Y33.2482
G01 X48.1350 Y33.2408
G01 X48.1443 Y33.2325
G01 X48.1526 Y33.2232
G01 X48.1600 Y33.2132
G01 X48.1664 Y33.2026
G01 X48.1717 Y33.1913
G01 X48.1759 Y33.1796
G01 X48.1790 Y33.1675
G01 X48.1808 Y33.1552
G01 X48.1814 Y33.1428
G01 X48.1814 Y33.0856
G01 X48.2355 Y33.1058
G01 X48.3216 Y33.1702
G01 X48.3860 Y33.2563
G01 X48.4243 Y33.3591
G01 X48.4283 Y33.3961
G01 X48.4283 Y33.8339
G01 X48.4210 Y33.9022
G01 X48.4202 Y33.9146
G01 X48.4207 Y33.9271
G01 X48.4186 Y33.9573
G01 X48.4183 Y33.9686
G01 X48.4190 Y33.9799
G01 X48.4207 Y33.9911
G01 X48.4237 Y34.0030
G01 X48.4283 Y34.0461
G01 X48.4283 Y34.4839
G01 X48.4210 Y34.5522
G01 X48.4202 Y34.5646
G01 X48.4207 Y34.5771
G01 X48.4186 Y34.6073
G01 X48.4183 Y34.6186
G01 X48.4190 Y34.6299
G01 X48.4207 Y34.6411
G01 X48.4237 Y34.6530
G01 X48.4283 Y34.6961
G01 X48.4283 Y35.1339
G01 X48.4210 Y35.2022
G01 X48.4202 Y35.2146
G01 X48.4209 Y35.2285
G01 X48.4189 Y35.2563
G01 X48.4187 Y35.2684
G01 X48.4195 Y35.2804
G01 X48.4215 Y35.2923
G01 X48.4246 Y35.3039
G01 X48.4289 Y35.3153
G01 X48.4341 Y35.3261
G01 X48.4676 Y35.3874
G01 X48.4739 Y35.3977
G01 X48.4811 Y35.4074
G01 X48.4892 Y35.4163
G01 X51.6408 Y38.5678
G01 X51.6497 Y38.5760
G01 X51.6593 Y38.5832
G01 X51.6696 Y38.5895
G01 X51.7310 Y38.6230
G01 X51.7422 Y38.6284
G01 X51.7539 Y38.6327
G01 X51.7659 Y38.6358
G01 X51.7782 Y38.6377
G01 X51.8045 Y38.6406
G01 X51.8181 Y38.6413
G01 X68.7407 Y38.6413
G01 X68.7880 Y38.6438
G01 X68.8167 Y38.6469
G01 X68.8399 Y38.6486
G01 X68.8934 Y38.6565
G01 X68.9057 Y38.6577
G01 X69.0590 Y38.6651
G01 X72.0590 Y38.6651
G01 X72.2122 Y38.6577
G01 X72.2246 Y38.6565
G01 X72.2781 Y38.6486
G01 X72.3013 Y38.6469
G01 X72.3300 Y38.6438
G01 X72.3773 Y38.6413
G01 X96.2092 Y38.6413
G01 X96.3031 Y38.6514
G01 X96.3414 Y38.6597
G01 X96.4223 Y38.6867
G01 X96.5224 Y38.7509
G01 X96.5615 Y38.7848
G01 X96.6378 Y38.8729
G01 X96.6862 Y38.9790
G01 X96.7008 Y39.0286
G01 X96.7187 Y39.1531
G01 X96.7187 Y69.3692
G01 X96.7086 Y69.4631
G01 X96.7003 Y69.5014
G01 X96.6733 Y69.5823
G01 X96.6091 Y69.6824
G01 X96.5752 Y69.7215
G01 X96.4871 Y69.7978
G01 X96.3810 Y69.8462
G01 X96.3314 Y69.8608
G01 X96.2069 Y69.8787
G01 X50.7508 Y69.8787
G01 X50.6569 Y69.8686
G01 X50.6186 Y69.8603
G01 X50.5377 Y69.8333
G01 X50.4376 Y69.7691
G01 X50.3985 Y69.7352
G01 X50.3222 Y69.6471
G01 X50.2738 Y69.5410
G01 X50.2592 Y69.4914
G01 X50.2413 Y69.3669
G01 X50.2413 Y39.1508
G01 X50.2514 Y39.0569
G01 X50.2597 Y39.0186
G01 X50.2867 Y38.9377
G01 X50.3277 Y38.8739
G01 X50.3337 Y38.8634
G01 X50.3387 Y38.8524
G01 X50.3427 Y38.8410
G01 X50.3623 Y38.7740
G01 X50.3652 Y38.7623
G01 X50.3669 Y38.7503
G01 X50.3675 Y38.7383
G01 X50.3669 Y38.7262
G01 X50.3652 Y38.7143
G01 X50.3623 Y38.7026
G01 X50.3427 Y38.6355
G01 X50.3386 Y38.6238
G01 X50.3333 Y38.6125
G01 X50.3270 Y38.6017
G01 X50.3197 Y38.5917
G01 X50.3031 Y38.5710
G01 X50.2940 Y38.5609
G01 X47.2730 Y35.5400
G01 X47.2641 Y35.5318
G01 X47.2545 Y35.5246
G01 X47.2442 Y35.5183
G01 X47.1828 Y35.4848
G01 X47.1716 Y35.4794
G01 X47.1599 Y35.4751
G01 X47.1479 Y35.4720
G01 X47.1356 Y35.4701
G01 X47.1093 Y35.4672
G01 X47.0957 Y35.4665
G01 X46.5403 Y35.4665
G01 X46.5033 Y35.4625
G01 X46.4005 Y35.4242
G01 X46.2856 Y35.3382
G01 X46.2753 Y35.3312
G01 X46.2643 Y35.3253
G01 X46.2569 Y35.3222
G01 X46.2432 Y35.3126
G01 X46.2326 Y35.3068
G01 X46.2215 Y35.3021
G01 X46.2100 Y35.2984
G01 X46.1982 Y35.2959
G01 X46.1863 Y35.2944
G01 X46.1166 Y35.2895
G01 X46.1045 Y35.2892
G01 X46.0925 Y35.2900
G01 X46.0806 Y35.2920
G01 X46.0689 Y35.2952
G01 X46.0576 Y35.2994
G01 X46.0468 Y35.3046
G01 X45.9854 Y35.3381
G01 X45.9751 Y35.3444
G01 X45.9655 Y35.3516
G01 X45.9566 Y35.3598
G01 X43.7672 Y37.5492
G01 X43.7590 Y37.5581
G01 X43.7518 Y37.5677
G01 X43.7455 Y37.5780
G01 X43.7120 Y37.6394
G01 X43.7066 Y37.6506
G01 X43.7023 Y37.6622
G01 X43.6992 Y37.6743
G01 X43.6973 Y37.6866
G01 X43.6944 Y37.7129
G01 X43.6937 Y37.7265
G01 X43.6937 Y38.3905
G01 X43.6943 Y38.4026
G01 X43.6960 Y38.4145
G01 X43.6988 Y38.4262
G01 X43.7185 Y38.4933
G01 X43.7225 Y38.5047
G01 X43.7275 Y38.5156
G01 X43.7335 Y38.5261
G01 X43.7405 Y38.5359
G01 X43.7484 Y38.5450
G01 X43.7571 Y38.5534
G01 X43.8100 Y38.5991
G01 X43.8199 Y38.6069
G01 X43.8306 Y38.6137
G01 X43.8420 Y38.6194
G01 X43.8538 Y38.6239
G01 X43.8660 Y38.6272
G01 X43.9175 Y38.6384
G01 X43.9309 Y38.6406
G01 X43.9445 Y38.6413
G01 X49.0092 Y38.6413
G01 X49.1031 Y38.6514
G01 X49.1414 Y38.6597
G01 X49.2223 Y38.6867
G01 X49.3224 Y38.7509
G01 X49.3615 Y38.7848
G01 X49.4378 Y38.8729
G01 X49.4862 Y38.9790
G01 X49.5008 Y39.0286
G01 X49.5187 Y39.1531
G01 X49.5187 Y69.3692
G01 X49.5086 Y69.4631
G01 X49.5003 Y69.5014
G01 X49.4733 Y69.5823
G01 X49.4091 Y69.6824
G01 X49.3752 Y69.7215
G01 X49.2871 Y69.7978
G01 X49.1810 Y69.8462
G01 X49.1314 Y69.8608
G01 X49.0069 Y69.8787
G01 X6.0908 Y69.8787
G01 X5.9969 Y69.8686
G01 X5.9586 Y69.8603
G01 X5.8777 Y69.8333
G01 X5.7776 Y69.7691
G01 X5.7385 Y69.7352
G01 X5.6622 Y69.6471
G01 X5.6138 Y69.5410
G01 X5.5992 Y69.4914
G01 X5.5813 Y69.3669
G01 X5.5813 Y39.1508
G00 Z2.0000
G00 X5.8332 Y69.3760
G01 F60.00
G01 Z-0.1000
G01 F120.00
G01 X5.8332 Y39.1440
G01 X5.8339 Y39.1304
G01 X5.8361 Y39.1170
G01 X5.8473 Y39.0655
G01 X5.8506 Y39.0533
G01 X5.8551 Y39.0415
G01 X5.8608 Y39.0301
G01 X5.8676 Y39.0194
G01 X5.8754 Y39.0095
G01 X5.9211 Y38.9566
G01 X5.9295 Y38.9479
G01 X5.9386 Y38.9400
G01 X5.9484 Y38.9330
G01 X5.9589 Y38.9270
G01 X5.9698 Y38.9220
G01 X5.9812 Y38.9180
G01 X6.0483 Y38.8983
G01 X6.0600 Y38.8955
G01 X6.0719 Y38.8938
G01 X6.0840 Y38.8932
G01 X21.9962 Y38.8932
G01 X22.0098 Y38.8939
G01 X22.0361 Y38.8968
G01 X22.0495 Y38.8989
G01 X22.2571 Y38.9441
G01 X22.4575 Y38.9584
G01 X25.5914 Y38.9584
G01 X25.7918 Y38.9441
G01 X25.9994 Y38.8989
G01 X26.0128 Y38.8968
G01 X26.0391 Y38.8939
G01 X26.0527 Y38.8932
G01 X42.9932 Y38.8932
G01 X42.9933 Y37.4202
G01 X42.9938 Y37.4104
G01 X42.9950 Y37.3980
G01 X42.9964 Y37.3883
G01 X42.9989 Y37.3761
G01 X43.0013 Y37.3665
G01 X43.0049 Y37.3546
G01 X43.0082 Y37.3454
G01 X43.0129 Y37.3339
G01 X43.0171 Y37.3250
G01 X43.0230 Y37.3140
G01 X43.0281 Y37.3056
G01 X43.0350 Y37.2953
G01 X43.0408 Y37.2874
G01 X43.0487 Y37.2778
G01 X43.0596 Y37.2660
G01 X46.2255 Y34.1003
G01 X46.2328 Y34.0937
G01 X46.2424 Y34.0858
G01 X46.2503 Y34.0800
G01 X46.2606 Y34.0731
G01 X46.2690 Y34.0680
G01 X46.2800 Y34.0621
G01 X46.2889 Y34.0579
G01 X46.3004 Y34.0532
G01 X46.3096 Y34.0499
G01 X46.3215 Y34.0463
G01 X46.3311 Y34.0439
G01 X46.3433 Y34.0414
G01 X46.3530 Y34.0400
G01 X46.3654 Y34.0388
G01 X46.3814 Y34.0382
G01 X46.4645 Y34.0382
G01 X46.4696 Y34.0274
G01 X46.4760 Y34.0168
G01 X46.4834 Y34.0068
G01 X46.4917 Y33.9975
G01 X46.5010 Y33.9892
G01 X46.5110 Y33.9818
G01 X46.5216 Y33.9754
G01 X46.5329 Y33.9701
G01 X46.5446 Y33.9659
G01 X46.5567 Y33.9628
G01 X46.5690 Y33.9610
G01 X46.5814 Y33.9604
G01 X48.0546 Y33.9604
G01 X48.0670 Y33.9610
G01 X48.0793 Y33.9628
G01 X48.0914 Y33.9659
G01 X48.1031 Y33.9701
G01 X48.1144 Y33.9754
G01 X48.1250 Y33.9818
G01 X48.1350 Y33.9892
G01 X48.1443 Y33.9975
G01 X48.1526 Y34.0068
G01 X48.1600 Y34.0168
G01 X48.1664 Y34.0274
G01 X48.1717 Y34.0387
G01 X48.1759 Y34.0504
G01 X48.1790 Y34.0625
G01 X48.1808 Y34.0748
G01 X48.1814 Y34.0872
G01 X48.1814 Y34.4428
G01 X48.1808 Y34.4552
G01 X48.1790 Y34.4675
G01 X48.1759 Y34.4796
G01 X48.1717 Y34.4913
G01 X48.1664 Y34.5026
G01 X48.1600 Y34.5132
G01 X48.1526 Y34.5232
G01 X48.1443 Y34.5325
G01 X48.1350 Y34.5408
G01 X48.1250 Y34.5482
G01 X48.1144 Y34.5546
G01 X48.1031 Y34.5599
G01 X48.0914 Y34.5641
G01 X48.0793 Y34.5672
G01 X48.0670 Y34.5690
G01 X48.0546 Y34.5696
G01 X46.5814 Y34.5696
G01 X46.5690 Y34.5690
G01 X46.5567 Y34.5672
G01 X46.5446 Y34.5641
G01 X46.5329 Y34.5599
G01 X46.5216 Y34.5546
G01 X46.5110 Y34.5482
G01 X46.5010 Y34.5408
G01 X46.4917 Y34.5325
G01 X46.4834 Y34.5232
G01 X46.4760 Y34.5132
G01 X46.4696 Y34.5026
G01 X46.4680 Y34.4992
G01 X43.4468 Y37.5204
G01 X43.4469 Y38.8932
G01 X49.0160 Y38.8932
G01 X49.0296 Y38.8939
G01 X49.0430 Y38.8961
G01 X49.0945 Y38.9073
G01 X49.1067 Y38.9106
G01 X49.1185 Y38.9151
G01 X49.1299 Y38.9208
G01 X49.1406 Y38.9276
G01 X49.1505 Y38.9354
G01 X49.2034 Y38.9811
G01 X49.2121 Y38.9895
G01 X49.2200 Y38.9986
G01 X49.2270 Y39.0084
G01 X49.2330 Y39.0189
G01 X49.2380 Y39.0298
G01 X49.2420 Y39.0412
G01 X49.2617 Y39.1083
G01 X49.2645 Y39.1200
G01 X49.2662 Y39.1319
G01 X49.2668 Y39.1440
G01 X49.2668 Y69.3760
G01 X49.2661 Y69.3896
G01 X49.2639 Y69.4030
G01 X49.2527 Y69.4545
G01 X49.2494 Y69.4667
G01 X49.2449 Y69.4785
G01 X49.2392 Y69.4899
G01 X49.2324 Y69.5006
G01 X49.2246 Y69.5105
G01 X49.1789 Y69.5634
G01 X49.1705 Y69.5721
G01 X49.1614 Y69.5800
G01 X49.1516 Y69.5870
G01 X49.1411 Y69.5930
G01 X49.1302 Y69.5980
G01 X49.1188 Y69.6020
G01 X49.0517 Y69.6217
G01 X49.0400 Y69.6245
G01 X49.0281 Y69.6262
G01 X49.0160 Y69.6268
G01 X6.0840 Y69.6268
G01 X6.0704 Y69.6261
G01 X6.0570 Y69.6239
G01 X6.0055 Y69.6127
G01 X5.9933 Y69.6094
G01 X5.9815 Y69.6049
G01 X5.9701 Y69.5992
G01 X5.9594 Y69.5924
G01 X5.9495 Y69.5846
G01 X5.8966 Y69.5389
G01 X5.8879 Y69.5305
G01 X5.8800 Y69.5214
G01 X5.8730 Y69.5116
G01 X5.8670 Y69.5011
G01 X5.8620 Y69.4902
G01 X5.8580 Y69.4788
G01 X5.8383 Y69.4117
G01 X5.8355 Y69.4000
G01 X5.8338 Y69.3881
G01 X5.8332 Y69.3760
G00 Z2.0000
G00 X0.5149 Y74.4306
G01 F60.00
G01 Z-0.1000
G01 F120.00
G01 X0.5260 Y1.0525
G01 X0.5267 Y1.0390
G01 X0.5289 Y1.0256
G01 X0.5401 Y0.9741
G01 X0.5434 Y0.9619
G01 X0.5479 Y0.9501
G01 X0.5536 Y0.9387
G01 X0.5604 Y0.9280
G01 X0.5682 Y0.9180
G01 X0.6139 Y0.8652
G01 X0.6222 Y0.8565
G01 X0.6314 Y0.8486
G01 X0.6412 Y0.8416
G01 X0.6516 Y0.8356
G01 X0.6626 Y0.8306
G01 X0.6740 Y0.8266
G01 X0.7411 Y0.8069
G01 X0.7528 Y0.8041
G01 X0.7647 Y0.8024
G01 X0.7768 Y0.8018
G01 X95.5519 Y0.7937
G01 X101.2955 Y0.7937
G01 X101.3091 Y0.7944
G01 X101.3225 Y0.7966
G01 X101.3740 Y0.8078
G01 X101.3862 Y0.8111
G01 X101.3980 Y0.8156
G01 X101.4094 Y0.8213
G01 X101.4201 Y0.8281
G01 X101.4300 Y0.8359
G01 X101.4829 Y0.8816
G01 X101.4916 Y0.8900
G01 X101.4995 Y0.8991
G01 X101.5065 Y0.9089
G01 X101.5125 Y0.9194
G01 X101.5175 Y0.9303
G01 X101.5215 Y0.9417
G01 X101.5412 Y1.0088
G01 X101.5440 Y1.0205
G01 X101.5457 Y1.0324
G01 X101.5463 Y1.0445
G01 X101.5463 Y74.4355
G01 X101.5456 Y74.4491
G01 X101.5434 Y74.4625
G01 X101.5322 Y74.5140
G01 X101.5289 Y74.5262
G01 X101.5244 Y74.5380
G01 X101.5187 Y74.5494
G01 X101.5119 Y74.5601
G01 X101.5041 Y74.5700
G01 X101.4584 Y74.6229
G01 X101.4500 Y74.6316
G01 X101.4409 Y74.6395
G01 X101.4311 Y74.6465
G01 X101.4206 Y74.6525
G01 X101.4097 Y74.6575
G01 X101.3983 Y74.6615
G01 X101.3312 Y74.6812
G01 X101.3195 Y74.6840
G01 X101.3076 Y74.6857
G01 X101.2955 Y74.6863
G01 X20.2078 Y74.6863
G01 X0.7656 Y74.6814
G01 X0.7521 Y74.6807
G01 X0.7387 Y74.6785
G01 X0.6872 Y74.6673
G01 X0.6750 Y74.6640
G01 X0.6631 Y74.6595
G01 X0.6518 Y74.6538
G01 X0.6411 Y74.6470
G01 X0.6311 Y74.6392
G01 X0.5783 Y74.5934
G01 X0.5696 Y74.5851
G01 X0.5617 Y74.5760
G01 X0.5547 Y74.5662
G01 X0.5487 Y74.5557
G01 X0.5437 Y74.5447
G01 X0.5397 Y74.5333
G01 X0.5200 Y74.4663
G01 X0.5172 Y74.4546
G01 X0.5155 Y74.4426
G01 X0.5149 Y74.4306
G00 Z2.0000
G00 X0.3754 Y74.4305
G01 F60.00
G01 Z-0.1000
G01 F120.00
G01 X0.3865 Y1.0525
G01 X0.3881 Y1.0241
G01 X0.3926 Y0.9959
G01 X0.4038 Y0.9445
G01 X0.4108 Y0.9188
G01 X0.4202 Y0.8939
G01 X0.4321 Y0.8701
G01 X0.4464 Y0.8477
G01 X0.4628 Y0.8267
G01 X0.5085 Y0.7739
G01 X0.5260 Y0.7556
G01 X0.5451 Y0.7390
G01 X0.5658 Y0.7243
G01 X0.5877 Y0.7116
G01 X0.6108 Y0.7011
G01 X0.6347 Y0.6928
G01 X0.7018 Y0.6731
G01 X0.7264 Y0.6671
G01 X0.7515 Y0.6635
G01 X0.7768 Y0.6623
G01 X95.5519 Y0.6542
G01 X101.2955 Y0.6542
G01 X101.3240 Y0.6557
G01 X101.3521 Y0.6603
G01 X101.4036 Y0.6715
G01 X101.4293 Y0.6785
G01 X101.4542 Y0.6879
G01 X101.4780 Y0.6998
G01 X101.5004 Y0.7141
G01 X101.5214 Y0.7305
G01 X101.5742 Y0.7762
G01 X101.5925 Y0.7937
G01 X101.6091 Y0.8129
G01 X101.6238 Y0.8335
G01 X101.6365 Y0.8554
G01 X101.6470 Y0.8785
G01 X101.6553 Y0.9024
G01 X101.6750 Y0.9695
G01 X101.6810 Y0.9941
G01 X101.6846 Y1.0192
G01 X101.6858 Y1.0445
G01 X101.6858 Y74.4355
G01 X101.6843 Y74.4640
G01 X101.6797 Y74.4921
G01 X101.6685 Y74.5436
G01 X101.6615 Y74.5693
G01 X101.6521 Y74.5942
G01 X101.6402 Y74.6180
G01 X101.6259 Y74.6404
G01 X101.6095 Y74.6614
G01 X101.5638 Y74.7142
G01 X101.5463 Y74.7325
G01 X101.5271 Y74.7491
G01 X101.5065 Y74.7638
G01 X101.4846 Y74.7765
G01 X101.4615 Y74.7870
G01 X101.4376 Y74.7953
G01 X101.3705 Y74.8150
G01 X101.3459 Y74.8210
G01 X101.3208 Y74.8246
G01 X101.2955 Y74.8258
G01 X20.2078 Y74.8258
G01 X0.7656 Y74.8209
G01 X0.7372 Y74.8193
G01 X0.7090 Y74.8148
G01 X0.6575 Y74.8036
G01 X0.6318 Y74.7966
G01 X0.6070 Y74.7871
G01 X0.5832 Y74.7752
G01 X0.5607 Y74.7610
G01 X0.5398 Y74.7446
G01 X0.4870 Y74.6988
G01 X0.4686 Y74.6813
G01 X0.4521 Y74.6622
G01 X0.4374 Y74.6415
G01 X0.4247 Y74.6196
G01 X0.4142 Y74.5965
G01 X0.4059 Y74.5726
G01 X0.3862 Y74.5056
G01 X0.3802 Y74.4809
G01 X0.3766 Y74.4558
G01 X0.3754 Y74.4305
G00 Z2.0000
G00 X0.2360 Y74.4305
G01 F60.00
G01 Z-0.1000
G01 F120.00
G01 X0.2470 Y1.0525
G01 X0.2494 Y1.0091
G01 X0.2563 Y0.9663
G01 X0.2675 Y0.9148
G01 X0.2781 Y0.8757
G01 X0.2925 Y0.8378
G01 X0.3107 Y0.8016
G01 X0.3324 Y0.7673
G01 X0.3573 Y0.7354
G01 X0.4031 Y0.6826
G01 X0.4297 Y0.6546
G01 X0.4589 Y0.6293
G01 X0.4904 Y0.6069
G01 X0.5238 Y0.5876
G01 X0.5589 Y0.5716
G01 X0.5954 Y0.5590
G01 X0.6624 Y0.5393
G01 X0.7000 Y0.5302
G01 X0.7382 Y0.5247
G01 X0.7768 Y0.5228
G01 X95.5519 Y0.5147
G01 X101.2955 Y0.5147
G01 X101.3389 Y0.5171
G01 X101.3818 Y0.5240
G01 X101.4333 Y0.5352
G01 X101.4724 Y0.5458
G01 X101.5103 Y0.5602
G01 X101.5465 Y0.5784
G01 X101.5808 Y0.6001
G01 X101.6127 Y0.6251
G01 X101.6655 Y0.6708
G01 X101.6935 Y0.6975
G01 X101.7188 Y0.7266
G01 X101.7412 Y0.7581
G01 X101.7605 Y0.7915
G01 X101.7765 Y0.8267
G01 X101.7891 Y0.8631
G01 X101.8088 Y0.9302
G01 X101.8179 Y0.9677
G01 X101.8234 Y1.0059
G01 X101.8253 Y1.0445
G01 X101.8253 Y74.4355
G01 X101.8229 Y74.4789
G01 X101.8160 Y74.5218
G01 X101.8048 Y74.5733
G01 X101.7942 Y74.6124
G01 X101.7798 Y74.6503
G01 X101.7616 Y74.6865
G01 X101.7399 Y74.7208
G01 X101.7149 Y74.7527
G01 X101.6692 Y74.8055
G01 X101.6425 Y74.8335
G01 X101.6134 Y74.8588
G01 X101.5819 Y74.8812
G01 X101.5485 Y74.9005
G01 X101.5133 Y74.9165
G01 X101.4769 Y74.9291
G01 X101.4098 Y74.9488
G01 X101.3723 Y74.9579
G01 X101.3341 Y74.9634
G01 X101.2955 Y74.9653
G01 X20.2078 Y74.9653
G01 X0.7656 Y74.9604
G01 X0.7222 Y74.9580
G01 X0.6793 Y74.9511
G01 X0.6279 Y74.9398
G01 X0.5887 Y74.9293
G01 X0.5508 Y74.9148
G01 X0.5146 Y74.8967
G01 X0.4803 Y74.8750
G01 X0.4484 Y74.8500
G01 X0.3956 Y74.8042
G01 X0.3677 Y74.7776
G01 X0.3424 Y74.7484
G01 X0.3200 Y74.7169
G01 X0.3007 Y74.6835
G01 X0.2847 Y74.6484
G01 X0.2720 Y74.6119
G01 X0.2524 Y74.5448
G01 X0.2433 Y74.5073
G01 X0.2378 Y74.4691
G01 X0.2360 Y74.4305
G00 Z2.0000
G00 X42.6259 Y38.7537
G01 F60.00
G01 Z-0.1000
G01 F120.00
G01 X42.6376 Y38.7503
G01 X42.6615 Y38.7420
G01 X42.6846 Y38.7315
G01 X42.7065 Y38.7188
G01 X42.7271 Y38.7041
G01 X42.7463 Y38.6875
G01 X42.7638 Y38.6692
G01 X42.8095 Y38.6164
G01 X42.8259 Y38.5954
G01 X42.8402 Y38.5730
G01 X42.8521 Y38.5492
G01 X42.8537 Y38.5449
G01 X42.8537 Y38.7537
G01 X42.6259 Y38.7537
G00 Z2.0000
G00 X43.5863 Y38.5373
G01 F60.00
G01 Z-0.1000
G01 F120.00
G01 X43.5930 Y38.5565
G01 X43.6035 Y38.5796
G01 X43.6162 Y38.6015
G01 X43.6309 Y38.6221
G01 X43.6475 Y38.6413
G01 X43.6658 Y38.6588
G01 X43.7186 Y38.7045
G01 X43.7396 Y38.7209
G01 X43.7620 Y38.7352
G01 X43.7858 Y38.7471
G01 X43.8033 Y38.7537
G01 X43.5863 Y38.7537
G01 X43.5863 Y38.5373
G00 Z2.0000
G00 X43.5875 Y37.5770
G01 F60.00
G01 Z-0.1000
G01 F120.00
G01 X43.5863 Y37.5793
G01 X43.5863 Y37.5781
G01 X43.5875 Y37.5770
G00 Z2.0000
G00 X46.3421 Y35.2090
G01 F60.00
G01 Z-0.1000
G01 F120.00
G01 X46.3248 Y35.1996
G01 X46.3158 Y35.1935
G01 X46.2935 Y35.1814
G01 X46.2702 Y35.1714
G01 X46.2461 Y35.1637
G01 X46.2213 Y35.1583
G01 X46.1962 Y35.1553
G01 X46.1265 Y35.1503
G01 X46.1012 Y35.1497
G01 X46.0759 Y35.1515
G01 X46.0509 Y35.1557
G01 X46.0264 Y35.1623
G01 X46.0027 Y35.1712
G01 X45.9844 Y35.1800
G01 X46.3151 Y34.8493
G01 X46.3151 Y35.0928
G01 X46.3164 Y35.1189
G01 X46.3202 Y35.1447
G01 X46.3266 Y35.1701
G01 X46.3354 Y35.1947
G01 X46.3421 Y35.2090
G00 Z2.0000
G00 X46.5814 Y34.6104
G01 F60.00
G01 Z-0.1000
G01 F120.00
G01 X48.0546 Y34.6104
G01 X48.0670 Y34.6110
G01 X48.0793 Y34.6128
G01 X48.0914 Y34.6159
G01 X48.1031 Y34.6201
G01 X48.1144 Y34.6254
G01 X48.1250 Y34.6318
G01 X48.1350 Y34.6392
G01 X48.1443 Y34.6475
G01 X48.1526 Y34.6568
G01 X48.1600 Y34.6668
G01 X48.1664 Y34.6774
G01 X48.1717 Y34.6887
G01 X48.1759 Y34.7004
G01 X48.1790 Y34.7125
G01 X48.1808 Y34.7248
G01 X48.1814 Y34.7372
G01 X48.1814 Y35.0928
G01 X48.1808 Y35.1052
G01 X48.1790 Y35.1175
G01 X48.1759 Y35.1296
G01 X48.1717 Y35.1413
G01 X48.1664 Y35.1526
G01 X48.1600 Y35.1632
G01 X48.1526 Y35.1732
G01 X48.1443 Y35.1825
G01 X48.1350 Y35.1908
G01 X48.1250 Y35.1982
G01 X48.1144 Y35.2046
G01 X48.1031 Y35.2099
G01 X48.0914 Y35.2141
G01 X48.0793 Y35.2172
G01 X48.0670 Y35.2190
G01 X48.0546 Y35.2196
G01 X47.9434 Y35.2196
G01 X51.6170 Y38.8932
G01 X68.7441 Y38.8932
G01 X68.7577 Y38.8939
G01 X68.7881 Y38.8974
G01 X68.9921 Y38.9120
G01 X72.1259 Y38.9120
G01 X72.3299 Y38.8974
G01 X72.3603 Y38.8939
G01 X72.3739 Y38.8932
G01 X96.2160 Y38.8932
G01 X96.2296 Y38.8939
G01 X96.2430 Y38.8961
G01 X96.2945 Y38.9073
G01 X96.3067 Y38.9106
G01 X96.3185 Y38.9151
G01 X96.3299 Y38.9208
G01 X96.3406 Y38.9276
G01 X96.3505 Y38.9354
G01 X96.4034 Y38.9811
G01 X96.4121 Y38.9895
G01 X96.4200 Y38.9986
G01 X96.4270 Y39.0084
G01 X96.4330 Y39.0189
G01 X96.4380 Y39.0298
G01 X96.4420 Y39.0412
G01 X96.4617 Y39.1083
G01 X96.4645 Y39.1200
G01 X96.4662 Y39.1319
G01 X96.4668 Y39.1440
G01 X96.4668 Y69.3760
G01 X96.4661 Y69.3896
G01 X96.4639 Y69.4030
G01 X96.4527 Y69.4545
G01 X96.4494 Y69.4667
G01 X96.4449 Y69.4785
G01 X96.4392 Y69.4899
G01 X96.4324 Y69.5006
G01 X96.4246 Y69.5105
G01 X96.3789 Y69.5634
G01 X96.3705 Y69.5721
G01 X96.3614 Y69.5800
G01 X96.3516 Y69.5870
G01 X96.3411 Y69.5930
G01 X96.3302 Y69.5980
G01 X96.3188 Y69.6020
G01 X96.2517 Y69.6217
G01 X96.2400 Y69.6245
G01 X96.2281 Y69.6262
G01 X96.2160 Y69.6268
G01 X50.7440 Y69.6268
G01 X50.7304 Y69.6261
G01 X50.7170 Y69.6239
G01 X50.6655 Y69.6127
G01 X50.6533 Y69.6094
G01 X50.6415 Y69.6049
G01 X50.6301 Y69.5992
G01 X50.6194 Y69.5924
G01 X50.6095 Y69.5846
G01 X50.5566 Y69.5389
G01 X50.5479 Y69.5305
G01 X50.5400 Y69.5214
G01 X50.5330 Y69.5116
G01 X50.5270 Y69.5011
G01 X50.5220 Y69.4902
G01 X50.5180 Y69.4788
G01 X50.4983 Y69.4117
G01 X50.4955 Y69.4000
G01 X50.4938 Y69.3881
G01 X50.4932 Y69.3760
G01 X50.4932 Y39.1440
G01 X50.4939 Y39.1304
G01 X50.4961 Y39.1170
G01 X50.5073 Y39.0655
G01 X50.5106 Y39.0533
G01 X50.5151 Y39.0415
G01 X50.5208 Y39.0301
G01 X50.5276 Y39.0194
G01 X50.5354 Y39.0095
G01 X50.5811 Y38.9566
G01 X50.5895 Y38.9479
G01 X50.5986 Y38.9400
G01 X50.6084 Y38.9330
G01 X50.6189 Y38.9270
G01 X50.6298 Y38.9220
G01 X50.6412 Y38.9180
G01 X50.7083 Y38.8983
G01 X50.7200 Y38.8955
G01 X50.7319 Y38.8938
G01 X50.7440 Y38.8932
G01 X50.9754 Y38.8932
G01 X47.3018 Y35.2196
G01 X46.5814 Y35.2196
G01 X46.5690 Y35.2190
G01 X46.5567 Y35.2172
G01 X46.5446 Y35.2141
G01 X46.5329 Y35.2099
G01 X46.5216 Y35.2046
G01 X46.5110 Y35.1982
G01 X46.5010 Y35.1908
G01 X46.4917 Y35.1825
G01 X46.4834 Y35.1732
G01 X46.4760 Y35.1632
G01 X46.4696 Y35.1526
G01 X46.4643 Y35.1413
G01 X46.4601 Y35.1296
G01 X46.4570 Y35.1175
G01 X46.4552 Y35.1052
G01 X46.4546 Y35.0928
G01 X46.4546 Y34.7372
G01 X46.4552 Y34.7248
G01 X46.4570 Y34.7125
G01 X46.4601 Y34.7004
G01 X46.4643 Y34.6887
G01 X46.4696 Y34.6774
G01 X46.4760 Y34.6668
G01 X46.4834 Y34.6568
G01 X46.4917 Y34.6475
G01 X46.5010 Y34.6392
G01 X46.5110 Y34.6318
G01 X46.5216 Y34.6254
G01 X46.5329 Y34.6201
G01 X46.5446 Y34.6159
G01 X46.5567 Y34.6128
G01 X46.5690 Y34.6110
G01 X46.5814 Y34.6104
G00 Z2.0000
G00 X46.3174 Y33.8258
G01 F60.00
G01 Z-0.1000
G01 F120.00
G01 X46.3202 Y33.8447
G01 X46.3266 Y33.8701
G01 X46.3354 Y33.8947
G01 X46.3386 Y33.9014
G01 X46.3228 Y33.9035
G01 X46.2972 Y33.9086
G01 X46.2877 Y33.9110
G01 X46.2627 Y33.9185
G01 X46.2563 Y33.9208
G01 X46.2886 Y33.8765
G01 X46.3021 Y33.8562
G01 X46.3137 Y33.8347
G01 X46.3174 Y33.8258
G00 Z2.0000
G00 X46.5814 Y33.3104
G01 F60.00
G01 Z-0.1000
G01 F120.00
G01 X48.0546 Y33.3104
G01 X48.0670 Y33.3110
G01 X48.0793 Y33.3128
G01 X48.0914 Y33.3159
G01 X48.1031 Y33.3201
G01 X48.1144 Y33.3254
G01 X48.1250 Y33.3318
G01 X48.1350 Y33.3392
G01 X48.1443 Y33.3475
G01 X48.1526 Y33.3568
G01 X48.1600 Y33.3668
G01 X48.1664 Y33.3774
G01 X48.1717 Y33.3887
G01 X48.1759 Y33.4004
G01 X48.1790 Y33.4125
G01 X48.1808 Y33.4248
G01 X48.1814 Y33.4372
G01 X48.1814 Y33.7928
G01 X48.1808 Y33.8052
G01 X48.1790 Y33.8175
G01 X48.1759 Y33.8296
G01 X48.1717 Y33.8413
G01 X48.1664 Y33.8526
G01 X48.1600 Y33.8632
G01 X48.1526 Y33.8732
G01 X48.1443 Y33.8825
G01 X48.1350 Y33.8908
G01 X48.1250 Y33.8982
G01 X48.1144 Y33.9046
G01 X48.1031 Y33.9099
G01 X48.0914 Y33.9141
G01 X48.0793 Y33.9172
G01 X48.0670 Y33.9190
G01 X48.0546 Y33.9196
G01 X46.5814 Y33.9196
G01 X46.5690 Y33.9190
G01 X46.5567 Y33.9172
G01 X46.5446 Y33.9141
G01 X46.5329 Y33.9099
G01 X46.5216 Y33.9046
G01 X46.5110 Y33.8982
G01 X46.5010 Y33.8908
G01 X46.4917 Y33.8825
G01 X46.4834 Y33.8732
G01 X46.4760 Y33.8632
G01 X46.4696 Y33.8526
G01 X46.4643 Y33.8413
G01 X46.4601 Y33.8296
G01 X46.4570 Y33.8175
G01 X46.4552 Y33.8052
G01 X46.4546 Y33.7928
G01 X46.4546 Y33.4372
G01 X46.4552 Y33.4248
G01 X46.4570 Y33.4125
G01 X46.4601 Y33.4004
G01 X46.4643 Y33.3887
G01 X46.4696 Y33.3774
G01 X46.4760 Y33.3668
G01 X46.4834 Y33.3568
G01 X46.4917 Y33.3475
G01 X46.5010 Y33.3392
G01 X46.5110 Y33.3318
G01 X46.5216 Y33.3254
G01 X46.5329 Y33.3201
G01 X46.5446 Y33.3159
G01 X46.5567 Y33.3128
G01 X46.5690 Y33.3110
G01 X46.5814 Y33.3104
G00 Z2.0000
G00 X48.2764 Y33.9400
G01 F60.00
G01 Z-0.1000
G01 F120.00
G01 X48.2798 Y33.9344
G01 X48.2794 Y33.9449
G01 X48.2764 Y33.9400
G00 Z2.0000
G00 X48.2798 Y34.5844
G01 F60.00
G01 Z-0.1000
G01 F120.00
G01 X48.2794 Y34.5949
G01 X48.2764 Y34.5900
G01 X48.2798 Y34.5844
G00 Z2.0000
G00 X48.2800 Y35.2340
G01 F60.00
G01 Z-0.1000
G01 F120.00
G01 X48.2793 Y35.2568
G01 X48.2799 Y35.2851
G01 X48.2835 Y35.3132
G01 X48.2900 Y35.3407
G01 X48.2995 Y35.3674
G01 X48.3096 Y35.3885
G01 X48.2213 Y35.3003
G01 X48.2429 Y35.2811
G01 X48.2604 Y35.2617
G01 X48.2760 Y35.2407
G01 X48.2800 Y35.2340
G00 Z2.0000
G00 X47.2452 Y35.3603
G01 F60.00
G01 Z-0.1000
G01 F120.00
G01 X47.2428 Y35.3591
G01 X47.2440 Y35.3591
G01 X47.2452 Y35.3603
G00 Z2.0000
G00 X50.4832 Y38.8575
G01 F60.00
G01 Z-0.1000
G01 F120.00
G01 X50.4962 Y38.8133
G01 X50.5021 Y38.7887
G01 X50.5057 Y38.7636
G01 X50.5070 Y38.7383
G01 X50.5057 Y38.7130
G01 X50.5021 Y38.6879
G01 X50.4962 Y38.6633
G01 X50.4765 Y38.5962
G01 X50.4740 Y38.5891
G01 X50.6539 Y38.7689
G01 X50.6019 Y38.7842
G01 X50.5780 Y38.7925
G01 X50.5549 Y38.8030
G01 X50.5330 Y38.8157
G01 X50.5124 Y38.8304
G01 X50.4932 Y38.8470
G01 X50.4832 Y38.8575
G00 Z2.0000
G00 X51.6686 Y38.7475
G01 F60.00
G01 Z-0.1000
G01 F120.00
G01 X51.6814 Y38.7537
G01 X51.6748 Y38.7537
G01 X51.6686 Y38.7475
G00 Z2.0000
G00 X52.2016 Y34.5900
G01 F60.00
G01 Z-0.1000
G01 F120.00
G01 X52.1982 Y34.5956
G01 X52.1986 Y34.5851
G01 X52.2016 Y34.5900
G00 Z2.0000
G00 X52.4234 Y34.6104
G01 F60.00
G01 Z-0.1000
G01 F120.00
G01 X53.8966 Y34.6104
G01 X53.9090 Y34.6110
G01 X53.9213 Y34.6128
G01 X53.9334 Y34.6159
G01 X53.9451 Y34.6201
G01 X53.9564 Y34.6254
G01 X53.9670 Y34.6318
G01 X53.9770 Y34.6392
G01 X53.9863 Y34.6475
G01 X53.9946 Y34.6568
G01 X53.9993 Y34.6631
G01 X60.9707 Y34.6631
G01 X72.0319 Y23.6019
G01 X72.0455 Y23.5894
G01 X72.0551 Y23.5815
G01 X72.0650 Y23.5742
G01 X72.0753 Y23.5673
G01 X72.0859 Y23.5609
G01 X72.0968 Y23.5551
G01 X72.1079 Y23.5498
G01 X72.1194 Y23.5451
G01 X72.1310 Y23.5409
G01 X72.1429 Y23.5373
G01 X72.1548 Y23.5343
G01 X72.1670 Y23.5319
G01 X72.1791 Y23.5301
G01 X72.1915 Y23.5289
G01 X72.2100 Y23.5281
G01 X75.0432 Y23.5281
G01 X75.0432 Y22.9300
G01 X75.0438 Y22.9176
G01 X75.0456 Y22.9053
G01 X75.0487 Y22.8932
G01 X75.0529 Y22.8815
G01 X75.0582 Y22.8702
G01 X75.0646 Y22.8596
G01 X75.0720 Y22.8496
G01 X75.0803 Y22.8403
G01 X75.0896 Y22.8320
G01 X75.0996 Y22.8246
G01 X75.1102 Y22.8182
G01 X75.1215 Y22.8129
G01 X75.1332 Y22.8087
G01 X75.1453 Y22.8056
G01 X75.1576 Y22.8038
G01 X75.1700 Y22.8032
G01 X75.7681 Y22.8032
G01 X75.7681 Y16.1600
G01 X75.7689 Y16.1415
G01 X75.7701 Y16.1291
G01 X75.7719 Y16.1170
G01 X75.7743 Y16.1048
G01 X75.7773 Y16.0929
G01 X75.7809 Y16.0810
G01 X75.7851 Y16.0694
G01 X75.7898 Y16.0579
G01 X75.7951 Y16.0468
G01 X75.8009 Y16.0359
G01 X75.8073 Y16.0253
G01 X75.8142 Y16.0150
G01 X75.8215 Y16.0051
G01 X75.8294 Y15.9955
G01 X75.8419 Y15.9819
G01 X77.6286 Y14.1952
G01 X77.6228 Y14.1888
G01 X77.6149 Y14.1791
G01 X77.6003 Y14.1594
G01 X77.5934 Y14.1491
G01 X77.5808 Y14.1280
G01 X77.5749 Y14.1171
G01 X77.5644 Y14.0949
G01 X77.5596 Y14.0834
G01 X77.5514 Y14.0603
G01 X77.5478 Y14.0484
G01 X77.5418 Y14.0246
G01 X77.5394 Y14.0124
G01 X77.5358 Y13.9881
G01 X77.5346 Y13.9757
G01 X77.5332 Y13.9450
G01 X77.5334 Y13.2888
G01 X77.5346 Y13.2643
G01 X77.5358 Y13.2519
G01 X77.5394 Y13.2276
G01 X77.5418 Y13.2154
G01 X77.5478 Y13.1916
G01 X77.5514 Y13.1797
G01 X77.5596 Y13.1566
G01 X77.5644 Y13.1451
G01 X77.5749 Y13.1229
G01 X77.5808 Y13.1120
G01 X77.5934 Y13.0909
G01 X77.6003 Y13.0806
G01 X77.6149 Y13.0609
G01 X77.6228 Y13.0512
G01 X77.6393 Y13.0331
G01 X77.6481 Y13.0243
G01 X77.6662 Y13.0078
G01 X77.6759 Y12.9999
G01 X77.6956 Y12.9853
G01 X77.7059 Y12.9784
G01 X77.7270 Y12.9658
G01 X77.7379 Y12.9599
G01 X77.7601 Y12.9494
G01 X77.7716 Y12.9446
G01 X77.7947 Y12.9364
G01 X77.8066 Y12.9328
G01 X77.8304 Y12.9268
G01 X77.8426 Y12.9244
G01 X77.8669 Y12.9208
G01 X77.8793 Y12.9196
G01 X77.9100 Y12.9182
G01 X79.2162 Y12.9184
G01 X79.2407 Y12.9196
G01 X79.2531 Y12.9208
G01 X79.2774 Y12.9244
G01 X79.2896 Y12.9268
G01 X79.3134 Y12.9328
G01 X79.3253 Y12.9364
G01 X79.3484 Y12.9446
G01 X79.3599 Y12.9494
G01 X79.3821 Y12.9599
G01 X79.3930 Y12.9658
G01 X79.4141 Y12.9784
G01 X79.4244 Y12.9853
G01 X79.4441 Y12.9999
G01 X79.4538 Y13.0078
G01 X79.4719 Y13.0243
G01 X79.4807 Y13.0331
G01 X79.4972 Y13.0512
G01 X79.5051 Y13.0609
G01 X79.5197 Y13.0806
G01 X79.5266 Y13.0909
G01 X79.5392 Y13.1120
G01 X79.5451 Y13.1229
G01 X79.5556 Y13.1451
G01 X79.5604 Y13.1566
G01 X79.5686 Y13.1797
G01 X79.5722 Y13.1916
G01 X79.5782 Y13.2154
G01 X79.5806 Y13.2276
G01 X79.5842 Y13.2519
G01 X79.5854 Y13.2643
G01 X79.5868 Y13.2950
G01 X79.5866 Y13.9512
G01 X79.5854 Y13.9757
G01 X79.5842 Y13.9881
G01 X79.5806 Y14.0124
G01 X79.5782 Y14.0246
G01 X79.5722 Y14.0484
G01 X79.5686 Y14.0603
G01 X79.5604 Y14.0834
G01 X79.5556 Y14.0949
G01 X79.5451 Y14.1171
G01 X79.5392 Y14.1280
G01 X79.5266 Y14.1491
G01 X79.5197 Y14.1594
G01 X79.5051 Y14.1791
G01 X79.4972 Y14.1888
G01 X79.4807 Y14.2069
G01 X79.4719 Y14.2157
G01 X79.4538 Y14.2322
G01 X79.4441 Y14.2401
G01 X79.4244 Y14.2547
G01 X79.4141 Y14.2616
G01 X79.3930 Y14.2742
G01 X79.3821 Y14.2801
G01 X79.3599 Y14.2906
G01 X79.3484 Y14.2954
G01 X79.3253 Y14.3036
G01 X79.3134 Y14.3072
G01 X79.2896 Y14.3132
G01 X79.2774 Y14.3156
G01 X79.2531 Y14.3192
G01 X79.2407 Y14.3204
G01 X79.2100 Y14.3218
G01 X78.2144 Y14.3218
G01 X76.2719 Y16.2643
G01 X76.2719 Y22.8032
G01 X76.8700 Y22.8032
G01 X76.8824 Y22.8038
G01 X76.8947 Y22.8056
G01 X76.9068 Y22.8087
G01 X76.9185 Y22.8129
G01 X76.9298 Y22.8182
G01 X76.9404 Y22.8246
G01 X76.9504 Y22.8320
G01 X76.9597 Y22.8403
G01 X76.9680 Y22.8496
G01 X76.9754 Y22.8596
G01 X76.9818 Y22.8702
G01 X76.9871 Y22.8815
G01 X76.9913 Y22.8932
G01 X76.9944 Y22.9053
G01 X76.9962 Y22.9176
G01 X76.9968 Y22.9300
G01 X76.9968 Y24.6300
G01 X76.9962 Y24.6424
G01 X76.9944 Y24.6547
G01 X76.9913 Y24.6668
G01 X76.9871 Y24.6785
G01 X76.9818 Y24.6898
G01 X76.9754 Y24.7004
G01 X76.9680 Y24.7104
G01 X76.9597 Y24.7197
G01 X76.9504 Y24.7280
G01 X76.9404 Y24.7354
G01 X76.9298 Y24.7418
G01 X76.9185 Y24.7471
G01 X76.9068 Y24.7513
G01 X76.8947 Y24.7544
G01 X76.8824 Y24.7562
G01 X76.8700 Y24.7568
G01 X75.1700 Y24.7568
G01 X75.1576 Y24.7562
G01 X75.1453 Y24.7544
G01 X75.1332 Y24.7513
G01 X75.1215 Y24.7471
G01 X75.1102 Y24.7418
G01 X75.0996 Y24.7354
G01 X75.0896 Y24.7280
G01 X75.0803 Y24.7197
G01 X75.0720 Y24.7104
G01 X75.0646 Y24.7004
G01 X75.0582 Y24.6898
G01 X75.0529 Y24.6785
G01 X75.0487 Y24.6668
G01 X75.0456 Y24.6547
G01 X75.0438 Y24.6424
G01 X75.0432 Y24.6300
G01 X75.0432 Y24.0319
G01 X72.3143 Y24.0319
G01 X61.2531 Y35.0931
G01 X61.2395 Y35.1056
G01 X61.2299 Y35.1135
G01 X61.2200 Y35.1208
G01 X61.2097 Y35.1277
G01 X61.1991 Y35.1341
G01 X61.1882 Y35.1399
G01 X61.1771 Y35.1452
G01 X61.1656 Y35.1499
G01 X61.1540 Y35.1541
G01 X61.1421 Y35.1577
G01 X61.1302 Y35.1607
G01 X61.1180 Y35.1631
G01 X61.1059 Y35.1649
G01 X61.0935 Y35.1661
G01 X61.0750 Y35.1669
G01 X53.9993 Y35.1669
G01 X53.9946 Y35.1732
G01 X53.9863 Y35.1825
G01 X53.9770 Y35.1908
G01 X53.9670 Y35.1982
G01 X53.9564 Y35.2046
G01 X53.9451 Y35.2099
G01 X53.9334 Y35.2141
G01 X53.9213 Y35.2172
G01 X53.9090 Y35.2190
G01 X53.8966 Y35.2196
G01 X52.4234 Y35.2196
G01 X52.4110 Y35.2190
G01 X52.3987 Y35.2172
G01 X52.3866 Y35.2141
G01 X52.3749 Y35.2099
G01 X52.3636 Y35.2046
G01 X52.3530 Y35.1982
G01 X52.3430 Y35.1908
G01 X52.3337 Y35.1825
G01 X52.3254 Y35.1732
G01 X52.3180 Y35.1632
G01 X52.3116 Y35.1526
G01 X52.3063 Y35.1413
G01 X52.3021 Y35.1296
G01 X52.2990 Y35.1175
G01 X52.2972 Y35.1052
G01 X52.2966 Y35.0928
G01 X52.2966 Y34.7372
G01 X52.2972 Y34.7248
G01 X52.2990 Y34.7125
G01 X52.3021 Y34.7004
G01 X52.3063 Y34.6887
G01 X52.3116 Y34.6774
G01 X52.3180 Y34.6668
G01 X52.3254 Y34.6568
G01 X52.3337 Y34.6475
G01 X52.3430 Y34.6392
G01 X52.3530 Y34.6318
G01 X52.3636 Y34.6254
G01 X52.3749 Y34.6201
G01 X52.3866 Y34.6159
G01 X52.3987 Y34.6128
G01 X52.4110 Y34.6110
G01 X52.4234 Y34.6104
G00 Z2.0000
G00 X52.4234 Y33.9604
G01 F60.00
G01 Z-0.1000
G01 F120.00
G01 X53.8966 Y33.9604
G01 X53.9090 Y33.9610
G01 X53.9213 Y33.9628
G01 X53.9334 Y33.9659
G01 X53.9451 Y33.9701
G01 X53.9564 Y33.9754
G01 X53.9670 Y33.9818
G01 X53.9770 Y33.9892
G01 X53.9863 Y33.9975
G01 X53.9946 Y34.0068
G01 X54.0020 Y34.0168
G01 X54.0084 Y34.0274
G01 X54.0137 Y34.0387
G01 X54.0179 Y34.0504
G01 X54.0210 Y34.0625
G01 X54.0228 Y34.0748
G01 X54.0234 Y34.0872
G01 X54.0234 Y34.4428
G01 X54.0228 Y34.4552
G01 X54.0210 Y34.4675
G01 X54.0179 Y34.4796
G01 X54.0137 Y34.4913
G01 X54.0084 Y34.5026
G01 X54.0020 Y34.5132
G01 X53.9946 Y34.5232
G01 X53.9863 Y34.5325
G01 X53.9770 Y34.5408
G01 X53.9670 Y34.5482
G01 X53.9564 Y34.5546
G01 X53.9451 Y34.5599
G01 X53.9334 Y34.5641
G01 X53.9213 Y34.5672
G01 X53.9090 Y34.5690
G01 X53.8966 Y34.5696
G01 X52.4234 Y34.5696
G01 X52.4110 Y34.5690
G01 X52.3987 Y34.5672
G01 X52.3866 Y34.5641
G01 X52.3749 Y34.5599
G01 X52.3636 Y34.5546
G01 X52.3530 Y34.5482
G01 X52.3430 Y34.5408
G01 X52.3337 Y34.5325
G01 X52.3254 Y34.5232
G01 X52.3180 Y34.5132
G01 X52.3116 Y34.5026
G01 X52.3063 Y34.4913
G01 X52.3021 Y34.4796
G01 X52.2990 Y34.4675
G01 X52.2972 Y34.4552
G01 X52.2966 Y34.4428
G01 X52.2966 Y34.0872
G01 X52.2972 Y34.0748
G01 X52.2990 Y34.0625
G01 X52.3021 Y34.0504
G01 X52.3063 Y34.0387
G01 X52.3116 Y34.0274
G01 X52.3180 Y34.0168
G01 X52.3254 Y34.0068
G01 X52.3337 Y33.9975
G01 X52.3430 Y33.9892
G01 X52.3530 Y33.9818
G01 X52.3636 Y33.9754
G01 X52.3749 Y33.9701
G01 X52.3866 Y33.9659
G01 X52.3987 Y33.9628
G01 X52.4110 Y33.9610
G01 X52.4234 Y33.9604
G00 Z2.0000
G00 X52.1986 Y33.9351
G01 F60.00
G01 Z-0.1000
G01 F120.00
G01 X52.2016 Y33.9400
G01 X52.1982 Y33.9456
G01 X52.1986 Y33.9351
G00 Z2.0000
G00 X52.2016 Y33.2900
G01 F60.00
G01 Z-0.1000
G01 F120.00
G01 X52.1982 Y33.2956
G01 X52.1986 Y33.2851
G01 X52.2016 Y33.2900
G00 Z2.0000
G00 X52.0543 Y33.2270
G01 F60.00
G01 Z-0.1000
G01 F120.00
G01 X52.0497 Y33.1839
G01 X52.0497 Y32.7461
G01 X52.0537 Y32.7091
G01 X52.0920 Y32.6063
G01 X52.1564 Y32.5202
G01 X52.2425 Y32.4558
G01 X52.3453 Y32.4175
G01 X52.3823 Y32.4135
G01 X53.9377 Y32.4135
G01 X53.9747 Y32.4175
G01 X54.0775 Y32.4558
G01 X54.1613 Y32.5186
G01 X54.1713 Y32.5253
G01 X54.1819 Y32.5311
G01 X54.1930 Y32.5359
G01 X54.2585 Y32.5603
G01 X54.2700 Y32.5640
G01 X54.2818 Y32.5665
G01 X54.2938 Y32.5680
G01 X54.3058 Y32.5683
G01 X54.3179 Y32.5674
G01 X54.3297 Y32.5654
G01 X54.3980 Y32.5505
G01 X54.4111 Y32.5469
G01 X54.4237 Y32.5420
G01 X54.4358 Y32.5357
G01 X54.4471 Y32.5281
G01 X54.4753 Y32.5070
G01 X54.4890 Y32.4951
G01 X60.2078 Y26.7763
G01 X60.2160 Y26.7674
G01 X60.2232 Y26.7577
G01 X60.2295 Y26.7474
G01 X60.2630 Y26.6861
G01 X60.2684 Y26.6749
G01 X60.2727 Y26.6632
G01 X60.2758 Y26.6512
G01 X60.2777 Y26.6389
G01 X60.2806 Y26.6125
G01 X60.2813 Y26.5989
G01 X60.2813 Y25.2545
G01 X60.2807 Y25.2424
G01 X60.2790 Y25.2305
G01 X60.2762 Y25.2188
G01 X60.2565 Y25.1517
G01 X60.2525 Y25.1403
G01 X60.2475 Y25.1294
G01 X60.2415 Y25.1189
G01 X60.2345 Y25.1091
G01 X60.2266 Y25.1000
G01 X60.2179 Y25.0916
G01 X60.1650 Y25.0459
G01 X60.1551 Y25.0381
G01 X60.1444 Y25.0313
G01 X60.1330 Y25.0256
G01 X60.1212 Y25.0211
G01 X60.1090 Y25.0178
G01 X60.0575 Y25.0066
G01 X60.0441 Y25.0044
G01 X60.0305 Y25.0037
G01 X59.8889 Y25.0037
G01 X59.8519 Y24.9997
G01 X59.7491 Y24.9614
G01 X59.6630 Y24.8970
G01 X59.5986 Y24.8109
G01 X59.5603 Y24.7081
G01 X59.5563 Y24.6711
G01 X59.5563 Y22.8889
G01 X59.5603 Y22.8519
G01 X59.5986 Y22.7491
G01 X59.6630 Y22.6630
G01 X59.7491 Y22.5986
G01 X59.8519 Y22.5603
G01 X59.8889 Y22.5563
G01 X60.0305 Y22.5563
G01 X60.0426 Y22.5557
G01 X60.0545 Y22.5540
G01 X60.0662 Y22.5512
G01 X60.1333 Y22.5315
G01 X60.1447 Y22.5275
G01 X60.1556 Y22.5225
G01 X60.1661 Y22.5165
G01 X60.1759 Y22.5095
G01 X60.1850 Y22.5016
G01 X60.1934 Y22.4929
G01 X60.2391 Y22.4400
G01 X60.2469 Y22.4301
G01 X60.2537 Y22.4194
G01 X60.2594 Y22.4080
G01 X60.2639 Y22.3962
G01 X60.2672 Y22.3840
G01 X60.2784 Y22.3325
G01 X60.2806 Y22.3191
G01 X60.2813 Y22.3055
G01 X60.2813 Y17.8937
G01 X60.2805 Y17.8798
G01 X60.2793 Y17.8682
G01 X60.2812 Y17.8051
G01 X60.2813 Y17.7787
G01 X60.2827 Y17.7600
G01 X60.2835 Y17.7324
G01 X60.2870 Y17.7189
G01 X60.2910 Y17.6998
G01 X60.2931 Y17.6860
G01 X60.3033 Y17.6603
G01 X60.3092 Y17.6436
G01 X60.3187 Y17.6114
G01 X60.3254 Y17.5991
G01 X60.3340 Y17.5817
G01 X60.3395 Y17.5688
G01 X60.3558 Y17.5465
G01 X60.3656 Y17.5318
G01 X60.3828 Y17.5029
G01 X60.3924 Y17.4928
G01 X60.4050 Y17.4780
G01 X60.4136 Y17.4669
G01 X60.4349 Y17.4493
G01 X60.4524 Y17.4334
G01 X63.6238 Y14.2619
G01 X63.6320 Y14.2530
G01 X63.6392 Y14.2433
G01 X63.6455 Y14.2330
G01 X63.6790 Y14.1717
G01 X63.6844 Y14.1605
G01 X63.6887 Y14.1488
G01 X63.6918 Y14.1368
G01 X63.6937 Y14.1245
G01 X63.6966 Y14.0981
G01 X63.6973 Y14.0845
G01 X63.6973 Y12.7789
G01 X63.7013 Y12.7419
G01 X63.7396 Y12.6391
G01 X63.8040 Y12.5530
G01 X63.8901 Y12.4886
G01 X63.9929 Y12.4503
G01 X64.0299 Y12.4463
G01 X65.9121 Y12.4463
G01 X65.9491 Y12.4503
G01 X66.0519 Y12.4886
G01 X66.1380 Y12.5530
G01 X66.2024 Y12.6391
G01 X66.2407 Y12.7419
G01 X66.2447 Y12.7789
G01 X66.2447 Y12.8705
G01 X66.2453 Y12.8826
G01 X66.2470 Y12.8945
G01 X66.2498 Y12.9062
G01 X66.2695 Y12.9733
G01 X66.2735 Y12.9847
G01 X66.2785 Y12.9956
G01 X66.2845 Y13.0061
G01 X66.2915 Y13.0159
G01 X66.2994 Y13.0250
G01 X66.3081 Y13.0334
G01 X66.3610 Y13.0791
G01 X66.3709 Y13.0869
G01 X66.3816 Y13.0937
G01 X66.3930 Y13.0994
G01 X66.4048 Y13.1039
G01 X66.4170 Y13.1072
G01 X66.4685 Y13.1184
G01 X66.4819 Y13.1206
G01 X66.4955 Y13.1213
G01 X69.6456 Y13.1213
G01 X69.6577 Y13.1207
G01 X69.6696 Y13.1190
G01 X69.6813 Y13.1162
G01 X69.7484 Y13.0965
G01 X69.7606 Y13.0922
G01 X69.7722 Y13.0867
G01 X69.7833 Y13.0801
G01 X69.7937 Y13.0724
G01 X69.8031 Y13.0636
G01 X69.8416 Y13.0244
G01 X69.8510 Y13.0138
G01 X69.8591 Y13.0022
G01 X69.8724 Y12.9805
G01 X69.9755 Y12.8774
G01 X70.0996 Y12.8009
G01 X70.2389 Y12.7547
G01 X70.3215 Y12.7463
G01 X71.7085 Y12.7463
G01 X71.7911 Y12.7547
G01 X71.9304 Y12.8009
G01 X72.0545 Y12.8774
G01 X72.1576 Y12.9805
G01 X72.2341 Y13.1046
G01 X72.2803 Y13.2439
G01 X72.2887 Y13.3265
G01 X72.2887 Y14.0635
G01 X72.2803 Y14.1461
G01 X72.2341 Y14.2854
G01 X72.1576 Y14.4095
G01 X72.0545 Y14.5126
G01 X71.9304 Y14.5891
G01 X71.7911 Y14.6353
G01 X71.7086 Y14.6437
G01 X70.3215 Y14.6437
G01 X70.2389 Y14.6353
G01 X70.0996 Y14.5891
G01 X69.9755 Y14.5126
G01 X69.8724 Y14.4095
G01 X69.7951 Y14.2842
G01 X69.7933 Y14.2794
G01 X69.7879 Y14.2686
G01 X69.7815 Y14.2583
G01 X69.7417 Y14.2009
G01 X69.7344 Y14.1913
G01 X69.7262 Y14.1824
G01 X69.7172 Y14.1744
G01 X69.7074 Y14.1673
G01 X69.6971 Y14.1611
G01 X69.6862 Y14.1560
G01 X69.6217 Y14.1291
G01 X69.6081 Y14.1244
G01 X69.5941 Y14.1212
G01 X69.5798 Y14.1196
G01 X69.5596 Y14.1187
G01 X66.4955 Y14.1187
G01 X66.4834 Y14.1193
G01 X66.4715 Y14.1210
G01 X66.4598 Y14.1238
G01 X66.3927 Y14.1435
G01 X66.3813 Y14.1475
G01 X66.3704 Y14.1525
G01 X66.3599 Y14.1585
G01 X66.3501 Y14.1655
G01 X66.3410 Y14.1734
G01 X66.3326 Y14.1821
G01 X66.2869 Y14.2350
G01 X66.2791 Y14.2449
G01 X66.2723 Y14.2556
G01 X66.2666 Y14.2670
G01 X66.2621 Y14.2788
G01 X66.2588 Y14.2910
G01 X66.2476 Y14.3425
G01 X66.2454 Y14.3559
G01 X66.2447 Y14.3695
G01 X66.2447 Y14.4611
G01 X66.2407 Y14.4981
G01 X66.2024 Y14.6009
G01 X66.1380 Y14.6870
G01 X66.0519 Y14.7514
G01 X65.9491 Y14.7897
G01 X65.9121 Y14.7937
G01 X64.6065 Y14.7937
G01 X64.5944 Y14.7943
G01 X64.5825 Y14.7960
G01 X64.5707 Y14.7988
G01 X64.5037 Y14.8185
G01 X64.4919 Y14.8226
G01 X64.4806 Y14.8278
G01 X64.4699 Y14.8341
G01 X64.4599 Y14.8415
G01 X64.4392 Y14.8581
G01 X64.4291 Y14.8672
G01 X61.3522 Y17.9441
G01 X61.3440 Y17.9530
G01 X61.3368 Y17.9627
G01 X61.3305 Y17.9730
G01 X61.2970 Y18.0343
G01 X61.2916 Y18.0455
G01 X61.2873 Y18.0572
G01 X61.2842 Y18.0692
G01 X61.2823 Y18.0815
G01 X61.2794 Y18.1079
G01 X61.2787 Y18.1215
G01 X61.2787 Y22.3055
G01 X61.2793 Y22.3176
G01 X61.2810 Y22.3295
G01 X61.2838 Y22.3412
G01 X61.3035 Y22.4083
G01 X61.3075 Y22.4197
G01 X61.3125 Y22.4306
G01 X61.3185 Y22.4411
G01 X61.3255 Y22.4509
G01 X61.3334 Y22.4600
G01 X61.3421 Y22.4684
G01 X61.3950 Y22.5141
G01 X61.4049 Y22.5219
G01 X61.4156 Y22.5287
G01 X61.4270 Y22.5344
G01 X61.4388 Y22.5389
G01 X61.4510 Y22.5422
G01 X61.5025 Y22.5534
G01 X61.5159 Y22.5556
G01 X61.5295 Y22.5563
G01 X61.6711 Y22.5563
G01 X61.7081 Y22.5603
G01 X61.8109 Y22.5986
G01 X61.8970 Y22.6630
G01 X61.9614 Y22.7491
G01 X61.9997 Y22.8519
G01 X62.0037 Y22.8889
G01 X62.0037 Y24.6711
G01 X61.9997 Y24.7081
G01 X61.9614 Y24.8109
G01 X61.8970 Y24.8970
G01 X61.8109 Y24.9614
G01 X61.7081 Y24.9997
G01 X61.6711 Y25.0037
G01 X61.5295 Y25.0037
G01 X61.5174 Y25.0043
G01 X61.5055 Y25.0060
G01 X61.4938 Y25.0088
G01 X61.4267 Y25.0285
G01 X61.4153 Y25.0325
G01 X61.4044 Y25.0375
G01 X61.3939 Y25.0435
G01 X61.3841 Y25.0505
G01 X61.3750 Y25.0584
G01 X61.3666 Y25.0671
G01 X61.3209 Y25.1200
G01 X61.3131 Y25.1299
G01 X61.3063 Y25.1406
G01 X61.3006 Y25.1520
G01 X61.2961 Y25.1638
G01 X61.2928 Y25.1760
G01 X61.2816 Y25.2275
G01 X61.2794 Y25.2409
G01 X61.2787 Y25.2545
G01 X61.2787 Y26.8267
G01 X61.2795 Y26.8406
G01 X61.2807 Y26.8522
G01 X61.2788 Y26.9153
G01 X61.2787 Y26.9417
G01 X61.2773 Y26.9604
G01 X61.2765 Y26.9880
G01 X61.2730 Y27.0016
G01 X61.2690 Y27.0206
G01 X61.2669 Y27.0344
G01 X61.2546 Y27.0657
G01 X61.2490 Y27.0825
G01 X61.2413 Y27.1090
G01 X61.2345 Y27.1213
G01 X61.2260 Y27.1387
G01 X61.2205 Y27.1516
G01 X61.2008 Y27.1789
G01 X61.1913 Y27.1937
G01 X61.1772 Y27.2175
G01 X61.1676 Y27.2276
G01 X61.1549 Y27.2424
G01 X61.1464 Y27.2535
G01 X61.1251 Y27.2711
G01 X61.1076 Y27.2870
G01 X54.4855 Y33.9091
G01 X54.4762 Y33.9195
G01 X54.4690 Y33.9286
G01 X54.4244 Y33.9705
G01 X54.4065 Y33.9882
G01 X54.3984 Y33.9971
G01 X54.3912 Y34.0067
G01 X54.3849 Y34.0170
G01 X54.3514 Y34.0784
G01 X54.3461 Y34.0892
G01 X54.3419 Y34.1005
G01 X54.3388 Y34.1122
G01 X54.3368 Y34.1241
G01 X54.3359 Y34.1361
G01 X54.3362 Y34.1482
G01 X54.3412 Y34.2179
G01 X54.3426 Y34.2299
G01 X54.3452 Y34.2417
G01 X54.3489 Y34.2531
G01 X54.3536 Y34.2642
G01 X54.3594 Y34.2748
G01 X54.3662 Y34.2848
G01 X54.4080 Y34.3408
G01 X54.4157 Y34.3501
G01 X54.4243 Y34.3586
G01 X54.4336 Y34.3663
G01 X54.4436 Y34.3730
G01 X54.4541 Y34.3788
G01 X54.4652 Y34.3836
G01 X54.5307 Y34.4080
G01 X54.5437 Y34.4120
G01 X54.5570 Y34.4147
G01 X54.5705 Y34.4159
G01 X54.5839 Y34.4163
G01 X60.7645 Y34.4163
G01 X60.7766 Y34.4157
G01 X60.7885 Y34.4140
G01 X60.8003 Y34.4112
G01 X60.8673 Y34.3915
G01 X60.8791 Y34.3874
G01 X60.8904 Y34.3822
G01 X60.9011 Y34.3759
G01 X60.9111 Y34.3685
G01 X60.9318 Y34.3519
G01 X60.9419 Y34.3428
G01 X71.7989 Y23.4859
G01 X71.8082 Y23.4755
G01 X71.8154 Y23.4664
G01 X71.8615 Y23.4231
G01 X71.8802 Y23.4045
G01 X71.8944 Y23.3923
G01 X71.9145 Y23.3733
G01 X71.9266 Y23.3663
G01 X71.9428 Y23.3556
G01 X71.9541 Y23.3473
G01 X71.9795 Y23.3363
G01 X71.9954 Y23.3287
G01 X72.0250 Y23.3126
G01 X72.0384 Y23.3088
G01 X72.0568 Y23.3025
G01 X72.0698 Y23.2973
G01 X72.1030 Y23.2919
G01 X72.1202 Y23.2882
G01 X72.1470 Y23.2813
G01 X72.1610 Y23.2809
G01 X72.1804 Y23.2794
G01 X72.1942 Y23.2776
G01 X72.2217 Y23.2802
G01 X72.2453 Y23.2813
G01 X74.5455 Y23.2813
G01 X74.5576 Y23.2807
G01 X74.5695 Y23.2790
G01 X74.5812 Y23.2762
G01 X74.6483 Y23.2565
G01 X74.6597 Y23.2525
G01 X74.6706 Y23.2475
G01 X74.6811 Y23.2415
G01 X74.6909 Y23.2345
G01 X74.7000 Y23.2266
G01 X74.7084 Y23.2179
G01 X74.7541 Y23.1650
G01 X74.7619 Y23.1551
G01 X74.7687 Y23.1444
G01 X74.7744 Y23.1330
G01 X74.7789 Y23.1212
G01 X74.7822 Y23.1090
G01 X74.7934 Y23.0575
G01 X74.7956 Y23.0441
G01 X74.7963 Y23.0305
G01 X74.7963 Y22.8889
G01 X74.8003 Y22.8519
G01 X74.8386 Y22.7491
G01 X74.9030 Y22.6630
G01 X74.9891 Y22.5986
G01 X75.0919 Y22.5603
G01 X75.1289 Y22.5563
G01 X75.2705 Y22.5563
G01 X75.2826 Y22.5557
G01 X75.2945 Y22.5540
G01 X75.3062 Y22.5512
G01 X75.3733 Y22.5315
G01 X75.3847 Y22.5275
G01 X75.3956 Y22.5225
G01 X75.4061 Y22.5165
G01 X75.4159 Y22.5095
G01 X75.4250 Y22.5016
G01 X75.4334 Y22.4929
G01 X75.4791 Y22.4400
G01 X75.4869 Y22.4301
G01 X75.4937 Y22.4194
G01 X75.4994 Y22.4080
G01 X75.5039 Y22.3962
G01 X75.5072 Y22.3840
G01 X75.5184 Y22.3325
G01 X75.5206 Y22.3191
G01 X75.5213 Y22.3055
G01 X75.5213 Y16.2427
G01 X75.5205 Y16.2288
G01 X75.5193 Y16.2172
G01 X75.5212 Y16.1541
G01 X75.5213 Y16.1277
G01 X75.5227 Y16.1090
G01 X75.5235 Y16.0814
G01 X75.5270 Y16.0679
G01 X75.5310 Y16.0488
G01 X75.5331 Y16.0350
G01 X75.5433 Y16.0093
G01 X75.5492 Y15.9926
G01 X75.5587 Y15.9604
G01 X75.5654 Y15.9481
G01 X75.5740 Y15.9307
G01 X75.5795 Y15.9178
G01 X75.5958 Y15.8955
G01 X75.6056 Y15.8808
G01 X75.6228 Y15.8519
G01 X75.6324 Y15.8418
G01 X75.6450 Y15.8270
G01 X75.6536 Y15.8159
G01 X75.6749 Y15.7983
G01 X75.6924 Y15.7824
G01 X77.2206 Y14.2542
G01 X77.2287 Y14.2452
G01 X77.2359 Y14.2356
G01 X77.2422 Y14.2253
G01 X77.2757 Y14.1640
G01 X77.2806 Y14.1539
G01 X77.2846 Y14.1434
G01 X77.2877 Y14.1326
G01 X77.2898 Y14.1215
G01 X77.2910 Y14.1103
G01 X77.2932 Y14.0714
G01 X77.2933 Y14.0613
G01 X77.2927 Y14.0513
G01 X77.2863 Y13.9886
G01 X77.2863 Y13.2515
G01 X77.2947 Y13.1689
G01 X77.3409 Y13.0296
G01 X77.4174 Y12.9055
G01 X77.5205 Y12.8024
G01 X77.6446 Y12.7259
G01 X77.7839 Y12.6797
G01 X77.8665 Y12.6713
G01 X79.2535 Y12.6713
G01 X79.3361 Y12.6797
G01 X79.4754 Y12.7259
G01 X79.5995 Y12.8024
G01 X79.7026 Y12.9055
G01 X79.7791 Y13.0296
G01 X79.8253 Y13.1689
G01 X79.8337 Y13.2515
G01 X79.8337 Y13.9885
G01 X79.8253 Y14.0711
G01 X79.7791 Y14.2104
G01 X79.7026 Y14.3345
G01 X79.5995 Y14.4376
G01 X79.4754 Y14.5141
G01 X79.3361 Y14.5603
G01 X79.2536 Y14.5687
G01 X78.4205 Y14.5687
G01 X78.4084 Y14.5693
G01 X78.3965 Y14.5710
G01 X78.3847 Y14.5738
G01 X78.3177 Y14.5935
G01 X78.3059 Y14.5976
G01 X78.2946 Y14.6028
G01 X78.2839 Y14.6091
G01 X78.2739 Y14.6165
G01 X78.2532 Y14.6331
G01 X78.2431 Y14.6422
G01 X76.5922 Y16.2931
G01 X76.5840 Y16.3020
G01 X76.5768 Y16.3117
G01 X76.5705 Y16.3220
G01 X76.5370 Y16.3833
G01 X76.5316 Y16.3945
G01 X76.5273 Y16.4062
G01 X76.5242 Y16.4182
G01 X76.5223 Y16.4305
G01 X76.5194 Y16.4569
G01 X76.5187 Y16.4705
G01 X76.5187 Y22.3055
G01 X76.5193 Y22.3176
G01 X76.5210 Y22.3295
G01 X76.5238 Y22.3412
G01 X76.5435 Y22.4083
G01 X76.5475 Y22.4197
G01 X76.5525 Y22.4306
G01 X76.5585 Y22.4411
G01 X76.5655 Y22.4509
G01 X76.5734 Y22.4600
G01 X76.5821 Y22.4684
G01 X76.6350 Y22.5141
G01 X76.6449 Y22.5219
G01 X76.6556 Y22.5287
G01 X76.6670 Y22.5344
G01 X76.6788 Y22.5389
G01 X76.6910 Y22.5422
G01 X76.7425 Y22.5534
G01 X76.7559 Y22.5556
G01 X76.7695 Y22.5563
G01 X76.9111 Y22.5563
G01 X76.9481 Y22.5603
G01 X77.0509 Y22.5986
G01 X77.1370 Y22.6630
G01 X77.2014 Y22.7491
G01 X77.2397 Y22.8519
G01 X77.2437 Y22.8889
G01 X77.2437 Y24.6711
G01 X77.2397 Y24.7081
G01 X77.2014 Y24.8109
G01 X77.1370 Y24.8970
G01 X77.0509 Y24.9614
G01 X76.9481 Y24.9997
G01 X76.9111 Y25.0037
G01 X75.1289 Y25.0037
G01 X75.0919 Y24.9997
G01 X74.9891 Y24.9614
G01 X74.9030 Y24.8970
G01 X74.8386 Y24.8109
G01 X74.8003 Y24.7081
G01 X74.7963 Y24.6711
G01 X74.7963 Y24.5295
G01 X74.7957 Y24.5174
G01 X74.7940 Y24.5055
G01 X74.7912 Y24.4938
G01 X74.7715 Y24.4267
G01 X74.7675 Y24.4153
G01 X74.7625 Y24.4044
G01 X74.7565 Y24.3939
G01 X74.7495 Y24.3841
G01 X74.7416 Y24.3750
G01 X74.7329 Y24.3666
G01 X74.6800 Y24.3209
G01 X74.6701 Y24.3131
G01 X74.6594 Y24.3063
G01 X74.6480 Y24.3006
G01 X74.6362 Y24.2961
G01 X74.6240 Y24.2928
G01 X74.5725 Y24.2816
G01 X74.5591 Y24.2794
G01 X74.5455 Y24.2787
G01 X72.5205 Y24.2787
G01 X72.5084 Y24.2793
G01 X72.4965 Y24.2810
G01 X72.4847 Y24.2838
G01 X72.4177 Y24.3035
G01 X72.4059 Y24.3076
G01 X72.3946 Y24.3128
G01 X72.3839 Y24.3191
G01 X72.3739 Y24.3265
G01 X72.3532 Y24.3431
G01 X72.3431 Y24.3522
G01 X61.4861 Y35.2091
G01 X61.4768 Y35.2195
G01 X61.4696 Y35.2286
G01 X61.4235 Y35.2719
G01 X61.4048 Y35.2905
G01 X61.3906 Y35.3027
G01 X61.3705 Y35.3217
G01 X61.3584 Y35.3287
G01 X61.3421 Y35.3394
G01 X61.3309 Y35.3477
G01 X61.3055 Y35.3586
G01 X61.2896 Y35.3663
G01 X61.2600 Y35.3824
G01 X61.2466 Y35.3862
G01 X61.2282 Y35.3925
G01 X61.2152 Y35.3977
G01 X61.1820 Y35.4031
G01 X61.1648 Y35.4068
G01 X61.1380 Y35.4137
G01 X61.1240 Y35.4141
G01 X61.1046 Y35.4156
G01 X61.0908 Y35.4174
G01 X61.0633 Y35.4148
G01 X61.0397 Y35.4137
G01 X54.1508 Y35.4137
G01 X54.1395 Y35.4142
G01 X54.1283 Y35.4157
G01 X54.0850 Y35.4235
G01 X54.0740 Y35.4260
G01 X54.0632 Y35.4295
G01 X53.9747 Y35.4625
G01 X53.9377 Y35.4665
G01 X52.3823 Y35.4665
G01 X52.3453 Y35.4625
G01 X52.2425 Y35.4242
G01 X52.1564 Y35.3598
G01 X52.0920 Y35.2737
G01 X52.0537 Y35.1709
G01 X52.0497 Y35.1339
G01 X52.0497 Y34.6961
G01 X52.0570 Y34.6278
G01 X52.0578 Y34.6154
G01 X52.0573 Y34.6029
G01 X52.0594 Y34.5727
G01 X52.0597 Y34.5614
G01 X52.0590 Y34.5501
G01 X52.0573 Y34.5389
G01 X52.0543 Y34.5270
G01 X52.0497 Y34.4839
G01 X52.0497 Y34.0461
G01 X52.0570 Y33.9778
G01 X52.0578 Y33.9654
G01 X52.0573 Y33.9529
G01 X52.0594 Y33.9227
G01 X52.0597 Y33.9114
G01 X52.0590 Y33.9001
G01 X52.0573 Y33.8889
G01 X52.0543 Y33.8770
G01 X52.0497 Y33.8339
G01 X52.0497 Y33.3961
G01 X52.0570 Y33.3278
G01 X52.0578 Y33.3154
G01 X52.0573 Y33.3029
G01 X52.0594 Y33.2727
G01 X52.0597 Y33.2614
G01 X52.0590 Y33.2501
G01 X52.0573 Y33.2389
G01 X52.0543 Y33.2270
G00 Z2.0000
G00 X52.4234 Y33.3104
G01 F60.00
G01 Z-0.1000
G01 F120.00
G01 X53.8966 Y33.3104
G01 X53.9090 Y33.3110
G01 X53.9213 Y33.3128
G01 X53.9334 Y33.3159
G01 X53.9451 Y33.3201
G01 X53.9564 Y33.3254
G01 X53.9670 Y33.3318
G01 X53.9770 Y33.3392
G01 X53.9860 Y33.3473
G01 X60.5281 Y26.8051
G01 X60.5281 Y24.7568
G01 X59.9300 Y24.7568
G01 X59.9176 Y24.7562
G01 X59.9053 Y24.7544
G01 X59.8932 Y24.7513
G01 X59.8815 Y24.7471
G01 X59.8702 Y24.7418
G01 X59.8596 Y24.7354
G01 X59.8496 Y24.7280
G01 X59.8403 Y24.7197
G01 X59.8320 Y24.7104
G01 X59.8246 Y24.7004
G01 X59.8182 Y24.6898
G01 X59.8129 Y24.6785
G01 X59.8087 Y24.6668
G01 X59.8056 Y24.6547
G01 X59.8038 Y24.6424
G01 X59.8032 Y24.6300
G01 X59.8032 Y22.9300
G01 X59.8038 Y22.9176
G01 X59.8056 Y22.9053
G01 X59.8087 Y22.8932
G01 X59.8129 Y22.8815
G01 X59.8182 Y22.8702
G01 X59.8246 Y22.8596
G01 X59.8320 Y22.8496
G01 X59.8403 Y22.8403
G01 X59.8496 Y22.8320
G01 X59.8596 Y22.8246
G01 X59.8702 Y22.8182
G01 X59.8815 Y22.8129
G01 X59.8932 Y22.8087
G01 X59.9053 Y22.8056
G01 X59.9176 Y22.8038
G01 X59.9300 Y22.8032
G01 X60.5281 Y22.8032
G01 X60.5281 Y17.8110
G01 X60.5289 Y17.7925
G01 X60.5301 Y17.7801
G01 X60.5319 Y17.7680
G01 X60.5343 Y17.7558
G01 X60.5373 Y17.7439
G01 X60.5409 Y17.7320
G01 X60.5451 Y17.7204
G01 X60.5498 Y17.7089
G01 X60.5551 Y17.6978
G01 X60.5609 Y17.6869
G01 X60.5673 Y17.6763
G01 X60.5742 Y17.6660
G01 X60.5815 Y17.6561
G01 X60.5894 Y17.6465
G01 X60.6019 Y17.6329
G01 X63.9442 Y14.2906
G01 X63.9442 Y12.8200
G01 X63.9448 Y12.8076
G01 X63.9466 Y12.7953
G01 X63.9497 Y12.7832
G01 X63.9539 Y12.7715
G01 X63.9592 Y12.7602
G01 X63.9656 Y12.7496
G01 X63.9730 Y12.7396
G01 X63.9813 Y12.7303
G01 X63.9906 Y12.7220
G01 X64.0006 Y12.7146
G01 X64.0112 Y12.7082
G01 X64.0225 Y12.7029
G01 X64.0342 Y12.6987
G01 X64.0463 Y12.6956
G01 X64.0586 Y12.6938
G01 X64.0710 Y12.6932
G01 X65.8710 Y12.6932
G01 X65.8834 Y12.6938
G01 X65.8957 Y12.6956
G01 X65.9078 Y12.6987
G01 X65.9195 Y12.7029
G01 X65.9308 Y12.7082
G01 X65.9414 Y12.7146
G01 X65.9514 Y12.7220
G01 X65.9607 Y12.7303
G01 X65.9690 Y12.7396
G01 X65.9764 Y12.7496
G01 X65.9828 Y12.7602
G01 X65.9881 Y12.7715
G01 X65.9923 Y12.7832
G01 X65.9954 Y12.7953
G01 X65.9972 Y12.8076
G01 X65.9978 Y12.8200
G01 X65.9978 Y13.3681
G01 X69.9882 Y13.3681
G01 X69.9896 Y13.3393
G01 X69.9908 Y13.3269
G01 X69.9944 Y13.3026
G01 X69.9968 Y13.2904
G01 X70.0028 Y13.2666
G01 X70.0064 Y13.2547
G01 X70.0146 Y13.2316
G01 X70.0194 Y13.2201
G01 X70.0299 Y13.1979
G01 X70.0358 Y13.1870
G01 X70.0484 Y13.1659
G01 X70.0553 Y13.1556
G01 X70.0699 Y13.1359
G01 X70.0778 Y13.1262
G01 X70.0943 Y13.1081
G01 X70.1031 Y13.0993
G01 X70.1212 Y13.0828
G01 X70.1309 Y13.0749
G01 X70.1506 Y13.0603
G01 X70.1609 Y13.0534
G01 X70.1820 Y13.0408
G01 X70.1929 Y13.0349
G01 X70.2151 Y13.0244
G01 X70.2266 Y13.0196
G01 X70.2497 Y13.0114
G01 X70.2616 Y13.0078
G01 X70.2854 Y13.0018
G01 X70.2976 Y12.9994
G01 X70.3219 Y12.9958
G01 X70.3343 Y12.9946
G01 X70.3650 Y12.9932
G01 X71.6650 Y12.9932
G01 X71.6957 Y12.9946
G01 X71.7081 Y12.9958
G01 X71.7324 Y12.9994
G01 X71.7446 Y13.0018
G01 X71.7684 Y13.0078
G01 X71.7803 Y13.0114
G01 X71.8034 Y13.0196
G01 X71.8149 Y13.0244
G01 X71.8371 Y13.0349
G01 X71.8480 Y13.0408
G01 X71.8691 Y13.0534
G01 X71.8794 Y13.0603
G01 X71.8991 Y13.0749
G01 X71.9088 Y13.0828
G01 X71.9269 Y13.0993
G01 X71.9357 Y13.1081
G01 X71.9522 Y13.1262
G01 X71.9601 Y13.1359
G01 X71.9747 Y13.1556
G01 X71.9816 Y13.1659
G01 X71.9942 Y13.1870
G01 X72.0001 Y13.1979
G01 X72.0106 Y13.2201
G01 X72.0154 Y13.2316
G01 X72.0236 Y13.2547
G01 X72.0272 Y13.2666
G01 X72.0332 Y13.2904
G01 X72.0356 Y13.3026
G01 X72.0392 Y13.3269
G01 X72.0404 Y13.3393
G01 X72.0418 Y13.3700
G01 X72.0418 Y14.0200
G01 X72.0404 Y14.0507
G01 X72.0392 Y14.0631
G01 X72.0356 Y14.0874
G01 X72.0332 Y14.0996
G01 X72.0272 Y14.1234
G01 X72.0236 Y14.1353
G01 X72.0154 Y14.1584
G01 X72.0106 Y14.1699
G01 X72.0001 Y14.1921
G01 X71.9942 Y14.2030
G01 X71.9816 Y14.2241
G01 X71.9747 Y14.2344
G01 X71.9601 Y14.2541
G01 X71.9522 Y14.2638
G01 X71.9357 Y14.2819
G01 X71.9269 Y14.2907
G01 X71.9088 Y14.3072
G01 X71.8991 Y14.3151
G01 X71.8794 Y14.3297
G01 X71.8691 Y14.3366
G01 X71.8480 Y14.3492
G01 X71.8371 Y14.3551
G01 X71.8149 Y14.3656
G01 X71.8034 Y14.3704
G01 X71.7803 Y14.3786
G01 X71.7684 Y14.3822
G01 X71.7446 Y14.3882
G01 X71.7324 Y14.3906
G01 X71.7081 Y14.3942
G01 X71.6957 Y14.3954
G01 X71.6650 Y14.3968
G01 X70.3650 Y14.3968
G01 X70.3343 Y14.3954
G01 X70.3219 Y14.3942
G01 X70.2976 Y14.3906
G01 X70.2854 Y14.3882
G01 X70.2616 Y14.3822
G01 X70.2497 Y14.3786
G01 X70.2266 Y14.3704
G01 X70.2151 Y14.3656
G01 X70.1929 Y14.3551
G01 X70.1820 Y14.3492
G01 X70.1609 Y14.3366
G01 X70.1506 Y14.3297
G01 X70.1309 Y14.3151
G01 X70.1212 Y14.3072
G01 X70.1031 Y14.2907
G01 X70.0943 Y14.2819
G01 X70.0778 Y14.2638
G01 X70.0699 Y14.2541
G01 X70.0553 Y14.2344
G01 X70.0484 Y14.2241
G01 X70.0358 Y14.2030
G01 X70.0299 Y14.1921
G01 X70.0194 Y14.1699
G01 X70.0146 Y14.1584
G01 X70.0064 Y14.1353
G01 X70.0028 Y14.1234
G01 X69.9968 Y14.0996
G01 X69.9944 Y14.0874
G01 X69.9908 Y14.0631
G01 X69.9896 Y14.0507
G01 X69.9882 Y14.0200
G01 X69.9882 Y13.8719
G01 X65.9978 Y13.8719
G01 X65.9978 Y14.4200
G01 X65.9972 Y14.4324
G01 X65.9954 Y14.4447
G01 X65.9923 Y14.4568
G01 X65.9881 Y14.4685
G01 X65.9828 Y14.4798
G01 X65.9764 Y14.4904
G01 X65.9690 Y14.5004
G01 X65.9607 Y14.5097
G01 X65.9514 Y14.5180
G01 X65.9414 Y14.5254
G01 X65.9308 Y14.5318
G01 X65.9195 Y14.5371
G01 X65.9078 Y14.5413
G01 X65.8957 Y14.5444
G01 X65.8834 Y14.5462
G01 X65.8710 Y14.5468
G01 X64.4004 Y14.5468
G01 X61.0319 Y17.9153
G01 X61.0319 Y22.8032
G01 X61.6300 Y22.8032
G01 X61.6424 Y22.8038
G01 X61.6547 Y22.8056
G01 X61.6668 Y22.8087
G01 X61.6785 Y22.8129
G01 X61.6898 Y22.8182
G01 X61.7004 Y22.8246
G01 X61.7104 Y22.8320
G01 X61.7197 Y22.8403
G01 X61.7280 Y22.8496
G01 X61.7354 Y22.8596
G01 X61.7418 Y22.8702
G01 X61.7471 Y22.8815
G01 X61.7513 Y22.8932
G01 X61.7544 Y22.9053
G01 X61.7562 Y22.9176
G01 X61.7568 Y22.9300
G01 X61.7568 Y24.6300
G01 X61.7562 Y24.6424
G01 X61.7544 Y24.6547
G01 X61.7513 Y24.6668
G01 X61.7471 Y24.6785
G01 X61.7418 Y24.6898
G01 X61.7354 Y24.7004
G01 X61.7280 Y24.7104
G01 X61.7197 Y24.7197
G01 X61.7104 Y24.7280
G01 X61.7004 Y24.7354
G01 X61.6898 Y24.7418
G01 X61.6785 Y24.7471
G01 X61.6668 Y24.7513
G01 X61.6547 Y24.7544
G01 X61.6424 Y24.7562
G01 X61.6300 Y24.7568
G01 X61.0319 Y24.7568
G01 X61.0319 Y26.9094
G01 X61.0311 Y26.9279
G01 X61.0299 Y26.9403
G01 X61.0281 Y26.9524
G01 X61.0257 Y26.9646
G01 X61.0227 Y26.9765
G01 X61.0191 Y26.9884
G01 X61.0149 Y27.0000
G01 X61.0102 Y27.0115
G01 X61.0049 Y27.0226
G01 X60.9991 Y27.0335
G01 X60.9927 Y27.0441
G01 X60.9858 Y27.0544
G01 X60.9785 Y27.0643
G01 X60.9706 Y27.0739
G01 X60.9581 Y27.0875
G01 X54.2525 Y33.7931
G01 X54.2389 Y33.8056
G01 X54.2293 Y33.8135
G01 X54.2194 Y33.8208
G01 X54.2091 Y33.8277
G01 X54.1985 Y33.8341
G01 X54.1876 Y33.8399
G01 X54.1765 Y33.8452
G01 X54.1650 Y33.8499
G01 X54.1534 Y33.8541
G01 X54.1415 Y33.8577
G01 X54.1296 Y33.8607
G01 X54.1174 Y33.8631
G01 X54.1053 Y33.8649
G01 X54.0929 Y33.8661
G01 X54.0806 Y33.8667
G01 X53.9993 Y33.8669
G01 X53.9946 Y33.8732
G01 X53.9863 Y33.8825
G01 X53.9770 Y33.8908
G01 X53.9670 Y33.8982
G01 X53.9564 Y33.9046
G01 X53.9451 Y33.9099
G01 X53.9334 Y33.9141
G01 X53.9213 Y33.9172
G01 X53.9090 Y33.9190
G01 X53.8966 Y33.9196
G01 X52.4234 Y33.9196
G01 X52.4110 Y33.9190
G01 X52.3987 Y33.9172
G01 X52.3866 Y33.9141
G01 X52.3749 Y33.9099
G01 X52.3636 Y33.9046
G01 X52.3530 Y33.8982
G01 X52.3430 Y33.8908
G01 X52.3337 Y33.8825
G01 X52.3254 Y33.8732
G01 X52.3180 Y33.8632
G01 X52.3116 Y33.8526
G01 X52.3063 Y33.8413
G01 X52.3021 Y33.8296
G01 X52.2990 Y33.8175
G01 X52.2972 Y33.8052
G01 X52.2966 Y33.7928
G01 X52.2966 Y33.4372
G01 X52.2972 Y33.4248
G01 X52.2990 Y33.4125
G01 X52.3021 Y33.4004
G01 X52.3063 Y33.3887
G01 X52.3116 Y33.3774
G01 X52.3180 Y33.3668
G01 X52.3254 Y33.3568
G01 X52.3337 Y33.3475
G01 X52.3430 Y33.3392
G01 X52.3530 Y33.3318
G01 X52.3636 Y33.3254
G01 X52.3749 Y33.3201
G01 X52.3866 Y33.3159
G01 X52.3987 Y33.3128
G01 X52.4110 Y33.3110
G01 X52.4234 Y33.3104
G00 Z2.0000
G00 X52.4234 Y32.6604
G01 F60.00
G01 Z-0.1000
G01 F120.00
G01 X53.8966 Y32.6604
G01 X53.9090 Y32.6610
G01 X53.9213 Y32.6628
G01 X53.9334 Y32.6659
G01 X53.9451 Y32.6701
G01 X53.9564 Y32.6754
G01 X53.9670 Y32.6818
G01 X53.9770 Y32.6892
G01 X53.9863 Y32.6975
G01 X53.9946 Y32.7068
G01 X54.0020 Y32.7168
G01 X54.0084 Y32.7274
G01 X54.0137 Y32.7387
G01 X54.0179 Y32.7504
G01 X54.0210 Y32.7625
G01 X54.0228 Y32.7748
G01 X54.0234 Y32.7872
G01 X54.0234 Y33.1428
G01 X54.0228 Y33.1552
G01 X54.0210 Y33.1675
G01 X54.0179 Y33.1796
G01 X54.0137 Y33.1913
G01 X54.0084 Y33.2026
G01 X54.0020 Y33.2132
G01 X53.9946 Y33.2232
G01 X53.9863 Y33.2325
G01 X53.9770 Y33.2408
G01 X53.9670 Y33.2482
G01 X53.9564 Y33.2546
G01 X53.9451 Y33.2599
G01 X53.9334 Y33.2641
G01 X53.9213 Y33.2672
G01 X53.9090 Y33.2690
G01 X53.8966 Y33.2696
G01 X52.4234 Y33.2696
G01 X52.4110 Y33.2690
G01 X52.3987 Y33.2672
G01 X52.3866 Y33.2641
G01 X52.3749 Y33.2599
G01 X52.3636 Y33.2546
G01 X52.3530 Y33.2482
G01 X52.3430 Y33.2408
G01 X52.3337 Y33.2325
G01 X52.3254 Y33.2232
G01 X52.3180 Y33.2132
G01 X52.3116 Y33.2026
G01 X52.3063 Y33.1913
G01 X52.3021 Y33.1796
G01 X52.2990 Y33.1675
G01 X52.2972 Y33.1552
G01 X52.2966 Y33.1428
G01 X52.2966 Y32.7872
G01 X52.2972 Y32.7748
G01 X52.2990 Y32.7625
G01 X52.3021 Y32.7504
G01 X52.3063 Y32.7387
G01 X52.3116 Y32.7274
G01 X52.3180 Y32.7168
G01 X52.3254 Y32.7068
G01 X52.3337 Y32.6975
G01 X52.3430 Y32.6892
G01 X52.3530 Y32.6818
G01 X52.3636 Y32.6754
G01 X52.3749 Y32.6701
G01 X52.3866 Y32.6659
G01 X52.3987 Y32.6628
G01 X52.4110 Y32.6610
G01 X52.4234 Y32.6604
G00 Z2.0000
G00 X54.4576 Y32.6783
G01 F60.00
G01 Z-0.1000
G01 F120.00
G01 X54.1629 Y32.9731
G01 X54.1629 Y32.7872
G01 X54.1616 Y32.7611
G01 X54.1578 Y32.7353
G01 X54.1514 Y32.7099
G01 X54.1426 Y32.6853
G01 X54.1309 Y32.6609
G01 X54.1443 Y32.6666
G01 X54.2097 Y32.6910
G01 X54.2339 Y32.6987
G01 X54.2586 Y32.7041
G01 X54.2838 Y32.7071
G01 X54.3091 Y32.7077
G01 X54.3344 Y32.7059
G01 X54.3594 Y32.7017
G01 X54.4277 Y32.6868
G01 X54.4552 Y32.6793
G01 X54.4576 Y32.6783
G00 Z2.0000
G00 X54.1476 Y33.9991
G01 F60.00
G01 Z-0.1000
G01 F120.00
G01 X54.1635 Y33.9960
G01 X54.1754 Y33.9930
G01 X54.2004 Y33.9854
G01 X54.2120 Y33.9813
G01 X54.2361 Y33.9713
G01 X54.2472 Y33.9660
G01 X54.2566 Y33.9610
G01 X54.2290 Y34.0115
G01 X54.2179 Y34.0343
G01 X54.2091 Y34.0581
G01 X54.2025 Y34.0825
G01 X54.1983 Y34.1075
G01 X54.1965 Y34.1328
G01 X54.1971 Y34.1581
G01 X54.2021 Y34.2278
G01 X54.2051 Y34.2530
G01 X54.2105 Y34.2778
G01 X54.2182 Y34.3019
G01 X54.2282 Y34.3252
G01 X54.2403 Y34.3474
G01 X54.2545 Y34.3684
G01 X54.2964 Y34.4243
G01 X54.3125 Y34.4439
G01 X54.3304 Y34.4618
G01 X54.3500 Y34.4779
G01 X54.3710 Y34.4921
G01 X54.3932 Y34.5043
G01 X54.4165 Y34.5143
G01 X54.4417 Y34.5237
G01 X54.1501 Y34.5237
G01 X54.1514 Y34.5201
G01 X54.1578 Y34.4947
G01 X54.1616 Y34.4689
G01 X54.1629 Y34.4428
G01 X54.1629 Y34.0872
G01 X54.1616 Y34.0611
G01 X54.1578 Y34.0353
G01 X54.1514 Y34.0099
G01 X54.1476 Y33.9991
G00 Z2.0000
G00 X60.9137 Y34.5228
G01 F60.00
G01 Z-0.1000
G01 F120.00
G01 X60.9129 Y34.5237
G01 X60.9114 Y34.5237
G01 X60.9137 Y34.5228
G00 Z2.0000
G00 X60.3887 Y26.7461
G01 F60.00
G01 Z-0.1000
G01 F120.00
G01 X60.3887 Y26.7473
G01 X60.3876 Y26.7484
G01 X60.3887 Y26.7461
G00 Z2.0000
G00 X61.1713 Y25.1000
G01 F60.00
G01 Z-0.1000
G01 F120.00
G01 X61.1713 Y24.8963
G01 X61.3829 Y24.8963
G01 X61.3635 Y24.9030
G01 X61.3404 Y24.9135
G01 X61.3185 Y24.9262
G01 X61.2979 Y24.9409
G01 X61.2787 Y24.9575
G01 X61.2612 Y24.9758
G01 X61.2155 Y25.0286
G01 X61.1991 Y25.0496
G01 X61.1848 Y25.0720
G01 X61.1729 Y25.0958
G01 X61.1713 Y25.1000
G00 Z2.0000
G00 X60.1848 Y24.8963
G01 F60.00
G01 Z-0.1000
G01 F120.00
G01 X60.3887 Y24.8963
G01 X60.3887 Y25.1077
G01 X60.3820 Y25.0885
G01 X60.3715 Y25.0654
G01 X60.3588 Y25.0435
G01 X60.3441 Y25.0229
G01 X60.3275 Y25.0037
G01 X60.3092 Y24.9862
G01 X60.2564 Y24.9405
G01 X60.2354 Y24.9241
G01 X60.2130 Y24.9098
G01 X60.1892 Y24.8979
G01 X60.1848 Y24.8963
G00 Z2.0000
G00 X60.3887 Y22.4600
G01 F60.00
G01 Z-0.1000
G01 F120.00
G01 X60.3887 Y22.6637
G01 X60.1772 Y22.6637
G01 X60.1965 Y22.6570
G01 X60.2196 Y22.6465
G01 X60.2415 Y22.6338
G01 X60.2621 Y22.6191
G01 X60.2813 Y22.6025
G01 X60.2988 Y22.5842
G01 X60.3445 Y22.5314
G01 X60.3609 Y22.5104
G01 X60.3752 Y22.4880
G01 X60.3871 Y22.4642
G01 X60.3887 Y22.4600
G00 Z2.0000
G00 X61.3752 Y22.6637
G01 F60.00
G01 Z-0.1000
G01 F120.00
G01 X61.1713 Y22.6637
G01 X61.1713 Y22.4523
G01 X61.1780 Y22.4715
G01 X61.1885 Y22.4946
G01 X61.2012 Y22.5165
G01 X61.2159 Y22.5371
G01 X61.2325 Y22.5563
G01 X61.2508 Y22.5738
G01 X61.3036 Y22.6195
G01 X61.3246 Y22.6359
G01 X61.3470 Y22.6502
G01 X61.3708 Y22.6621
G01 X61.3752 Y22.6637
G00 Z2.0000
G00 X61.1713 Y17.9743
G01 F60.00
G01 Z-0.1000
G01 F120.00
G01 X61.1713 Y17.9731
G01 X61.1724 Y17.9720
G01 X61.1713 Y17.9743
G00 Z2.0000
G00 X63.8047 Y14.2316
G01 F60.00
G01 Z-0.1000
G01 F120.00
G01 X63.8047 Y14.2328
G01 X63.8036 Y14.2340
G01 X63.8047 Y14.2316
G00 Z2.0000
G00 X64.4573 Y14.6872
G01 F60.00
G01 Z-0.1000
G01 F120.00
G01 X64.4582 Y14.6863
G01 X64.4598 Y14.6863
G01 X64.4573 Y14.6872
G00 Z2.0000
G00 X66.1373 Y14.2152
G01 F60.00
G01 Z-0.1000
G01 F120.00
G01 X66.1373 Y14.0113
G01 X66.3487 Y14.0113
G01 X66.3295 Y14.0180
G01 X66.3064 Y14.0285
G01 X66.2845 Y14.0412
G01 X66.2639 Y14.0559
G01 X66.2447 Y14.0725
G01 X66.2272 Y14.0908
G01 X66.1815 Y14.1436
G01 X66.1651 Y14.1646
G01 X66.1508 Y14.1870
G01 X66.1389 Y14.2108
G01 X66.1373 Y14.2152
G00 Z2.0000
G00 X66.3410 Y13.2287
G01 F60.00
G01 Z-0.1000
G01 F120.00
G01 X66.1373 Y13.2287
G01 X66.1373 Y13.0171
G01 X66.1440 Y13.0365
G01 X66.1545 Y13.0596
G01 X66.1672 Y13.0815
G01 X66.1819 Y13.1021
G01 X66.1985 Y13.1213
G01 X66.2168 Y13.1388
G01 X66.2696 Y13.1845
G01 X66.2906 Y13.2009
G01 X66.3130 Y13.2152
G01 X66.3368 Y13.2271
G01 X66.3410 Y13.2287
G00 Z2.0000
G00 X69.7016 Y14.0113
G01 F60.00
G01 Z-0.1000
G01 F120.00
G01 X69.8487 Y14.0113
G01 X69.8490 Y14.0331
G01 X69.8502 Y14.0576
G01 X69.8528 Y14.0836
G01 X69.8564 Y14.1078
G01 X69.8602 Y14.1270
G01 X69.8564 Y14.1215
G01 X69.8410 Y14.1014
G01 X69.8238 Y14.0828
G01 X69.8048 Y14.0659
G01 X69.7844 Y14.0510
G01 X69.7626 Y14.0380
G01 X69.7397 Y14.0272
G01 X69.7016 Y14.0113
G00 Z2.0000
G00 X69.8870 Y13.1758
G01 F60.00
G01 Z-0.1000
G01 F120.00
G01 X69.8833 Y13.1846
G01 X69.8751 Y13.2077
G01 X69.8687 Y13.2287
G01 X69.7924 Y13.2287
G01 X69.8133 Y13.2214
G01 X69.8378 Y13.2099
G01 X69.8610 Y13.1959
G01 X69.8827 Y13.1797
G01 X69.8870 Y13.1758
G00 Z2.0000
G00 X76.4113 Y16.3233
G01 F60.00
G01 Z-0.1000
G01 F120.00
G01 X76.4113 Y16.3221
G01 X76.4124 Y16.3210
G01 X76.4113 Y16.3233
G00 Z2.0000
G00 X77.4289 Y14.1317
G01 F60.00
G01 Z-0.1000
G01 F120.00
G01 X77.4383 Y14.1545
G01 X77.4492 Y14.1774
G01 X77.4003 Y14.2262
G01 X77.4085 Y14.2096
G01 X77.4169 Y14.1876
G01 X77.4234 Y14.1648
G01 X77.4279 Y14.1416
G01 X77.4289 Y14.1317
G00 Z2.0000
G00 X78.2713 Y14.4622
G01 F60.00
G01 Z-0.1000
G01 F120.00
G01 X78.2722 Y14.4613
G01 X78.2738 Y14.4613
G01 X78.2713 Y14.4622
G00 Z2.0000
G00 X76.6152 Y22.6637
G01 F60.00
G01 Z-0.1000
G01 F120.00
G01 X76.4113 Y22.6637
G01 X76.4113 Y22.4523
G01 X76.4180 Y22.4715
G01 X76.4285 Y22.4946
G01 X76.4412 Y22.5165
G01 X76.4559 Y22.5371
G01 X76.4725 Y22.5563
G01 X76.4908 Y22.5738
G01 X76.5436 Y22.6195
G01 X76.5646 Y22.6359
G01 X76.5870 Y22.6502
G01 X76.6108 Y22.6621
G01 X76.6152 Y22.6637
G00 Z2.0000
G00 X75.6287 Y22.4600
G01 F60.00
G01 Z-0.1000
G01 F120.00
G01 X75.6287 Y22.6637
G01 X75.4172 Y22.6637
G01 X75.4365 Y22.6570
G01 X75.4596 Y22.6465
G01 X75.4815 Y22.6338
G01 X75.5021 Y22.6191
G01 X75.5213 Y22.6025
G01 X75.5388 Y22.5842
G01 X75.5845 Y22.5314
G01 X75.6009 Y22.5104
G01 X75.6152 Y22.4880
G01 X75.6271 Y22.4642
G01 X75.6287 Y22.4600
G00 Z2.0000
G00 X74.9037 Y23.1848
G01 F60.00
G01 Z-0.1000
G01 F120.00
G01 X74.9037 Y23.3887
G01 X74.6923 Y23.3887
G01 X74.7115 Y23.3820
G01 X74.7346 Y23.3715
G01 X74.7565 Y23.3588
G01 X74.7771 Y23.3441
G01 X74.7963 Y23.3275
G01 X74.8138 Y23.3092
G01 X74.8595 Y23.2564
G01 X74.8759 Y23.2354
G01 X74.8902 Y23.2130
G01 X74.9021 Y23.1892
G01 X74.9037 Y23.1848
G00 Z2.0000
G00 X74.7000 Y24.1713
G01 F60.00
G01 Z-0.1000
G01 F120.00
G01 X74.9037 Y24.1713
G01 X74.9037 Y24.3829
G01 X74.8970 Y24.3635
G01 X74.8865 Y24.3404
G01 X74.8738 Y24.3185
G01 X74.8591 Y24.2979
G01 X74.8425 Y24.2787
G01 X74.8242 Y24.2612
G01 X74.7714 Y24.2155
G01 X74.7504 Y24.1991
G01 X74.7280 Y24.1848
G01 X74.7042 Y24.1729
G01 X74.7000 Y24.1713
G00 Z2.0000
G00 X72.3713 Y24.1722
G01 F60.00
G01 Z-0.1000
G01 F120.00
G01 X72.3721 Y24.1713
G01 X72.3736 Y24.1713
G01 X72.3713 Y24.1722
G00 Z2.0000
M05
G00 Z2.0000
G00 Z5.00
G00 X0.0 Y0.0

