(G-CODE GENERATED BY FLATCAM v8.991 - www.flatcam.org - Version Date: 2019/12/27)

(Name: Current Sense Standalone-PTH.drl_cnc)
(Type: G-code from Excellon)
(Units: MM)

(Created on Wednesday, 06 September 2023 at 17:21)

(Feedrate: 300.0 mm/min)
(Feedrate rapids 1500.0 mm/min)

(Z_Cut: -2.0 mm)
(Z_Move: 2.0 mm)
(Z Toolchange: 15.0 mm)
(X,Y Toolchange: 0.0000, 0.0000 mm)
(Z Start: None mm)
(Z End: 0.5 mm)
(Steps per circle: 64)
(Preprocessor Excellon: default)

(X range:   21.7740 ...   79.0600  mm)
(Y range:   23.2800 ...   45.0350  mm)

(Spindle Speed: None RPM)
G21
G90
G94




G01 F300.00
G00 Z2.0000

M03
G00 X60.7800 Y23.7800
G01 Z-2.0000
G01 Z0
G00 Z2.0000
G00 X63.3200 Y23.7800
G01 Z-2.0000
G01 Z0
G00 Z2.0000
G00 X76.0200 Y23.7800
G01 Z-2.0000
G01 Z0
G00 Z2.0000
G00 X78.5600 Y23.7800
G01 Z-2.0000
G01 Z0
G00 Z2.0000
M03
G00 X24.0240 Y42.7850
G01 Z-2.0000
G01 Z0
G00 Z2.0000
G00 X24.0240 Y35.5850
G01 Z-2.0000
G01 Z0
G00 Z2.0000
G00 X70.5590 Y35.5380
G01 Z-2.0000
G01 Z0
G00 Z2.0000
G00 X70.5590 Y42.7380
G01 Z-2.0000
G01 Z0
G00 Z2.0000
M05
G00 Z0.50
G00 X0.0 Y0.0

