    (G-CODE GENERATED BY FLATCAM v8.994 - www.flatcam.org - Version Date: 2020/11/7)

(Name: Buck Converter-F_Cu.gbr_iso_combined_cnc)
(Type: G-code from Geometry)
(Units: MM)

(Created on Friday, 08 September 2023 at 16:09)

(This preprocessor is the default preprocessor used by FlatCAM.)
(It is made to work with MACH3 compatible motion controllers.)

(TOOL DIAMETER: 0.2536 mm)
(Feedrate_XY: 120.0 mm/min)
(Feedrate_Z: 60.0 mm/min)
(Feedrate rapids 1500.0 mm/min)

(Z_Cut: -0.1 mm)
(Z_Move: 2.0 mm)
(Z Start: None mm)
(Z End: 15.0 mm)
(X,Y End: None mm)
(Steps per circle: 64)
(Preprocessor Geometry: default)

(X range:   -1.4075 ...   89.3347  mm)
(Y range:   -0.6797 ...   56.7727  mm)

(Spindle Speed: 0.0 RPM)
G21
G90
G94

G01 F120.00

M5
G00 Z15.0000
G00 X0.0000 Y0.0000
T2M6    
(MSG, Change to Tool Dia = 0.2536)
M0
G00 Z15.0000

M03
G01 F120.00
G00 X8.8697 Y13.2620
G01 F60.00
G01 Z-0.1000
G01 F120.00
G01 X8.8762 Y13.2755
G01 X8.8825 Y13.2872
G01 X8.8893 Y13.2985
G01 X8.8967 Y13.3095
G01 X8.9046 Y13.3201
G01 X8.9130 Y13.3303
G01 X8.9266 Y13.3448
G01 X8.9362 Y13.3538
G01 X8.9515 Y13.3665
G01 X8.9676 Y13.3780
G01 X9.0325 Y13.4185
G01 X9.0439 Y13.4252
G01 X9.0552 Y13.4312
G01 X8.8919 Y13.4312
G01 X8.8907 Y13.4084
G01 X8.8894 Y13.3954
G01 X8.8697 Y13.2620
G00 Z2.0000
G00 X9.3450 Y14.3533
G01 F60.00
G01 Z-0.1000
G01 F120.00
G01 X9.3395 Y14.3658
G01 X9.3319 Y14.3857
G01 X9.2995 Y14.3533
G01 X9.3450 Y14.3533
G00 Z2.0000
G00 X9.6800 Y14.2138
G01 F60.00
G01 Z-0.1000
G01 F120.00
G01 X9.6666 Y14.2185
G01 X9.6543 Y14.2235
G01 X9.6423 Y14.2290
G01 X9.6249 Y14.2385
G01 X9.6082 Y14.2492
G01 X9.5975 Y14.2570
G01 X9.5823 Y14.2697
G01 X9.5727 Y14.2788
G01 X9.5592 Y14.2933
G01 X9.5134 Y14.3461
G01 X9.5010 Y14.3616
G01 X9.4898 Y14.3779
G01 X9.4830 Y14.3893
G01 X9.4767 Y14.4009
G01 X9.4685 Y14.4190
G01 X9.4638 Y14.4313
G01 X9.4596 Y14.4439
G01 X9.4561 Y14.4566
G01 X9.4521 Y14.4761
G01 X9.4403 Y14.5583
G01 X9.4391 Y14.5715
G01 X9.4384 Y14.5913
G01 X9.4393 Y14.6111
G01 X9.4407 Y14.6243
G01 X9.4427 Y14.6373
G01 X9.4470 Y14.6567
G01 X9.4507 Y14.6694
G01 X9.4573 Y14.6881
G01 X9.4737 Y14.7247
G01 X8.9628 Y14.2138
G01 X9.6800 Y14.2138
G00 Z2.0000
G00 X8.5890 Y14.7497
G01 F60.00
G01 Z-0.1000
G01 F120.00
G01 X8.5306 Y14.9128
G01 X8.5272 Y14.9214
G01 X8.4000 Y15.1904
G01 X8.3957 Y15.1987
G01 X8.2394 Y15.4592
G01 X8.0605 Y15.7007
G01 X8.0546 Y15.7080
G01 X7.8506 Y15.9330
G01 X7.6232 Y16.1390
G01 X7.3768 Y16.3218
G01 X7.1190 Y16.4765
G01 X7.1108 Y16.4810
G01 X6.8362 Y16.6108
G01 X6.5473 Y16.7142
G01 X6.2496 Y16.7887
G01 X5.9461 Y16.8337
G01 X5.6396 Y16.8488
G01 X5.3331 Y16.8337
G01 X5.0296 Y16.7887
G01 X4.7379 Y16.7158
G01 X4.7290 Y16.7132
G01 X4.4430 Y16.6108
G01 X4.1656 Y16.4796
G01 X3.9024 Y16.3218
G01 X3.6560 Y16.1390
G01 X3.4286 Y15.9330
G01 X3.2226 Y15.7056
G01 X3.0398 Y15.4592
G01 X2.8820 Y15.1960
G01 X2.7508 Y14.9186
G01 X2.6474 Y14.6297
G01 X2.5729 Y14.3320
G01 X2.5279 Y14.0285
G01 X2.5128 Y13.7220
G01 X2.5279 Y13.4155
G01 X2.5729 Y13.1120
G01 X2.6458 Y12.8203
G01 X2.6484 Y12.8114
G01 X2.7508 Y12.5254
G01 X2.8792 Y12.2536
G01 X2.8851 Y12.2426
G01 X3.0364 Y11.9901
G01 X3.0433 Y11.9798
G01 X3.2226 Y11.7384
G01 X3.4286 Y11.5110
G01 X3.6560 Y11.3050
G01 X3.8974 Y11.1257
G01 X3.9077 Y11.1188
G01 X4.1602 Y10.9675
G01 X4.1712 Y10.9616
G01 X4.4430 Y10.8332
G01 X4.7319 Y10.7298
G01 X5.0296 Y10.6553
G01 X5.3269 Y10.6110
G01 X5.3393 Y10.6098
G01 X5.6334 Y10.5954
G01 X5.6427 Y10.5952
G01 X5.9461 Y10.6103
G01 X6.2496 Y10.6553
G01 X6.5473 Y10.7298
G01 X6.8362 Y10.8332
G01 X7.1136 Y10.9644
G01 X7.3768 Y11.1222
G01 X7.6232 Y11.3050
G01 X7.8484 Y11.5088
G01 X7.8549 Y11.5155
G01 X8.0566 Y11.7384
G01 X8.2394 Y11.9848
G01 X8.3972 Y12.2480
G01 X8.5272 Y12.5226
G01 X8.5306 Y12.5312
G01 X8.6318 Y12.8143
G01 X8.7057 Y13.1089
G01 X8.7074 Y13.1181
G01 X8.7510 Y13.4124
G01 X8.7518 Y13.4217
G01 X8.7591 Y13.5706
G01 X23.9280 Y13.5706
G01 X23.9527 Y13.5719
G01 X23.9710 Y13.5744
G01 X23.9832 Y13.5768
G01 X24.0041 Y13.5824
G01 X24.0215 Y13.5887
G01 X24.0301 Y13.5923
G01 X24.0467 Y13.6004
G01 X24.0627 Y13.6098
G01 X24.0705 Y13.6148
G01 X24.0854 Y13.6259
G01 X24.0925 Y13.6319
G01 X24.1061 Y13.6444
G01 X29.3412 Y18.8795
G01 X29.3412 Y17.8625
G01 X29.3427 Y17.8287
G01 X29.3438 Y17.8194
G01 X29.3484 Y17.7890
G01 X29.3558 Y17.7591
G01 X29.3584 Y17.7502
G01 X29.3676 Y17.7241
G01 X29.3724 Y17.7126
G01 X29.3857 Y17.6849
G01 X29.4047 Y17.6532
G01 X29.4267 Y17.6235
G01 X29.4516 Y17.5961
G01 X29.4790 Y17.5712
G01 X29.5036 Y17.5528
G01 X29.5139 Y17.5459
G01 X29.5377 Y17.5317
G01 X29.5459 Y17.5274
G01 X29.5738 Y17.5144
G01 X29.6086 Y17.5019
G01 X29.6445 Y17.4929
G01 X29.6780 Y17.4879
G01 X29.6873 Y17.4871
G01 X29.7180 Y17.4857
G01 X30.3211 Y17.4857
G01 X30.3487 Y17.4871
G01 X30.3580 Y17.4879
G01 X30.3885 Y17.4924
G01 X30.3976 Y17.4943
G01 X30.4244 Y17.5011
G01 X30.4333 Y17.5039
G01 X30.4622 Y17.5144
G01 X30.4901 Y17.5274
G01 X30.5010 Y17.5333
G01 X30.5273 Y17.5492
G01 X30.5570 Y17.5712
G01 X30.5844 Y17.5961
G01 X30.6052 Y17.6187
G01 X30.6112 Y17.6259
G01 X30.6313 Y17.6532
G01 X30.6503 Y17.6849
G01 X30.6661 Y17.7183
G01 X30.6766 Y17.7472
G01 X30.6802 Y17.7591
G01 X30.6881 Y17.7920
G01 X30.6930 Y17.8256
G01 X30.6948 Y17.8594
G01 X30.6946 Y21.9687
G01 X30.6930 Y21.9994
G01 X30.6876 Y22.0360
G01 X30.6786 Y22.0719
G01 X30.6684 Y22.1009
G01 X30.6636 Y22.1124
G01 X30.6517 Y22.1374
G01 X30.6472 Y22.1455
G01 X30.6313 Y22.1718
G01 X30.6093 Y22.2015
G01 X30.5844 Y22.2289
G01 X30.5570 Y22.2538
G01 X30.5273 Y22.2758
G01 X30.5010 Y22.2917
G01 X30.4929 Y22.2962
G01 X30.4679 Y22.3081
G01 X30.4564 Y22.3129
G01 X30.4274 Y22.3231
G01 X30.3976 Y22.3307
G01 X30.3885 Y22.3326
G01 X30.3549 Y22.3375
G01 X30.3180 Y22.3393
G01 X29.7180 Y22.3393
G01 X29.6873 Y22.3379
G01 X29.6780 Y22.3371
G01 X29.6445 Y22.3321
G01 X29.6086 Y22.3231
G01 X29.5738 Y22.3106
G01 X29.5404 Y22.2948
G01 X29.5087 Y22.2758
G01 X29.4790 Y22.2538
G01 X29.4516 Y22.2289
G01 X29.4287 Y22.2039
G01 X29.4229 Y22.1966
G01 X29.4047 Y22.1718
G01 X29.3888 Y22.1455
G01 X29.3843 Y22.1374
G01 X29.3724 Y22.1124
G01 X29.3676 Y22.1009
G01 X29.3574 Y22.0719
G01 X29.3484 Y22.0360
G01 X29.3430 Y21.9994
G01 X29.3412 Y21.9656
G01 X29.3412 Y19.5919
G01 X23.8237 Y14.0744
G01 X8.7447 Y14.0744
G01 X8.7294 Y14.1777
G01 X11.5233 Y16.9716
G01 X11.5377 Y16.9877
G01 X11.5524 Y17.0076
G01 X11.5651 Y17.0288
G01 X11.5745 Y17.0483
G01 X11.5821 Y17.0685
G01 X11.5857 Y17.0804
G01 X11.5906 Y17.1014
G01 X11.5939 Y17.1259
G01 X11.5949 Y17.1475
G01 X11.5947 Y48.6037
G01 X11.5936 Y48.6222
G01 X11.5900 Y48.6466
G01 X11.5840 Y48.6706
G01 X11.5757 Y48.6939
G01 X11.5651 Y48.7162
G01 X11.5524 Y48.7374
G01 X11.5377 Y48.7573
G01 X11.5233 Y48.7734
G01 X9.3948 Y50.9019
G01 X9.3948 Y53.4256
G01 X9.3930 Y53.4594
G01 X9.3876 Y53.4960
G01 X9.3786 Y53.5319
G01 X9.3684 Y53.5609
G01 X9.3649 Y53.5696
G01 X9.3531 Y53.5946
G01 X9.3472 Y53.6055
G01 X9.3313 Y53.6318
G01 X9.3131 Y53.6566
G01 X9.3073 Y53.6639
G01 X9.2844 Y53.6889
G01 X9.2570 Y53.7138
G01 X9.2273 Y53.7358
G01 X9.2010 Y53.7517
G01 X9.1929 Y53.7562
G01 X9.1622 Y53.7706
G01 X9.1333 Y53.7811
G01 X9.1244 Y53.7839
G01 X9.0976 Y53.7907
G01 X9.0885 Y53.7926
G01 X9.0580 Y53.7971
G01 X9.0487 Y53.7979
G01 X9.0180 Y53.7993
G01 X7.0118 Y53.7991
G01 X6.9811 Y53.7975
G01 X6.9445 Y53.7921
G01 X6.9086 Y53.7831
G01 X6.8738 Y53.7706
G01 X6.8404 Y53.7548
G01 X6.8087 Y53.7358
G01 X6.7790 Y53.7138
G01 X6.7538 Y53.6911
G01 X6.7473 Y53.6844
G01 X6.7267 Y53.6615
G01 X6.7083 Y53.6369
G01 X6.7030 Y53.6292
G01 X6.6888 Y53.6055
G01 X6.6829 Y53.5946
G01 X6.6699 Y53.5667
G01 X6.6574 Y53.5319
G01 X6.6484 Y53.4960
G01 X6.6438 Y53.4656
G01 X6.6427 Y53.4563
G01 X6.6412 Y53.4225
G01 X6.6412 Y50.4194
G01 X6.6430 Y50.3856
G01 X6.6479 Y50.3520
G01 X6.6558 Y50.3191
G01 X6.6594 Y50.3072
G01 X6.6699 Y50.2783
G01 X6.6857 Y50.2449
G01 X6.7047 Y50.2132
G01 X6.7248 Y50.1859
G01 X6.7308 Y50.1787
G01 X6.7516 Y50.1561
G01 X6.7790 Y50.1312
G01 X6.8087 Y50.1092
G01 X6.8404 Y50.0902
G01 X6.8738 Y50.0744
G01 X6.9086 Y50.0619
G01 X6.9445 Y50.0529
G01 X6.9749 Y50.0483
G01 X6.9873 Y50.0471
G01 X7.0180 Y50.0457
G01 X9.0211 Y50.0457
G01 X9.0518 Y50.0472
G01 X9.0611 Y50.0483
G01 X9.0915 Y50.0529
G01 X9.1244 Y50.0611
G01 X9.1333 Y50.0639
G01 X9.1622 Y50.0744
G01 X9.1901 Y50.0874
G01 X9.2010 Y50.0933
G01 X9.2273 Y50.1092
G01 X9.2521 Y50.1274
G01 X9.2618 Y50.1353
G01 X9.2844 Y50.1561
G01 X9.3052 Y50.1787
G01 X9.3131 Y50.1884
G01 X9.3313 Y50.2132
G01 X9.3463 Y50.2380
G01 X11.0911 Y48.4932
G01 X11.0911 Y17.2518
G01 X8.5890 Y14.7497
G00 Z2.0000
G00 X8.8883 Y15.2462
G01 F60.00
G01 Z-0.1000
G01 F120.00
G01 X8.8695 Y15.2374
G01 X8.8572 Y15.2325
G01 X8.8446 Y15.2283
G01 X8.8319 Y15.2247
G01 X8.8190 Y15.2217
G01 X8.8060 Y15.2194
G01 X8.7929 Y15.2177
G01 X8.7731 Y15.2164
G01 X8.7533 Y15.2166
G01 X8.6770 Y15.2220
G01 X8.6573 Y15.2241
G01 X8.6377 Y15.2277
G01 X8.6186 Y15.2328
G01 X8.5998 Y15.2393
G01 X8.5876 Y15.2443
G01 X8.5757 Y15.2500
G01 X8.5583 Y15.2596
G01 X8.5472 Y15.2667
G01 X8.5364 Y15.2744
G01 X8.4939 Y15.3062
G01 X8.5171 Y15.2674
G01 X8.5232 Y15.2559
G01 X8.6436 Y15.0015
G01 X8.8883 Y15.2462
G00 Z2.0000
G00 X10.9517 Y17.3105
G01 F60.00
G01 Z-0.1000
G01 F120.00
G01 X10.9514 Y17.3096
G01 X10.9512 Y17.3092
G01 X10.9517 Y17.3096
G01 X10.9517 Y17.3105
G00 Z2.0000
G00 X23.7665 Y14.2145
G01 F60.00
G01 Z-0.1000
G01 F120.00
G01 X23.7657 Y14.2141
G01 X23.7653 Y14.2138
G01 X23.7659 Y14.2138
G01 X23.7665 Y14.2145
G00 Z2.0000
G00 X28.7064 Y18.0474
G01 F60.00
G01 Z-0.1000
G01 F120.00
G01 X28.7192 Y18.0537
G01 X28.7313 Y18.0588
G01 X28.7438 Y18.0634
G01 X28.7628 Y18.0690
G01 X28.7757 Y18.0720
G01 X28.7887 Y18.0743
G01 X28.8084 Y18.0766
G01 X28.8216 Y18.0773
G01 X28.8348 Y18.0773
G01 X28.8480 Y18.0767
G01 X28.9177 Y18.0717
G01 X28.9309 Y18.0704
G01 X28.9440 Y18.0685
G01 X28.9569 Y18.0659
G01 X28.9698 Y18.0627
G01 X28.9887 Y18.0567
G01 X29.0010 Y18.0520
G01 X29.0190 Y18.0437
G01 X29.0307 Y18.0374
G01 X29.0475 Y18.0269
G01 X29.0583 Y18.0193
G01 X29.1142 Y17.9774
G01 X29.1243 Y17.9694
G01 X29.1341 Y17.9610
G01 X29.1434 Y17.9521
G01 X29.1565 Y17.9379
G01 X29.1646 Y17.9280
G01 X29.1723 Y17.9176
G01 X29.1828 Y17.9015
G01 X29.1892 Y17.8903
G01 X29.1950 Y17.8788
G01 X29.2017 Y17.8635
G01 X29.2017 Y18.5428
G01 X28.7064 Y18.0474
G00 Z2.0000
G00 X29.0419 Y18.1857
G01 F60.00
G01 Z-0.1000
G01 F120.00
G01 X29.0622 Y18.1774
G01 X29.0622 Y18.2060
G01 X29.0419 Y18.1857
G00 Z2.0000
G00 X29.2017 Y19.6507
G01 F60.00
G01 Z-0.1000
G01 F120.00
G01 X29.2014 Y19.6496
G01 X29.2012 Y19.6492
G01 X29.2017 Y19.6497
G01 X29.2017 Y19.6507
G00 Z2.0000
G00 X31.0182 Y17.5358
G01 F60.00
G01 Z-0.1000
G01 F120.00
G01 X30.9963 Y17.5650
G01 X30.9887 Y17.5757
G01 X30.9658 Y17.6134
G01 X30.9597 Y17.6249
G01 X30.9463 Y17.6530
G01 X30.9410 Y17.6649
G01 X30.9363 Y17.6771
G01 X30.9240 Y17.7126
G01 X30.9145 Y17.7490
G01 X30.9116 Y17.7618
G01 X30.9094 Y17.7747
G01 X30.9042 Y17.8119
G01 X30.9018 Y17.8560
G01 X30.9017 Y21.9625
G01 X30.9020 Y21.9756
G01 X30.9042 Y22.0131
G01 X30.9094 Y22.0503
G01 X30.9116 Y22.0632
G01 X30.9145 Y22.0760
G01 X30.9240 Y22.1124
G01 X30.9363 Y22.1479
G01 X30.9410 Y22.1601
G01 X30.9463 Y22.1720
G01 X30.9597 Y22.2001
G01 X30.9691 Y22.2172
G01 X30.9852 Y22.2439
G01 X30.9924 Y22.2547
G01 X31.0148 Y22.2849
G01 X31.0231 Y22.2950
G01 X31.0102 Y22.2883
G01 X30.9981 Y22.2828
G01 X30.9858 Y22.2780
G01 X30.9670 Y22.2719
G01 X30.9541 Y22.2686
G01 X30.9347 Y22.2649
G01 X30.9150 Y22.2626
G01 X30.9017 Y22.2619
G01 X30.8885 Y22.2618
G01 X30.8753 Y22.2625
G01 X30.8056 Y22.2675
G01 X30.7858 Y22.2696
G01 X30.7727 Y22.2719
G01 X30.7533 Y22.2765
G01 X30.7343 Y22.2826
G01 X30.7178 Y22.2892
G01 X30.7397 Y22.2600
G01 X30.7473 Y22.2493
G01 X30.7702 Y22.2116
G01 X30.7763 Y22.2001
G01 X30.7897 Y22.1720
G01 X30.7950 Y22.1601
G01 X30.7997 Y22.1479
G01 X30.8120 Y22.1124
G01 X30.8215 Y22.0760
G01 X30.8244 Y22.0632
G01 X30.8266 Y22.0503
G01 X30.8318 Y22.0131
G01 X30.8342 Y21.9690
G01 X30.8343 Y17.8625
G01 X30.8340 Y17.8494
G01 X30.8318 Y17.8119
G01 X30.8266 Y17.7747
G01 X30.8244 Y17.7618
G01 X30.8215 Y17.7490
G01 X30.8120 Y17.7126
G01 X30.7997 Y17.6771
G01 X30.7950 Y17.6649
G01 X30.7897 Y17.6530
G01 X30.7763 Y17.6249
G01 X30.7669 Y17.6078
G01 X30.7508 Y17.5811
G01 X30.7436 Y17.5703
G01 X30.7212 Y17.5401
G01 X30.7130 Y17.5301
G01 X30.7257 Y17.5367
G01 X30.7378 Y17.5421
G01 X30.7501 Y17.5470
G01 X30.7690 Y17.5531
G01 X30.7882 Y17.5578
G01 X30.8012 Y17.5601
G01 X30.8144 Y17.5618
G01 X30.8342 Y17.5631
G01 X30.8474 Y17.5632
G01 X30.8606 Y17.5625
G01 X30.9303 Y17.5576
G01 X30.9501 Y17.5554
G01 X30.9698 Y17.5517
G01 X30.9827 Y17.5485
G01 X31.0017 Y17.5424
G01 X31.0182 Y17.5358
G00 Z2.0000
G00 X31.2796 Y17.5121
G01 F60.00
G01 Z-0.1000
G01 F120.00
G01 X31.2681 Y17.5169
G01 X31.2377 Y17.5317
G01 X31.2087 Y17.5492
G01 X31.1814 Y17.5693
G01 X31.1561 Y17.5918
G01 X31.1473 Y17.6006
G01 X31.1267 Y17.6235
G01 X31.1065 Y17.6506
G01 X31.0888 Y17.6795
G01 X31.0829 Y17.6904
G01 X31.0699 Y17.7183
G01 X31.0574 Y17.7531
G01 X31.0498 Y17.7829
G01 X31.0474 Y17.7951
G01 X31.0430 Y17.8256
G01 X31.0414 Y17.8563
G01 X31.0412 Y21.9625
G01 X31.0426 Y21.9932
G01 X31.0438 Y22.0056
G01 X31.0484 Y22.0360
G01 X31.0566 Y22.0689
G01 X31.0676 Y22.1009
G01 X31.0724 Y22.1124
G01 X31.0857 Y22.1401
G01 X31.1047 Y22.1718
G01 X31.1267 Y22.2015
G01 X31.1473 Y22.2244
G01 X31.1561 Y22.2332
G01 X31.1766 Y22.2518
G01 X31.1839 Y22.2576
G01 X31.2087 Y22.2758
G01 X31.2404 Y22.2948
G01 X31.2738 Y22.3106
G01 X31.3027 Y22.3211
G01 X31.3146 Y22.3247
G01 X31.3475 Y22.3326
G01 X31.3811 Y22.3375
G01 X31.4149 Y22.3393
G01 X32.0211 Y22.3393
G01 X32.0487 Y22.3379
G01 X32.0580 Y22.3371
G01 X32.0885 Y22.3326
G01 X32.0976 Y22.3307
G01 X32.1274 Y22.3231
G01 X32.1564 Y22.3129
G01 X32.1651 Y22.3094
G01 X32.1901 Y22.2976
G01 X32.2010 Y22.2917
G01 X32.2273 Y22.2758
G01 X32.2570 Y22.2538
G01 X32.2799 Y22.2332
G01 X32.2887 Y22.2244
G01 X32.3093 Y22.2015
G01 X32.3277 Y22.1769
G01 X32.3346 Y22.1666
G01 X32.3503 Y22.1401
G01 X32.3636 Y22.1124
G01 X32.3673 Y22.1038
G01 X32.3786 Y22.0719
G01 X32.3876 Y22.0360
G01 X32.3930 Y21.9994
G01 X32.3948 Y21.9625
G01 X32.3948 Y18.1287
G01 X32.7529 Y17.7706
G01 X32.7479 Y17.7920
G01 X32.7434 Y17.8225
G01 X32.7426 Y17.8318
G01 X32.7412 Y17.8594
G01 X32.7412 Y18.1314
G01 X32.7110 Y18.1618
G01 X32.7051 Y18.1687
G01 X32.6998 Y18.1760
G01 X32.6935 Y18.1863
G01 X32.6572 Y18.2532
G01 X32.6513 Y18.2676
G01 X32.6472 Y18.2826
G01 X32.6453 Y18.2949
G01 X32.6424 Y18.3212
G01 X32.6417 Y18.3314
G01 X32.6417 Y22.0060
G01 X32.6333 Y22.0886
G01 X32.5871 Y22.2279
G01 X32.5106 Y22.3520
G01 X32.4075 Y22.4551
G01 X32.2834 Y22.5316
G01 X32.1441 Y22.5778
G01 X32.0616 Y22.5862
G01 X31.3745 Y22.5862
G01 X31.2919 Y22.5778
G01 X31.1526 Y22.5316
G01 X31.0036 Y22.4397
G01 X30.9955 Y22.4351
G01 X30.9841 Y22.4299
G01 X30.9710 Y22.4255
G01 X30.9495 Y22.4139
G01 X30.9349 Y22.4079
G01 X30.9259 Y22.4052
G01 X30.9166 Y22.4032
G01 X30.9042 Y22.4016
G01 X30.8947 Y22.4013
G01 X30.8853 Y22.4016
G01 X30.8093 Y22.4072
G01 X30.7937 Y22.4101
G01 X30.7786 Y22.4149
G01 X30.7643 Y22.4216
G01 X30.7484 Y22.4314
G01 X30.7351 Y22.4381
G01 X30.5834 Y22.5316
G01 X30.4441 Y22.5778
G01 X30.3616 Y22.5862
G01 X29.6745 Y22.5862
G01 X29.5919 Y22.5778
G01 X29.4526 Y22.5316
G01 X29.3285 Y22.4551
G01 X29.2254 Y22.3520
G01 X29.1489 Y22.2279
G01 X29.1027 Y22.0886
G01 X29.0943 Y22.0061
G01 X29.0943 Y19.7949
G01 X29.0930 Y19.7799
G01 X29.0907 Y19.7681
G01 X29.0686 Y19.6922
G01 X29.0654 Y19.6834
G01 X29.0602 Y19.6721
G01 X29.0555 Y19.6640
G01 X29.0503 Y19.6563
G01 X29.0299 Y19.6307
G01 X29.0208 Y19.6206
G01 X23.7949 Y14.3947
G01 X23.7883 Y14.3885
G01 X23.7812 Y14.3828
G01 X23.7686 Y14.3745
G01 X23.7047 Y14.3395
G01 X23.6906 Y14.3329
G01 X23.6758 Y14.3281
G01 X23.6636 Y14.3256
G01 X23.6311 Y14.3219
G01 X23.6175 Y14.3212
G01 X9.8275 Y14.3212
G01 X9.8184 Y14.3215
G01 X9.8094 Y14.3225
G01 X9.8005 Y14.3241
G01 X9.7917 Y14.3263
G01 X9.7187 Y14.3479
G01 X9.7070 Y14.3527
G01 X9.6959 Y14.3585
G01 X9.6879 Y14.3636
G01 X9.6804 Y14.3693
G01 X9.6688 Y14.3800
G01 X9.6188 Y14.4375
G01 X9.6093 Y14.4500
G01 X9.6028 Y14.4608
G01 X9.5974 Y14.4721
G01 X9.5932 Y14.4840
G01 X9.5902 Y14.4962
G01 X9.5788 Y14.5747
G01 X9.5779 Y14.5873
G01 X9.5786 Y14.6030
G01 X9.5800 Y14.6124
G01 X9.5820 Y14.6216
G01 X9.5847 Y14.6306
G01 X9.5881 Y14.6394
G01 X9.6211 Y14.7115
G01 X9.6292 Y14.7250
G01 X9.6368 Y14.7349
G01 X9.6501 Y14.7493
G01 X11.6371 Y16.7364
G01 X11.6448 Y16.7434
G01 X11.6566 Y16.7529
G01 X11.6999 Y16.7990
G01 X11.7184 Y16.8176
G01 X11.7287 Y16.8297
G01 X11.7497 Y16.8520
G01 X11.7549 Y16.8613
G01 X11.7674 Y16.8803
G01 X11.7757 Y16.8916
G01 X11.7892 Y16.9224
G01 X11.7956 Y16.9356
G01 X11.8104 Y16.9625
G01 X11.8142 Y16.9759
G01 X11.8216 Y16.9974
G01 X11.8257 Y17.0073
G01 X11.8311 Y17.0405
G01 X11.8341 Y17.0548
G01 X11.8417 Y17.0845
G01 X11.8419 Y17.0952
G01 X11.8436 Y17.1178
G01 X11.8454 Y17.1317
G01 X11.8426 Y17.1622
G01 X11.8417 Y17.1828
G01 X11.8417 Y48.5148
G01 X11.8421 Y48.5252
G01 X11.8437 Y48.5403
G01 X11.8418 Y48.6034
G01 X11.8417 Y48.6296
G01 X11.8405 Y48.6455
G01 X11.8395 Y48.6761
G01 X11.8360 Y48.6897
G01 X11.8314 Y48.7120
G01 X11.8299 Y48.7225
G01 X11.8186 Y48.7510
G01 X11.8138 Y48.7649
G01 X11.8043 Y48.7971
G01 X11.7975 Y48.8094
G01 X11.7876 Y48.8298
G01 X11.7835 Y48.8397
G01 X11.7638 Y48.8670
G01 X11.7558 Y48.8792
G01 X11.7402 Y48.9056
G01 X11.7306 Y48.9157
G01 X11.7158 Y48.9331
G01 X11.7094 Y48.9416
G01 X11.6858 Y48.9612
G01 X11.6706 Y48.9751
G01 X9.7152 Y50.9306
G01 X9.7051 Y50.9419
G01 X9.6965 Y50.9543
G01 X9.6600 Y51.0208
G01 X9.6559 Y51.0292
G01 X9.6503 Y51.0437
G01 X9.6466 Y51.0588
G01 X9.6453 Y51.0680
G01 X9.6424 Y51.0944
G01 X9.6417 Y51.1080
G01 X9.6417 Y53.4660
G01 X9.6333 Y53.5486
G01 X9.5871 Y53.6879
G01 X9.5106 Y53.8120
G01 X9.4075 Y53.9151
G01 X9.2834 Y53.9916
G01 X9.1441 Y54.0378
G01 X9.0616 Y54.0462
G01 X6.9745 Y54.0462
G01 X6.8919 Y54.0378
G01 X6.7526 Y53.9916
G01 X6.6285 Y53.9151
G01 X6.5254 Y53.8120
G01 X6.4489 Y53.6879
G01 X6.4027 Y53.5486
G01 X6.3943 Y53.4661
G01 X6.3943 Y50.3790
G01 X6.4027 Y50.2964
G01 X6.4489 Y50.1571
G01 X6.5254 Y50.0330
G01 X6.6285 Y49.9299
G01 X6.7526 Y49.8534
G01 X6.8919 Y49.8072
G01 X6.9745 Y49.7988
G01 X9.0615 Y49.7988
G01 X9.1441 Y49.8072
G01 X9.2134 Y49.8302
G01 X9.2251 Y49.8331
G01 X9.2370 Y49.8350
G01 X9.2460 Y49.8356
G01 X9.3158 Y49.8380
G01 X9.3250 Y49.8380
G01 X9.3341 Y49.8373
G01 X9.3461 Y49.8354
G01 X9.3579 Y49.8323
G01 X9.3665 Y49.8293
G01 X9.3804 Y49.8229
G01 X9.4425 Y49.7874
G01 X9.4552 Y49.7787
G01 X9.4645 Y49.7707
G01 X10.7708 Y48.4644
G01 X10.7809 Y48.4531
G01 X10.7895 Y48.4407
G01 X10.8274 Y48.3714
G01 X10.8326 Y48.3601
G01 X10.8366 Y48.3483
G01 X10.8388 Y48.3393
G01 X10.8407 Y48.3270
G01 X10.8439 Y48.2972
G01 X10.8443 Y48.2870
G01 X10.8443 Y17.4580
G01 X10.8437 Y17.4459
G01 X10.8425 Y17.4369
G01 X10.8400 Y17.4251
G01 X10.8195 Y17.3552
G01 X10.8142 Y17.3406
G01 X10.8072 Y17.3267
G01 X10.8003 Y17.3163
G01 X10.7799 Y17.2907
G01 X10.7708 Y17.2806
G01 X8.9145 Y15.4243
G01 X8.9054 Y15.4164
G01 X8.8930 Y15.4078
G01 X8.8236 Y15.3698
G01 X8.8122 Y15.3646
G01 X8.8033 Y15.3615
G01 X8.7941 Y15.3590
G01 X8.7818 Y15.3568
G01 X8.7723 Y15.3560
G01 X8.7598 Y15.3559
G01 X8.6838 Y15.3614
G01 X8.6682 Y15.3638
G01 X8.6531 Y15.3682
G01 X8.6387 Y15.3744
G01 X8.6251 Y15.3824
G01 X8.5640 Y15.4279
G01 X8.5522 Y15.4380
G01 X8.5417 Y15.4494
G01 X8.5290 Y15.4672
G01 X8.3727 Y15.7077
G01 X8.1502 Y15.9825
G01 X7.9001 Y16.2326
G01 X7.6253 Y16.4551
G01 X7.3288 Y16.6477
G01 X7.0137 Y16.8083
G01 X6.6836 Y16.9350
G01 X6.3420 Y17.0265
G01 X5.9927 Y17.0818
G01 X5.6396 Y17.1003
G01 X5.2865 Y17.0818
G01 X4.9372 Y17.0265
G01 X4.5956 Y16.9350
G01 X4.2655 Y16.8083
G01 X3.9504 Y16.6477
G01 X3.6539 Y16.4551
G01 X3.3791 Y16.2326
G01 X3.1290 Y15.9825
G01 X2.9065 Y15.7077
G01 X2.7139 Y15.4112
G01 X2.5533 Y15.0961
G01 X2.4266 Y14.7660
G01 X2.3351 Y14.4244
G01 X2.2798 Y14.0751
G01 X2.2613 Y13.7220
G01 X2.2792 Y13.3799
G01 X2.2798 Y13.3689
G01 X2.3351 Y13.0196
G01 X2.4266 Y12.6780
G01 X2.5533 Y12.3479
G01 X2.7139 Y12.0328
G01 X2.9065 Y11.7363
G01 X3.1290 Y11.4615
G01 X3.3791 Y11.2114
G01 X3.6539 Y10.9889
G01 X3.9504 Y10.7963
G01 X4.2655 Y10.6357
G01 X4.5956 Y10.5090
G01 X4.9372 Y10.4175
G01 X5.2865 Y10.3622
G01 X5.6396 Y10.3437
G01 X5.9927 Y10.3622
G01 X6.3420 Y10.4175
G01 X6.6836 Y10.5090
G01 X7.0137 Y10.6357
G01 X7.3288 Y10.7963
G01 X7.6253 Y10.9889
G01 X7.9001 Y11.2114
G01 X8.1502 Y11.4615
G01 X8.3727 Y11.7363
G01 X8.5653 Y12.0328
G01 X8.7259 Y12.3479
G01 X8.8526 Y12.6780
G01 X8.9441 Y13.0196
G01 X8.9593 Y13.1152
G01 X8.9629 Y13.1299
G01 X8.9682 Y13.1440
G01 X8.9994 Y13.2099
G01 X9.0037 Y13.2182
G01 X9.0087 Y13.2263
G01 X9.0143 Y13.2339
G01 X9.0204 Y13.2411
G01 X9.0270 Y13.2478
G01 X9.0366 Y13.2560
G01 X9.0443 Y13.2615
G01 X9.1116 Y13.3033
G01 X9.1229 Y13.3088
G01 X9.1317 Y13.3123
G01 X9.1407 Y13.3150
G01 X9.1530 Y13.3176
G01 X9.1922 Y13.3230
G01 X9.2065 Y13.3238
G01 X23.8453 Y13.3238
G01 X23.8557 Y13.3234
G01 X23.8707 Y13.3218
G01 X23.9339 Y13.3237
G01 X23.9601 Y13.3238
G01 X23.9760 Y13.3250
G01 X24.0066 Y13.3260
G01 X24.0202 Y13.3295
G01 X24.0425 Y13.3341
G01 X24.0530 Y13.3356
G01 X24.0815 Y13.3469
G01 X24.0954 Y13.3517
G01 X24.1276 Y13.3612
G01 X24.1369 Y13.3664
G01 X24.1573 Y13.3765
G01 X24.1702 Y13.3820
G01 X24.1975 Y13.4017
G01 X24.2097 Y13.4097
G01 X24.2361 Y13.4253
G01 X24.2437 Y13.4327
G01 X24.2610 Y13.4475
G01 X24.2721 Y13.4561
G01 X24.2917 Y13.4797
G01 X24.3056 Y13.4949
G01 X28.6802 Y17.8694
G01 X28.6870 Y17.8754
G01 X28.6941 Y17.8809
G01 X28.7069 Y17.8889
G01 X28.7738 Y17.9253
G01 X28.7854 Y17.9302
G01 X28.7975 Y17.9339
G01 X28.8129 Y17.9369
G01 X28.8223 Y17.9377
G01 X28.8318 Y17.9379
G01 X28.9109 Y17.9323
G01 X28.9264 Y17.9298
G01 X28.9386 Y17.9265
G01 X28.9503 Y17.9219
G01 X28.9615 Y17.9162
G01 X28.9722 Y17.9095
G01 X29.0306 Y17.8657
G01 X29.0378 Y17.8600
G01 X29.0445 Y17.8537
G01 X29.0507 Y17.8470
G01 X29.0600 Y17.8348
G01 X29.0649 Y17.8269
G01 X29.0691 Y17.8188
G01 X29.0801 Y17.7917
G01 X29.0869 Y17.7797
G01 X29.0920 Y17.7683
G01 X29.1489 Y17.5971
G01 X29.2254 Y17.4730
G01 X29.3285 Y17.3699
G01 X29.4526 Y17.2934
G01 X29.5919 Y17.2472
G01 X29.6745 Y17.2388
G01 X30.3615 Y17.2388
G01 X30.4441 Y17.2472
G01 X30.5834 Y17.2934
G01 X30.7378 Y17.3885
G01 X30.7519 Y17.3951
G01 X30.7649 Y17.3995
G01 X30.7864 Y17.4111
G01 X30.7951 Y17.4149
G01 X30.8040 Y17.4180
G01 X30.8131 Y17.4205
G01 X30.8224 Y17.4223
G01 X30.8318 Y17.4234
G01 X30.8412 Y17.4237
G01 X30.8507 Y17.4234
G01 X30.9235 Y17.4182
G01 X30.9360 Y17.4163
G01 X30.9483 Y17.4132
G01 X30.9603 Y17.4089
G01 X30.9717 Y17.4035
G01 X30.9876 Y17.3937
G01 X30.9955 Y17.3899
G01 X31.0036 Y17.3853
G01 X31.1002 Y17.3257
G01 X31.1125 Y17.3171
G01 X31.1216 Y17.3091
G01 X31.1279 Y17.3026
G01 X31.1766 Y17.2484
G01 X31.1842 Y17.2387
G01 X31.1907 Y17.2283
G01 X31.1974 Y17.2145
G01 X31.2025 Y17.1999
G01 X31.2168 Y17.1373
G01 X31.2187 Y17.1249
G01 X31.2193 Y17.1123
G01 X31.2193 Y6.6401
G01 X31.2189 Y6.6296
G01 X31.2173 Y6.6146
G01 X31.2192 Y6.5514
G01 X31.2193 Y6.5252
G01 X31.2205 Y6.5093
G01 X31.2215 Y6.4787
G01 X31.2250 Y6.4652
G01 X31.2296 Y6.4429
G01 X31.2311 Y6.4323
G01 X31.2424 Y6.4038
G01 X31.2472 Y6.3900
G01 X31.2567 Y6.3577
G01 X31.2619 Y6.3484
G01 X31.2720 Y6.3280
G01 X31.2775 Y6.3152
G01 X31.2965 Y6.2888
G01 X31.3042 Y6.2752
G01 X31.3256 Y6.2312
G01 X31.3300 Y6.2195
G01 X31.3351 Y6.2021
G01 X31.3992 Y6.0936
G01 X31.5992 Y5.8936
G01 X31.6074 Y5.8847
G01 X31.6146 Y5.8750
G01 X31.6194 Y5.8673
G01 X31.6558 Y5.8006
G01 X31.6621 Y5.7864
G01 X31.6665 Y5.7715
G01 X31.6691 Y5.7562
G01 X31.6723 Y5.7264
G01 X31.6727 Y5.7162
G01 X31.6727 Y4.4850
G01 X31.6767 Y4.4480
G01 X31.7150 Y4.3452
G01 X31.7794 Y4.2591
G01 X31.8655 Y4.1947
G01 X31.9683 Y4.1564
G01 X32.0053 Y4.1524
G01 X32.1256 Y4.1524
G01 X32.1407 Y4.1515
G01 X32.1496 Y4.1501
G01 X32.1584 Y4.1481
G01 X32.2314 Y4.1267
G01 X32.2432 Y4.1222
G01 X32.2517 Y4.1181
G01 X32.2625 Y4.1117
G01 X32.2727 Y4.1043
G01 X32.2798 Y4.0980
G01 X32.2864 Y4.0913
G01 X32.3170 Y4.0560
G01 X37.6092 Y4.0560
G01 X37.6092 Y4.3485
G01 X35.8250 Y4.3485
G01 X35.8100 Y4.3498
G01 X35.7952 Y4.3528
G01 X35.7252 Y4.3733
G01 X35.7163 Y4.3763
G01 X35.7047 Y4.3813
G01 X35.6911 Y4.3892
G01 X35.6809 Y4.3966
G01 X35.6716 Y4.4050
G01 X35.6651 Y4.4119
G01 X35.6173 Y4.4672
G01 X35.6080 Y4.4800
G01 X35.6018 Y4.4910
G01 X35.5956 Y4.5056
G01 X35.5920 Y4.5177
G01 X35.5795 Y4.5753
G01 X35.5781 Y4.5842
G01 X35.5773 Y4.5933
G01 X35.5772 Y6.0785
G01 X35.5781 Y6.0936
G01 X35.5808 Y6.1084
G01 X35.6039 Y6.1873
G01 X35.6087 Y6.1989
G01 X35.6145 Y6.2101
G01 X35.6215 Y6.2206
G01 X35.6316 Y6.2327
G01 X35.6406 Y6.2414
G01 X35.6959 Y6.2892
G01 X35.7060 Y6.2967
G01 X35.7169 Y6.3032
G01 X35.7284 Y6.3086
G01 X35.7434 Y6.3137
G01 X35.8010 Y6.3264
G01 X35.8129 Y6.3284
G01 X35.8280 Y6.3293
G01 X37.6092 Y6.3293
G01 X37.6092 Y6.6218
G01 X32.4645 Y6.6218
G01 X32.4495 Y6.6231
G01 X32.4376 Y6.6254
G01 X32.3647 Y6.6466
G01 X32.3558 Y6.6496
G01 X32.3471 Y6.6533
G01 X32.3387 Y6.6576
G01 X32.3306 Y6.6625
G01 X32.3180 Y6.6719
G01 X32.3089 Y6.6806
G01 X32.2568 Y6.7405
G01 X32.2511 Y6.7480
G01 X32.2459 Y6.7560
G01 X32.2413 Y6.7643
G01 X32.2374 Y6.7730
G01 X32.2341 Y6.7819
G01 X32.2315 Y6.7910
G01 X32.2196 Y6.8456
G01 X32.2173 Y6.8605
G01 X32.2167 Y6.8726
G01 X32.2167 Y16.6399
G01 X32.2176 Y16.6549
G01 X32.2203 Y16.6698
G01 X32.2415 Y16.7426
G01 X32.2445 Y16.7516
G01 X32.2482 Y16.7603
G01 X32.2525 Y16.7687
G01 X32.2574 Y16.7768
G01 X32.2668 Y16.7894
G01 X32.2732 Y16.7963
G01 X32.2801 Y16.8027
G01 X32.3354 Y16.8505
G01 X32.3455 Y16.8580
G01 X32.3563 Y16.8645
G01 X32.3648 Y16.8687
G01 X32.3735 Y16.8721
G01 X32.3887 Y16.8765
G01 X32.3979 Y16.8782
G01 X32.4671 Y16.8881
G01 X32.4828 Y16.8894
G01 X32.4985 Y16.8887
G01 X32.5140 Y16.8861
G01 X32.5291 Y16.8816
G01 X32.5378 Y16.8780
G01 X32.6070 Y16.8462
G01 X32.6204 Y16.8381
G01 X32.6328 Y16.8285
G01 X32.6448 Y16.8172
G01 X35.9337 Y13.5284
G01 X35.9408 Y13.5207
G01 X35.9503 Y13.5089
G01 X35.9963 Y13.4656
G01 X36.0149 Y13.4471
G01 X36.0270 Y13.4368
G01 X36.0494 Y13.4158
G01 X36.0614 Y13.4088
G01 X36.0804 Y13.3962
G01 X36.0889 Y13.3898
G01 X36.1198 Y13.3764
G01 X36.1329 Y13.3699
G01 X36.1598 Y13.3551
G01 X36.1701 Y13.3523
G01 X36.1916 Y13.3450
G01 X36.2046 Y13.3398
G01 X36.2378 Y13.3344
G01 X36.2521 Y13.3314
G01 X36.2818 Y13.3238
G01 X36.2925 Y13.3236
G01 X36.3152 Y13.3219
G01 X36.3290 Y13.3201
G01 X36.3596 Y13.3229
G01 X36.3802 Y13.3238
G01 X46.0353 Y13.3238
G01 X46.0457 Y13.3234
G01 X46.0607 Y13.3218
G01 X46.1239 Y13.3237
G01 X46.1501 Y13.3238
G01 X46.1660 Y13.3250
G01 X46.1966 Y13.3260
G01 X46.2102 Y13.3295
G01 X46.2325 Y13.3341
G01 X46.2430 Y13.3356
G01 X46.2715 Y13.3469
G01 X46.2854 Y13.3517
G01 X46.3176 Y13.3612
G01 X46.3269 Y13.3664
G01 X46.3473 Y13.3765
G01 X46.3602 Y13.3820
G01 X46.3875 Y13.4017
G01 X46.3997 Y13.4097
G01 X46.4261 Y13.4253
G01 X46.4337 Y13.4327
G01 X46.4510 Y13.4475
G01 X46.4621 Y13.4561
G01 X46.4817 Y13.4797
G01 X46.4956 Y13.4949
G01 X51.4921 Y18.4914
G01 X51.4998 Y18.4984
G01 X51.5116 Y18.5079
G01 X51.5549 Y18.5540
G01 X51.5734 Y18.5726
G01 X51.5837 Y18.5847
G01 X51.6047 Y18.6070
G01 X51.6117 Y18.6191
G01 X51.6243 Y18.6381
G01 X51.6307 Y18.6466
G01 X51.6442 Y18.6775
G01 X51.6506 Y18.6906
G01 X51.6654 Y18.7175
G01 X51.6692 Y18.7309
G01 X51.6766 Y18.7524
G01 X51.6807 Y18.7623
G01 X51.6855 Y18.7925
G01 X51.6885 Y18.8069
G01 X51.6967 Y18.8395
G01 X51.6971 Y18.8535
G01 X51.6989 Y18.8762
G01 X51.7004 Y18.8867
G01 X51.6976 Y18.9172
G01 X51.6967 Y18.9378
G01 X51.6967 Y20.6559
G01 X51.6976 Y20.6680
G01 X51.7003 Y20.6828
G01 X51.7234 Y20.7617
G01 X51.7269 Y20.7705
G01 X51.7325 Y20.7817
G01 X51.7391 Y20.7924
G01 X51.7468 Y20.8024
G01 X51.7578 Y20.8137
G01 X51.8154 Y20.8636
G01 X51.8255 Y20.8711
G01 X51.8364 Y20.8776
G01 X51.8479 Y20.8830
G01 X51.8629 Y20.8881
G01 X51.9205 Y20.9008
G01 X51.9324 Y20.9028
G01 X51.9475 Y20.9037
G01 X52.6869 Y20.9037
G01 X52.7239 Y20.9077
G01 X52.8267 Y20.9460
G01 X52.9128 Y21.0104
G01 X52.9772 Y21.0965
G01 X53.0155 Y21.1993
G01 X53.0195 Y21.2363
G01 X53.0195 Y26.7287
G01 X53.0155 Y26.7657
G01 X52.9772 Y26.8685
G01 X52.9128 Y26.9546
G01 X52.8267 Y27.0190
G01 X52.7239 Y27.0573
G01 X52.6869 Y27.0613
G01 X49.7091 Y27.0613
G01 X49.6721 Y27.0573
G01 X49.5693 Y27.0190
G01 X49.4832 Y26.9546
G01 X49.4188 Y26.8685
G01 X49.3805 Y26.7657
G01 X49.3765 Y26.7287
G01 X49.3765 Y21.2363
G01 X49.3805 Y21.1993
G01 X49.4188 Y21.0965
G01 X49.4832 Y21.0104
G01 X49.5693 Y20.9460
G01 X49.6721 Y20.9077
G01 X49.7091 Y20.9037
G01 X50.4485 Y20.9037
G01 X50.4575 Y20.9034
G01 X50.4665 Y20.9024
G01 X50.4813 Y20.8994
G01 X50.5543 Y20.8780
G01 X50.5632 Y20.8747
G01 X50.5718 Y20.8709
G01 X50.5854 Y20.8630
G01 X50.5980 Y20.8536
G01 X50.6093 Y20.8426
G01 X50.6592 Y20.7850
G01 X50.6685 Y20.7722
G01 X50.6732 Y20.7640
G01 X50.6774 Y20.7554
G01 X50.6809 Y20.7466
G01 X50.6837 Y20.7375
G01 X50.6970 Y20.6769
G01 X50.6987 Y20.6650
G01 X50.6993 Y20.6559
G01 X50.6993 Y19.2130
G01 X50.6990 Y19.2039
G01 X50.6980 Y19.1949
G01 X50.6964 Y19.1860
G01 X50.6942 Y19.1772
G01 X50.6736 Y19.1072
G01 X50.6704 Y19.0984
G01 X50.6666 Y19.0899
G01 X50.6605 Y19.0790
G01 X50.6535 Y19.0688
G01 X50.6327 Y19.0431
G01 X50.6258 Y19.0356
G01 X45.9849 Y14.3947
G01 X45.9736 Y14.3846
G01 X45.9612 Y14.3760
G01 X45.8891 Y14.3367
G01 X45.8806 Y14.3329
G01 X45.8718 Y14.3298
G01 X45.8567 Y14.3261
G01 X45.8475 Y14.3248
G01 X45.8211 Y14.3219
G01 X45.8075 Y14.3212
G01 X36.6553 Y14.3212
G01 X36.6402 Y14.3221
G01 X36.6254 Y14.3248
G01 X36.5495 Y14.3469
G01 X36.5351 Y14.3526
G01 X36.5240 Y14.3583
G01 X36.5136 Y14.3652
G01 X36.4880 Y14.3856
G01 X36.4779 Y14.3947
G01 X33.3869 Y17.4857
G01 X33.1149 Y17.4857
G01 X33.0873 Y17.4871
G01 X33.0780 Y17.4879
G01 X33.0475 Y17.4924
G01 X33.0261 Y17.4974
G01 X36.4492 Y14.0744
G01 X46.0137 Y14.0744
G01 X50.9461 Y19.0068
G01 X50.9461 Y21.1506
G01 X49.7502 Y21.1506
G01 X49.7409 Y21.1509
G01 X49.7316 Y21.1520
G01 X49.7194 Y21.1544
G01 X49.7104 Y21.1570
G01 X49.7017 Y21.1603
G01 X49.6932 Y21.1641
G01 X49.6824 Y21.1703
G01 X49.6747 Y21.1756
G01 X49.6650 Y21.1834
G01 X49.6584 Y21.1900
G01 X49.6502 Y21.1994
G01 X49.6431 Y21.2096
G01 X49.6384 Y21.2176
G01 X49.6343 Y21.2260
G01 X49.6308 Y21.2347
G01 X49.6280 Y21.2436
G01 X49.6253 Y21.2557
G01 X49.6237 Y21.2681
G01 X49.6234 Y21.2774
G01 X49.6234 Y26.6876
G01 X49.6244 Y26.7031
G01 X49.6272 Y26.7184
G01 X49.6319 Y26.7332
G01 X49.6384 Y26.7474
G01 X49.6431 Y26.7554
G01 X49.6484 Y26.7631
G01 X49.6584 Y26.7750
G01 X49.6698 Y26.7856
G01 X49.6824 Y26.7947
G01 X49.6904 Y26.7994
G01 X49.6988 Y26.8035
G01 X49.7134 Y26.8089
G01 X49.7285 Y26.8125
G01 X49.7378 Y26.8138
G01 X49.7471 Y26.8144
G01 X52.6458 Y26.8144
G01 X52.6613 Y26.8134
G01 X52.6736 Y26.8113
G01 X52.6885 Y26.8070
G01 X52.7028 Y26.8009
G01 X52.7162 Y26.7930
G01 X52.7238 Y26.7876
G01 X52.7310 Y26.7816
G01 X52.7376 Y26.7750
G01 X52.7438 Y26.7680
G01 X52.7529 Y26.7554
G01 X52.7576 Y26.7474
G01 X52.7617 Y26.7390
G01 X52.7652 Y26.7303
G01 X52.7680 Y26.7214
G01 X52.7702 Y26.7123
G01 X52.7716 Y26.7031
G01 X52.7726 Y26.6876
G01 X52.7726 Y21.2774
G01 X52.7720 Y21.2650
G01 X52.7695 Y21.2496
G01 X52.7652 Y21.2347
G01 X52.7591 Y21.2204
G01 X52.7546 Y21.2122
G01 X52.7495 Y21.2044
G01 X52.7398 Y21.1922
G01 X52.7286 Y21.1814
G01 X52.7213 Y21.1756
G01 X52.7136 Y21.1703
G01 X52.7056 Y21.1656
G01 X52.6972 Y21.1615
G01 X52.6826 Y21.1561
G01 X52.6675 Y21.1525
G01 X52.6520 Y21.1508
G01 X51.4499 Y21.1506
G01 X51.4498 Y18.8994
G01 X51.4486 Y18.8778
G01 X51.4456 Y18.8564
G01 X51.4407 Y18.8354
G01 X51.4381 Y18.8264
G01 X51.4307 Y18.8061
G01 X51.4216 Y18.7865
G01 X51.4107 Y18.7678
G01 X51.4057 Y18.7600
G01 X51.3927 Y18.7427
G01 X51.3761 Y18.7244
G01 X46.2961 Y13.6444
G01 X46.2778 Y13.6278
G01 X46.2579 Y13.6131
G01 X46.2367 Y13.6004
G01 X46.2172 Y13.5910
G01 X46.2086 Y13.5876
G01 X46.1911 Y13.5815
G01 X46.1671 Y13.5755
G01 X46.1427 Y13.5719
G01 X46.1180 Y13.5706
G01 X36.3448 Y13.5706
G01 X36.3232 Y13.5716
G01 X36.3140 Y13.5726
G01 X36.2957 Y13.5755
G01 X36.2747 Y13.5806
G01 X36.2658 Y13.5834
G01 X36.2484 Y13.5898
G01 X36.2289 Y13.5989
G01 X36.2207 Y13.6034
G01 X36.2049 Y13.6131
G01 X36.1900 Y13.6240
G01 X36.1827 Y13.6298
G01 X36.1667 Y13.6444
G01 X32.2473 Y17.5638
G01 X32.2247 Y17.5475
G01 X32.2010 Y17.5333
G01 X32.1929 Y17.5288
G01 X32.1622 Y17.5144
G01 X32.1333 Y17.5039
G01 X32.1244 Y17.5011
G01 X32.0915 Y17.4929
G01 X32.0549 Y17.4875
G01 X32.0211 Y17.4857
G01 X31.9699 Y17.4857
G01 X31.9699 Y6.6616
G01 X32.3530 Y6.2785
G01 X34.2339 Y6.2785
G01 X34.2463 Y6.2775
G01 X34.2586 Y6.2754
G01 X34.2706 Y6.2721
G01 X34.2822 Y6.2676
G01 X34.2933 Y6.2620
G01 X34.3038 Y6.2554
G01 X34.3136 Y6.2477
G01 X34.3205 Y6.2414
G01 X34.3288 Y6.2321
G01 X34.3362 Y6.2221
G01 X34.3426 Y6.2115
G01 X34.3479 Y6.2002
G01 X34.3521 Y6.1885
G01 X34.3545 Y6.1795
G01 X34.3566 Y6.1672
G01 X34.3576 Y6.1548
G01 X34.3576 Y4.5230
G01 X34.3570 Y4.5137
G01 X34.3552 Y4.5014
G01 X34.3521 Y4.4893
G01 X34.3491 Y4.4805
G01 X34.3454 Y4.4719
G01 X34.3411 Y4.4636
G01 X34.3362 Y4.4557
G01 X34.3288 Y4.4457
G01 X34.3205 Y4.4364
G01 X34.3136 Y4.4301
G01 X34.3063 Y4.4243
G01 X34.2986 Y4.4190
G01 X34.2878 Y4.4128
G01 X34.2793 Y4.4090
G01 X34.2706 Y4.4057
G01 X34.2586 Y4.4024
G01 X34.2432 Y4.3999
G01 X34.2308 Y4.3993
G01 X32.0402 Y4.3995
G01 X32.0309 Y4.4003
G01 X32.0217 Y4.4017
G01 X32.0126 Y4.4039
G01 X32.0008 Y4.4078
G01 X31.9922 Y4.4115
G01 X31.9812 Y4.4173
G01 X31.9734 Y4.4224
G01 X31.9660 Y4.4281
G01 X31.9590 Y4.4343
G01 X31.9524 Y4.4409
G01 X31.9464 Y4.4481
G01 X31.9393 Y4.4583
G01 X31.9331 Y4.4691
G01 X31.9293 Y4.4776
G01 X31.9260 Y4.4863
G01 X31.9227 Y4.4983
G01 X31.9206 Y4.5106
G01 X31.9196 Y4.5261
G01 X31.9196 Y5.9223
G01 X31.6183 Y6.2236
G01 X31.6017 Y6.2419
G01 X31.5906 Y6.2567
G01 X31.5853 Y6.2644
G01 X31.5743 Y6.2830
G01 X31.5662 Y6.2996
G01 X31.5626 Y6.3082
G01 X31.5563 Y6.3256
G01 X31.5537 Y6.3346
G01 X31.5494 Y6.3526
G01 X31.5462 Y6.3729
G01 X31.5377 Y6.3815
G01 X31.5253 Y6.3952
G01 X31.5103 Y6.4148
G01 X31.4974 Y6.4359
G01 X31.4865 Y6.4581
G01 X31.4779 Y6.4812
G01 X31.4723 Y6.5021
G01 X31.4704 Y6.5112
G01 X31.4681 Y6.5265
G01 X31.4669 Y6.5388
G01 X31.4661 Y6.5573
G01 X31.4661 Y17.4857
G01 X31.4149 Y17.4857
G01 X31.3842 Y17.4872
G01 X31.3749 Y17.4883
G01 X31.3445 Y17.4929
G01 X31.3146 Y17.5003
G01 X31.3057 Y17.5029
G01 X31.2796 Y17.5121
G00 Z2.0000
G00 X31.3267 Y17.2670
G01 F60.00
G01 Z-0.1000
G01 F120.00
G01 X31.3267 Y17.3545
G01 X31.3109 Y17.3575
G01 X31.2807 Y17.3650
G01 X31.2681 Y17.3685
G01 X31.2511 Y17.3742
G01 X31.2826 Y17.3391
G01 X31.2907 Y17.3291
G01 X31.2984 Y17.3187
G01 X31.3055 Y17.3080
G01 X31.3153 Y17.2912
G01 X31.3211 Y17.2797
G01 X31.3267 Y17.2670
G00 Z2.0000
G00 X32.2812 Y17.1354
G01 F60.00
G01 Z-0.1000
G01 F120.00
G01 X32.2488 Y17.1678
G01 X32.2488 Y17.1224
G01 X32.2613 Y17.1278
G01 X32.2812 Y17.1354
G00 Z2.0000
G00 X32.6202 Y16.9937
G01 F60.00
G01 Z-0.1000
G01 F120.00
G01 X32.2245 Y17.3894
G01 X32.2034 Y17.3808
G01 X32.1679 Y17.3685
G01 X32.1315 Y17.3590
G01 X32.1093 Y17.3545
G01 X32.1093 Y16.7873
G01 X32.1140 Y16.8007
G01 X32.1190 Y16.8130
G01 X32.1275 Y16.8309
G01 X32.1340 Y16.8424
G01 X32.1447 Y16.8591
G01 X32.1525 Y16.8698
G01 X32.1652 Y16.8850
G01 X32.1743 Y16.8946
G01 X32.1888 Y16.9082
G01 X32.2416 Y16.9539
G01 X32.2571 Y16.9663
G01 X32.2679 Y16.9740
G01 X32.2848 Y16.9844
G01 X32.3024 Y16.9935
G01 X32.3145 Y16.9988
G01 X32.3331 Y17.0057
G01 X32.3457 Y17.0095
G01 X32.3586 Y17.0127
G01 X32.3716 Y17.0152
G01 X32.4538 Y17.0270
G01 X32.4736 Y17.0286
G01 X32.4868 Y17.0289
G01 X32.5000 Y17.0285
G01 X32.5198 Y17.0266
G01 X32.5393 Y17.0233
G01 X32.5522 Y17.0203
G01 X32.5649 Y17.0167
G01 X32.5836 Y17.0100
G01 X32.6202 Y16.9937
G00 Z2.0000
G00 X32.5343 Y18.1872
G01 F60.00
G01 Z-0.1000
G01 F120.00
G01 X32.5343 Y18.1865
G01 X32.5350 Y18.1858
G01 X32.5346 Y18.1866
G01 X32.5343 Y18.1872
G00 Z2.0000
G00 X34.1943 Y17.8190
G01 F60.00
G01 Z-0.1000
G01 F120.00
G01 X34.2027 Y17.7364
G01 X34.2489 Y17.5971
G01 X34.3254 Y17.4730
G01 X34.4285 Y17.3699
G01 X34.5526 Y17.2934
G01 X34.6919 Y17.2472
G01 X34.7745 Y17.2388
G01 X35.4615 Y17.2388
G01 X35.4927 Y17.2419
G01 X35.5078 Y17.2422
G01 X35.5168 Y17.2415
G01 X35.5258 Y17.2402
G01 X35.5945 Y17.2274
G01 X35.6036 Y17.2254
G01 X35.6126 Y17.2227
G01 X35.6242 Y17.2180
G01 X35.6325 Y17.2138
G01 X35.6432 Y17.2072
G01 X35.6800 Y17.1805
G01 X35.6877 Y17.1741
G01 X35.6925 Y17.1695
G01 X36.7937 Y16.0684
G01 X36.8008 Y16.0607
G01 X36.8103 Y16.0489
G01 X36.8563 Y16.0056
G01 X36.8749 Y15.9871
G01 X36.8870 Y15.9768
G01 X36.9094 Y15.9558
G01 X36.9214 Y15.9488
G01 X36.9404 Y15.9362
G01 X36.9489 Y15.9298
G01 X36.9771 Y15.9176
G01 X36.9902 Y15.9112
G01 X37.0198 Y15.8951
G01 X37.0300 Y15.8923
G01 X37.0516 Y15.8850
G01 X37.0646 Y15.8798
G01 X37.0949 Y15.8750
G01 X37.1092 Y15.8720
G01 X37.1418 Y15.8638
G01 X37.1525 Y15.8636
G01 X37.1752 Y15.8619
G01 X37.1890 Y15.8601
G01 X37.2195 Y15.8629
G01 X37.2402 Y15.8638
G01 X40.9553 Y15.8638
G01 X40.9657 Y15.8634
G01 X40.9807 Y15.8618
G01 X41.0439 Y15.8637
G01 X41.0701 Y15.8638
G01 X41.0860 Y15.8650
G01 X41.1166 Y15.8660
G01 X41.1302 Y15.8695
G01 X41.1525 Y15.8741
G01 X41.1630 Y15.8756
G01 X41.1915 Y15.8869
G01 X41.2054 Y15.8917
G01 X41.2376 Y15.9012
G01 X41.2469 Y15.9064
G01 X41.2673 Y15.9165
G01 X41.2802 Y15.9220
G01 X41.3075 Y15.9417
G01 X41.3197 Y15.9497
G01 X41.3461 Y15.9653
G01 X41.3537 Y15.9727
G01 X41.3710 Y15.9875
G01 X41.3821 Y15.9961
G01 X41.4017 Y16.0197
G01 X41.4156 Y16.0349
G01 X44.6871 Y19.3064
G01 X44.6948 Y19.3134
G01 X44.7066 Y19.3229
G01 X44.7499 Y19.3690
G01 X44.7684 Y19.3876
G01 X44.7787 Y19.3997
G01 X44.7997 Y19.4220
G01 X44.8049 Y19.4313
G01 X44.8174 Y19.4503
G01 X44.8257 Y19.4616
G01 X44.8392 Y19.4924
G01 X44.8456 Y19.5056
G01 X44.8604 Y19.5325
G01 X44.8642 Y19.5459
G01 X44.8716 Y19.5674
G01 X44.8757 Y19.5773
G01 X44.8811 Y19.6105
G01 X44.8841 Y19.6248
G01 X44.8917 Y19.6545
G01 X44.8921 Y19.6685
G01 X44.8939 Y19.6912
G01 X44.8954 Y19.7017
G01 X44.8926 Y19.7322
G01 X44.8917 Y19.7528
G01 X44.8917 Y45.4335
G01 X44.8921 Y45.4439
G01 X44.8937 Y45.4590
G01 X44.8918 Y45.5221
G01 X44.8917 Y45.5483
G01 X44.8905 Y45.5642
G01 X44.8895 Y45.5948
G01 X44.8867 Y45.6051
G01 X44.8820 Y45.6274
G01 X44.8799 Y45.6412
G01 X44.8676 Y45.6725
G01 X44.8629 Y45.6864
G01 X44.8543 Y45.7158
G01 X44.8475 Y45.7281
G01 X44.8376 Y45.7485
G01 X44.8335 Y45.7584
G01 X44.8138 Y45.7857
G01 X44.8058 Y45.7979
G01 X44.7902 Y45.8243
G01 X44.7828 Y45.8319
G01 X44.7680 Y45.8492
G01 X44.7594 Y45.8603
G01 X44.7358 Y45.8799
G01 X44.7228 Y45.8917
G01 X44.5571 Y46.0573
G01 X44.5501 Y46.0650
G01 X44.5406 Y46.0768
G01 X44.4945 Y46.1201
G01 X44.4759 Y46.1386
G01 X44.4638 Y46.1489
G01 X44.4415 Y46.1699
G01 X44.4294 Y46.1769
G01 X44.4104 Y46.1895
G01 X44.4019 Y46.1959
G01 X44.3738 Y46.2081
G01 X44.3606 Y46.2145
G01 X44.3310 Y46.2306
G01 X44.3208 Y46.2334
G01 X44.2992 Y46.2407
G01 X44.2862 Y46.2459
G01 X44.2530 Y46.2513
G01 X44.2387 Y46.2543
G01 X44.2090 Y46.2619
G01 X44.1950 Y46.2623
G01 X44.1723 Y46.2641
G01 X44.1618 Y46.2656
G01 X44.1313 Y46.2628
G01 X44.1136 Y46.2619
G01 X43.9232 Y46.2619
G01 X43.9141 Y46.2622
G01 X43.9021 Y46.2637
G01 X43.8874 Y46.2670
G01 X43.8174 Y46.2876
G01 X43.8085 Y46.2909
G01 X43.7999 Y46.2947
G01 X43.7916 Y46.2992
G01 X43.7811 Y46.3062
G01 X43.7737 Y46.3120
G01 X43.7645 Y46.3207
G01 X43.7125 Y46.3806
G01 X43.7033 Y46.3933
G01 X43.6971 Y46.4043
G01 X43.6931 Y46.4128
G01 X43.6899 Y46.4217
G01 X43.6873 Y46.4308
G01 X43.6848 Y46.4431
G01 X43.6742 Y46.5186
G01 X43.6737 Y46.5343
G01 X43.6751 Y46.5499
G01 X43.6785 Y46.5653
G01 X43.6826 Y46.5772
G01 X43.7168 Y46.6522
G01 X43.7215 Y46.6604
G01 X43.7286 Y46.6707
G01 X43.7345 Y46.6780
G01 X43.7458 Y46.6900
G01 X45.8661 Y48.8103
G01 X45.8727 Y48.8165
G01 X45.8798 Y48.8222
G01 X45.8924 Y48.8305
G01 X45.9591 Y48.8669
G01 X45.9733 Y48.8732
G01 X45.9852 Y48.8769
G01 X45.9974 Y48.8794
G01 X46.0299 Y48.8831
G01 X46.0435 Y48.8838
G01 X49.7824 Y48.8838
G01 X49.7914 Y48.8835
G01 X49.8004 Y48.8825
G01 X49.8093 Y48.8809
G01 X49.8181 Y48.8787
G01 X49.8851 Y48.8590
G01 X49.8939 Y48.8561
G01 X49.9052 Y48.8512
G01 X49.9133 Y48.8468
G01 X49.9236 Y48.8401
G01 X49.9332 Y48.8325
G01 X49.9399 Y48.8261
G01 X49.9806 Y48.7846
G01 X49.9906 Y48.7725
G01 X49.9958 Y48.7647
G01 X50.0554 Y48.6680
G01 X50.1585 Y48.5649
G01 X50.2826 Y48.4884
G01 X50.4219 Y48.4422
G01 X50.5045 Y48.4338
G01 X51.3436 Y48.4337
G01 X51.3586 Y48.4320
G01 X51.3733 Y48.4287
G01 X51.4433 Y48.4081
G01 X51.4549 Y48.4037
G01 X51.4634 Y48.3997
G01 X51.4741 Y48.3934
G01 X51.4817 Y48.3880
G01 X51.5074 Y48.3672
G01 X51.5149 Y48.3603
G01 X52.0701 Y47.8050
G01 X52.0777 Y47.7957
G01 X52.0860 Y47.7831
G01 X52.1239 Y47.7135
G01 X52.1277 Y47.7049
G01 X52.1317 Y47.6929
G01 X52.1345 Y47.6807
G01 X52.1358 Y47.6713
G01 X52.1365 Y47.6588
G01 X52.1362 Y47.6493
G01 X52.1312 Y47.5796
G01 X52.1297 Y47.5671
G01 X52.1261 Y47.5518
G01 X52.1218 Y47.5400
G01 X52.1149 Y47.5258
G01 X52.1081 Y47.5152
G01 X52.0605 Y47.4518
G01 X52.0497 Y47.4403
G01 X52.0376 Y47.4303
G01 X52.0243 Y47.4218
G01 X52.0101 Y47.4151
G01 X51.9417 Y47.3895
G01 X51.9298 Y47.3857
G01 X51.9206 Y47.3837
G01 X51.9113 Y47.3823
G01 X51.8885 Y47.3812
G01 X50.5045 Y47.3812
G01 X50.4219 Y47.3728
G01 X50.2826 Y47.3266
G01 X50.1585 Y47.2501
G01 X50.0554 Y47.1470
G01 X49.9789 Y47.0229
G01 X49.9327 Y46.8836
G01 X49.9243 Y46.8011
G01 X49.9243 Y46.0640
G01 X49.9327 Y45.9814
G01 X49.9789 Y45.8421
G01 X50.0554 Y45.7180
G01 X50.1585 Y45.6149
G01 X50.2826 Y45.5384
G01 X50.4219 Y45.4922
G01 X50.5045 Y45.4838
G01 X51.3436 Y45.4837
G01 X51.3556 Y45.4825
G01 X51.3704 Y45.4795
G01 X51.4433 Y45.4581
G01 X51.4521 Y45.4549
G01 X51.4606 Y45.4511
G01 X51.4741 Y45.4434
G01 X51.4817 Y45.4380
G01 X51.5048 Y45.4194
G01 X51.5149 Y45.4103
G01 X53.3019 Y43.6234
G01 X53.3089 Y43.6157
G01 X53.3184 Y43.6039
G01 X53.3645 Y43.5606
G01 X53.3831 Y43.5421
G01 X53.3952 Y43.5318
G01 X53.4175 Y43.5108
G01 X53.4296 Y43.5038
G01 X53.4486 Y43.4912
G01 X53.4571 Y43.4848
G01 X53.4879 Y43.4714
G01 X53.5011 Y43.4649
G01 X53.5280 Y43.4501
G01 X53.5382 Y43.4473
G01 X53.5598 Y43.4400
G01 X53.5728 Y43.4348
G01 X53.6060 Y43.4294
G01 X53.6203 Y43.4264
G01 X53.6500 Y43.4188
G01 X53.6640 Y43.4184
G01 X53.6867 Y43.4166
G01 X53.6972 Y43.4151
G01 X53.7277 Y43.4179
G01 X53.7483 Y43.4188
G01 X57.4351 Y43.4188
G01 X57.4471 Y43.4182
G01 X57.4561 Y43.4170
G01 X57.4679 Y43.4145
G01 X57.5437 Y43.3921
G01 X57.5551 Y43.3875
G01 X57.5660 Y43.3818
G01 X57.5763 Y43.3751
G01 X57.5836 Y43.3695
G01 X57.5926 Y43.3611
G01 X57.6311 Y43.3219
G01 X57.6414 Y43.3100
G01 X57.6485 Y43.2997
G01 X57.7004 Y43.2155
G01 X57.8035 Y43.1124
G01 X57.9276 Y43.0359
G01 X58.0669 Y42.9897
G01 X58.1495 Y42.9813
G01 X58.9511 Y42.9812
G01 X58.9661 Y42.9795
G01 X58.9779 Y42.9770
G01 X59.0478 Y42.9565
G01 X59.0596 Y42.9524
G01 X59.0709 Y42.9472
G01 X59.0842 Y42.9391
G01 X59.0917 Y42.9335
G01 X59.1123 Y42.9169
G01 X59.1224 Y42.9078
G01 X60.5318 Y41.4984
G01 X60.5380 Y41.4918
G01 X60.5437 Y41.4847
G01 X60.5520 Y41.4721
G01 X60.5884 Y41.4054
G01 X60.5924 Y41.3970
G01 X60.5957 Y41.3883
G01 X60.5991 Y41.3763
G01 X60.6014 Y41.3641
G01 X60.6049 Y41.3312
G01 X60.6053 Y41.3210
G01 X60.6052 Y27.3061
G01 X60.6040 Y27.2941
G01 X60.6010 Y27.2793
G01 X60.5796 Y27.2063
G01 X60.5763 Y27.1974
G01 X60.5725 Y27.1888
G01 X60.5680 Y27.1805
G01 X60.5610 Y27.1700
G01 X60.5531 Y27.1603
G01 X60.5442 Y27.1513
G01 X60.4890 Y27.1035
G01 X60.4816 Y27.0975
G01 X60.4711 Y27.0905
G01 X60.4599 Y27.0845
G01 X60.4482 Y27.0797
G01 X60.4361 Y27.0761
G01 X60.3785 Y27.0636
G01 X60.3666 Y27.0619
G01 X60.3575 Y27.0613
G01 X59.6151 Y27.0613
G01 X59.5781 Y27.0573
G01 X59.4753 Y27.0190
G01 X59.3892 Y26.9546
G01 X59.3248 Y26.8685
G01 X59.2865 Y26.7657
G01 X59.2825 Y26.7287
G01 X59.2825 Y21.2363
G01 X59.2865 Y21.1993
G01 X59.3248 Y21.0965
G01 X59.3892 Y21.0104
G01 X59.4753 Y20.9460
G01 X59.5781 Y20.9077
G01 X59.6151 Y20.9037
G01 X62.5929 Y20.9037
G01 X62.6299 Y20.9077
G01 X62.7327 Y20.9460
G01 X62.8188 Y21.0104
G01 X62.8835 Y21.0968
G01 X62.8914 Y21.1059
G01 X62.9001 Y21.1143
G01 X62.9072 Y21.1200
G01 X62.9682 Y21.1655
G01 X62.9818 Y21.1734
G01 X62.9963 Y21.1797
G01 X63.0114 Y21.1840
G01 X63.0206 Y21.1858
G01 X63.0300 Y21.1868
G01 X63.1060 Y21.1921
G01 X63.1186 Y21.1917
G01 X63.1311 Y21.1901
G01 X63.1464 Y21.1864
G01 X63.1553 Y21.1833
G01 X63.1639 Y21.1795
G01 X63.2309 Y21.1431
G01 X63.2387 Y21.1385
G01 X63.2485 Y21.1315
G01 X63.2598 Y21.1215
G01 X70.8529 Y13.5284
G01 X70.8599 Y13.5207
G01 X70.8694 Y13.5089
G01 X70.9155 Y13.4656
G01 X70.9341 Y13.4471
G01 X70.9462 Y13.4368
G01 X70.9685 Y13.4158
G01 X70.9806 Y13.4088
G01 X70.9996 Y13.3962
G01 X71.0081 Y13.3898
G01 X71.0362 Y13.3776
G01 X71.0494 Y13.3712
G01 X71.0790 Y13.3551
G01 X71.0892 Y13.3523
G01 X71.1108 Y13.3450
G01 X71.1238 Y13.3398
G01 X71.1570 Y13.3344
G01 X71.1713 Y13.3314
G01 X71.2010 Y13.3238
G01 X71.2116 Y13.3236
G01 X71.2344 Y13.3219
G01 X71.2482 Y13.3201
G01 X71.2787 Y13.3229
G01 X71.2993 Y13.3238
G01 X78.1271 Y13.3238
G01 X78.1361 Y13.3235
G01 X78.1481 Y13.3220
G01 X78.1628 Y13.3187
G01 X78.2359 Y13.2971
G01 X78.2504 Y13.2910
G01 X78.2640 Y13.2831
G01 X78.2766 Y13.2737
G01 X78.2879 Y13.2627
G01 X78.3377 Y13.2052
G01 X78.3452 Y13.1951
G01 X78.3502 Y13.1871
G01 X78.3545 Y13.1788
G01 X78.3582 Y13.1702
G01 X78.3708 Y13.1319
G01 X78.3733 Y13.1208
G01 X78.4650 Y12.7785
G01 X78.5917 Y12.4484
G01 X78.7523 Y12.1333
G01 X78.9449 Y11.8368
G01 X79.1674 Y11.5620
G01 X79.4175 Y11.3119
G01 X79.6923 Y11.0894
G01 X79.9888 Y10.8968
G01 X80.3039 Y10.7362
G01 X80.6340 Y10.6095
G01 X80.9756 Y10.5180
G01 X81.3249 Y10.4627
G01 X81.6780 Y10.4442
G01 X82.0311 Y10.4627
G01 X82.3804 Y10.5180
G01 X82.7220 Y10.6095
G01 X83.0521 Y10.7362
G01 X83.3672 Y10.8968
G01 X83.6637 Y11.0894
G01 X83.9385 Y11.3119
G01 X84.1886 Y11.5620
G01 X84.4111 Y11.8368
G01 X84.6037 Y12.1333
G01 X84.7643 Y12.4484
G01 X84.8910 Y12.7785
G01 X84.9825 Y13.1201
G01 X85.0378 Y13.4694
G01 X85.0563 Y13.8225
G01 X85.0378 Y14.1756
G01 X84.9825 Y14.5249
G01 X84.8910 Y14.8665
G01 X84.7643 Y15.1966
G01 X84.6037 Y15.5117
G01 X84.4111 Y15.8082
G01 X84.1886 Y16.0830
G01 X83.9385 Y16.3331
G01 X83.6637 Y16.5556
G01 X83.3672 Y16.7482
G01 X83.0521 Y16.9088
G01 X82.7220 Y17.0355
G01 X82.3804 Y17.1270
G01 X82.0311 Y17.1823
G01 X81.6780 Y17.2008
G01 X81.3249 Y17.1823
G01 X80.9756 Y17.1270
G01 X80.6340 Y17.0355
G01 X80.3039 Y16.9088
G01 X79.9888 Y16.7482
G01 X79.6923 Y16.5556
G01 X79.4175 Y16.3331
G01 X79.1674 Y16.0830
G01 X78.9449 Y15.8082
G01 X78.7523 Y15.5117
G01 X78.5917 Y15.1966
G01 X78.4650 Y14.8665
G01 X78.3733 Y14.5242
G01 X78.3710 Y14.5141
G01 X78.3674 Y14.5025
G01 X78.3627 Y14.4914
G01 X78.3268 Y14.4245
G01 X78.3220 Y14.4164
G01 X78.3127 Y14.4037
G01 X78.3064 Y14.3966
G01 X78.2996 Y14.3901
G01 X78.2898 Y14.3822
G01 X78.2792 Y14.3753
G01 X78.2126 Y14.3385
G01 X78.2041 Y14.3345
G01 X78.1953 Y14.3311
G01 X78.1803 Y14.3269
G01 X78.1710 Y14.3253
G01 X78.1410 Y14.3220
G01 X78.1271 Y14.3212
G01 X71.5745 Y14.3212
G01 X71.5594 Y14.3221
G01 X71.5446 Y14.3248
G01 X71.4717 Y14.3460
G01 X71.4628 Y14.3490
G01 X71.4542 Y14.3526
G01 X71.4459 Y14.3568
G01 X71.4379 Y14.3616
G01 X71.4303 Y14.3670
G01 X71.4072 Y14.3856
G01 X71.3971 Y14.3947
G01 X62.9990 Y22.7928
G01 X62.9928 Y22.7994
G01 X62.9853 Y22.8089
G01 X62.9773 Y22.8217
G01 X62.9438 Y22.8830
G01 X62.9397 Y22.8914
G01 X62.9361 Y22.9000
G01 X62.9324 Y22.9119
G01 X62.9299 Y22.9241
G01 X62.9262 Y22.9566
G01 X62.9255 Y22.9668
G01 X62.9255 Y26.7287
G01 X62.9215 Y26.7657
G01 X62.8832 Y26.8685
G01 X62.8188 Y26.9546
G01 X62.7327 Y27.0190
G01 X62.6299 Y27.0573
G01 X62.5929 Y27.0613
G01 X61.8535 Y27.0613
G01 X61.8384 Y27.0622
G01 X61.8236 Y27.0649
G01 X61.7507 Y27.0861
G01 X61.7359 Y27.0915
G01 X61.7219 Y27.0986
G01 X61.7114 Y27.1056
G01 X61.7017 Y27.1135
G01 X61.6927 Y27.1224
G01 X61.6428 Y27.1800
G01 X61.6335 Y27.1928
G01 X61.6273 Y27.2038
G01 X61.6211 Y27.2184
G01 X61.6175 Y27.2305
G01 X61.6050 Y27.2881
G01 X61.6030 Y27.3031
G01 X61.6027 Y27.3121
G01 X61.6027 Y41.5488
G01 X61.6031 Y41.5592
G01 X61.6047 Y41.5743
G01 X61.6028 Y41.6374
G01 X61.6027 Y41.6636
G01 X61.6015 Y41.6795
G01 X61.6005 Y41.7101
G01 X61.5970 Y41.7237
G01 X61.5924 Y41.7460
G01 X61.5909 Y41.7565
G01 X61.5786 Y41.7878
G01 X61.5739 Y41.8017
G01 X61.5653 Y41.8311
G01 X61.5600 Y41.8404
G01 X61.5500 Y41.8608
G01 X61.5445 Y41.8737
G01 X61.5248 Y41.9010
G01 X61.5168 Y41.9132
G01 X61.5012 Y41.9396
G01 X61.4938 Y41.9472
G01 X61.4790 Y41.9645
G01 X61.4704 Y41.9756
G01 X61.4468 Y41.9952
G01 X61.4316 Y42.0091
G01 X60.4480 Y42.9928
G01 X60.4383 Y43.0043
G01 X60.4300 Y43.0169
G01 X60.3950 Y43.0809
G01 X60.3908 Y43.0893
G01 X60.3862 Y43.1010
G01 X60.3821 Y43.1162
G01 X60.3802 Y43.1287
G01 X60.3795 Y43.1412
G01 X60.3798 Y43.1507
G01 X60.3854 Y43.2266
G01 X60.3883 Y43.2421
G01 X60.3919 Y43.2542
G01 X60.3981 Y43.2686
G01 X60.4061 Y43.2822
G01 X60.4516 Y43.3433
G01 X60.4576 Y43.3506
G01 X60.4686 Y43.3618
G01 X60.4810 Y43.3715
G01 X60.4945 Y43.3797
G01 X60.5059 Y43.3849
G01 X60.5743 Y43.4105
G01 X60.5832 Y43.4134
G01 X60.5923 Y43.4157
G01 X60.6016 Y43.4173
G01 X60.6110 Y43.4183
G01 X60.6229 Y43.4187
G01 X73.5903 Y43.4188
G01 X73.6007 Y43.4184
G01 X73.6157 Y43.4168
G01 X73.6789 Y43.4187
G01 X73.7051 Y43.4188
G01 X73.7210 Y43.4200
G01 X73.7516 Y43.4210
G01 X73.7652 Y43.4245
G01 X73.7875 Y43.4291
G01 X73.7980 Y43.4306
G01 X73.8265 Y43.4419
G01 X73.8404 Y43.4467
G01 X73.8726 Y43.4562
G01 X73.8819 Y43.4614
G01 X73.9023 Y43.4715
G01 X73.9152 Y43.4770
G01 X73.9425 Y43.4967
G01 X73.9547 Y43.5047
G01 X73.9811 Y43.5203
G01 X73.9887 Y43.5277
G01 X74.0060 Y43.5425
G01 X74.0171 Y43.5511
G01 X74.0367 Y43.5747
G01 X74.0506 Y43.5899
G01 X80.2293 Y49.7685
G01 X80.2359 Y49.7747
G01 X80.2454 Y49.7821
G01 X80.2582 Y49.7901
G01 X80.3195 Y49.8236
G01 X80.3305 Y49.8289
G01 X80.3419 Y49.8332
G01 X80.3536 Y49.8363
G01 X80.3687 Y49.8386
G01 X80.3809 Y49.8391
G01 X80.4523 Y49.8355
G01 X80.4646 Y49.8342
G01 X80.4736 Y49.8325
G01 X80.4826 Y49.8302
G01 X80.5519 Y49.8072
G01 X80.6345 Y49.7988
G01 X82.7215 Y49.7988
G01 X82.8041 Y49.8072
G01 X82.9434 Y49.8534
G01 X83.0675 Y49.9299
G01 X83.1706 Y50.0330
G01 X83.2471 Y50.1571
G01 X83.2933 Y50.2964
G01 X83.3017 Y50.3790
G01 X83.3017 Y53.4660
G01 X83.2933 Y53.5486
G01 X83.2471 Y53.6879
G01 X83.1706 Y53.8120
G01 X83.0675 Y53.9151
G01 X82.9434 Y53.9916
G01 X82.8041 Y54.0378
G01 X82.7216 Y54.0462
G01 X80.6345 Y54.0462
G01 X80.5519 Y54.0378
G01 X80.4126 Y53.9916
G01 X80.2885 Y53.9151
G01 X80.1854 Y53.8120
G01 X80.1089 Y53.6879
G01 X80.0627 Y53.5486
G01 X80.0543 Y53.4661
G01 X80.0543 Y51.1049
G01 X80.0534 Y51.0929
G01 X80.0507 Y51.0781
G01 X80.0286 Y51.0022
G01 X80.0242 Y50.9906
G01 X80.0202 Y50.9821
G01 X80.0155 Y50.9740
G01 X80.0103 Y50.9663
G01 X79.9899 Y50.9407
G01 X79.9808 Y50.9306
G01 X73.5399 Y44.4897
G01 X73.5286 Y44.4796
G01 X73.5162 Y44.4710
G01 X73.4469 Y44.4331
G01 X73.4356 Y44.4279
G01 X73.4268 Y44.4248
G01 X73.4178 Y44.4224
G01 X73.4056 Y44.4201
G01 X73.3727 Y44.4166
G01 X73.3625 Y44.4162
G01 X60.1979 Y44.4162
G01 X60.1829 Y44.4175
G01 X60.1710 Y44.4198
G01 X60.0952 Y44.4419
G01 X60.0866 Y44.4451
G01 X60.0754 Y44.4502
G01 X60.0648 Y44.4564
G01 X60.0548 Y44.4636
G01 X60.0456 Y44.4717
G01 X60.0049 Y44.5131
G01 X59.9946 Y44.5250
G01 X59.9875 Y44.5353
G01 X59.9356 Y44.6195
G01 X59.8325 Y44.7226
G01 X59.7084 Y44.7991
G01 X59.5691 Y44.8453
G01 X59.4866 Y44.8537
G01 X58.1495 Y44.8537
G01 X58.0669 Y44.8453
G01 X57.9276 Y44.7991
G01 X57.8035 Y44.7226
G01 X57.7004 Y44.6195
G01 X57.6469 Y44.5328
G01 X57.6417 Y44.5254
G01 X57.6360 Y44.5184
G01 X57.6254 Y44.5076
G01 X57.5711 Y44.4589
G01 X57.5614 Y44.4513
G01 X57.5510 Y44.4448
G01 X57.5401 Y44.4393
G01 X57.5286 Y44.4348
G01 X57.5168 Y44.4315
G01 X57.4632 Y44.4194
G01 X57.4539 Y44.4176
G01 X57.4445 Y44.4166
G01 X57.4351 Y44.4162
G01 X54.0235 Y44.4162
G01 X54.0084 Y44.4171
G01 X53.9995 Y44.4185
G01 X53.9906 Y44.4205
G01 X53.9177 Y44.4419
G01 X53.9089 Y44.4451
G01 X53.9004 Y44.4489
G01 X53.8895 Y44.4550
G01 X53.8793 Y44.4620
G01 X53.8536 Y44.4828
G01 X53.8461 Y44.4897
G01 X52.5353 Y45.8005
G01 X52.5256 Y45.8120
G01 X52.5188 Y45.8220
G01 X52.4809 Y45.8913
G01 X52.4769 Y45.8998
G01 X52.4726 Y45.9115
G01 X52.4701 Y45.9206
G01 X52.4683 Y45.9298
G01 X52.4670 Y45.9422
G01 X52.4646 Y45.9878
G01 X52.4653 Y46.0012
G01 X52.4717 Y46.0640
G01 X52.4717 Y46.7980
G01 X52.4726 Y46.8131
G01 X52.4740 Y46.8220
G01 X52.4760 Y46.8309
G01 X52.4974 Y46.9038
G01 X52.5032 Y46.9185
G01 X52.5075 Y46.9269
G01 X52.5124 Y46.9350
G01 X52.5179 Y46.9426
G01 X52.5239 Y46.9499
G01 X52.5351 Y46.9609
G01 X52.5904 Y47.0087
G01 X52.6005 Y47.0162
G01 X52.6113 Y47.0227
G01 X52.6197 Y47.0268
G01 X52.6315 Y47.0313
G01 X52.6406 Y47.0339
G01 X52.6498 Y47.0359
G01 X52.7252 Y47.0467
G01 X52.7378 Y47.0476
G01 X52.7535 Y47.0469
G01 X52.7690 Y47.0443
G01 X52.7781 Y47.0418
G01 X52.7870 Y47.0386
G01 X52.8592 Y47.0058
G01 X52.8728 Y46.9981
G01 X52.8854 Y46.9887
G01 X52.8998 Y46.9754
G01 X53.3269 Y46.5484
G01 X53.3339 Y46.5407
G01 X53.3434 Y46.5289
G01 X53.3895 Y46.4856
G01 X53.4081 Y46.4671
G01 X53.4202 Y46.4568
G01 X53.4425 Y46.4358
G01 X53.4546 Y46.4288
G01 X53.4736 Y46.4162
G01 X53.4821 Y46.4098
G01 X53.5129 Y46.3964
G01 X53.5261 Y46.3899
G01 X53.5530 Y46.3751
G01 X53.5632 Y46.3723
G01 X53.5848 Y46.3650
G01 X53.5978 Y46.3598
G01 X53.6310 Y46.3544
G01 X53.6453 Y46.3514
G01 X53.6750 Y46.3438
G01 X53.6890 Y46.3434
G01 X53.7117 Y46.3416
G01 X53.7222 Y46.3401
G01 X53.7527 Y46.3429
G01 X53.7733 Y46.3438
G01 X57.4351 Y46.3438
G01 X57.4441 Y46.3435
G01 X57.4561 Y46.3420
G01 X57.4679 Y46.3395
G01 X57.5437 Y46.3171
G01 X57.5551 Y46.3125
G01 X57.5660 Y46.3068
G01 X57.5763 Y46.3001
G01 X57.5836 Y46.2945
G01 X57.5926 Y46.2861
G01 X57.6311 Y46.2469
G01 X57.6414 Y46.2350
G01 X57.6485 Y46.2247
G01 X57.7004 Y46.1405
G01 X57.8035 Y46.0374
G01 X57.9276 Y45.9609
G01 X58.0669 Y45.9147
G01 X58.1495 Y45.9063
G01 X59.4865 Y45.9063
G01 X59.5691 Y45.9147
G01 X59.7084 Y45.9609
G01 X59.8325 Y46.0374
G01 X59.9356 Y46.1405
G01 X60.0121 Y46.2646
G01 X60.0583 Y46.4039
G01 X60.0667 Y46.4865
G01 X60.0667 Y47.1985
G01 X60.0583 Y47.2811
G01 X60.0121 Y47.4204
G01 X59.9356 Y47.5445
G01 X59.8325 Y47.6476
G01 X59.7084 Y47.7241
G01 X59.5691 Y47.7703
G01 X59.4866 Y47.7787
G01 X58.1495 Y47.7787
G01 X58.0669 Y47.7703
G01 X57.9276 Y47.7241
G01 X57.8035 Y47.6476
G01 X57.7004 Y47.5445
G01 X57.6469 Y47.4578
G01 X57.6417 Y47.4504
G01 X57.6360 Y47.4434
G01 X57.6254 Y47.4326
G01 X57.5711 Y47.3839
G01 X57.5614 Y47.3763
G01 X57.5510 Y47.3698
G01 X57.5401 Y47.3643
G01 X57.5286 Y47.3598
G01 X57.5168 Y47.3565
G01 X57.4632 Y47.3444
G01 X57.4476 Y47.3418
G01 X57.4351 Y47.3412
G01 X54.0485 Y47.3412
G01 X54.0334 Y47.3421
G01 X54.0186 Y47.3448
G01 X53.9398 Y47.3679
G01 X53.9254 Y47.3739
G01 X53.9172 Y47.3783
G01 X53.9093 Y47.3834
G01 X53.9019 Y47.3890
G01 X53.8812 Y47.4056
G01 X53.8711 Y47.4147
G01 X52.5374 Y48.7483
G01 X52.5293 Y48.7573
G01 X52.5221 Y48.7669
G01 X52.5158 Y48.7772
G01 X52.4823 Y48.8385
G01 X52.4781 Y48.8469
G01 X52.4746 Y48.8556
G01 X52.4709 Y48.8675
G01 X52.4683 Y48.8798
G01 X52.4672 Y48.8891
G01 X52.4648 Y48.9311
G01 X52.4647 Y48.9412
G01 X52.4653 Y48.9512
G01 X52.4717 Y49.0140
G01 X52.4717 Y49.7510
G01 X52.4633 Y49.8336
G01 X52.4171 Y49.9729
G01 X52.3406 Y50.0970
G01 X52.2375 Y50.2001
G01 X52.1134 Y50.2766
G01 X51.9741 Y50.3228
G01 X51.8916 Y50.3312
G01 X50.5045 Y50.3312
G01 X50.4219 Y50.3228
G01 X50.2826 Y50.2766
G01 X50.1585 Y50.2001
G01 X50.0554 Y50.0970
G01 X49.9958 Y50.0003
G01 X49.9872 Y49.9880
G01 X49.9813 Y49.9811
G01 X49.9749 Y49.9747
G01 X49.9184 Y49.9239
G01 X49.9087 Y49.9163
G01 X49.8983 Y49.9098
G01 X49.8874 Y49.9043
G01 X49.8759 Y49.8998
G01 X49.8641 Y49.8965
G01 X49.8105 Y49.8844
G01 X49.8012 Y49.8826
G01 X49.7918 Y49.8816
G01 X49.7824 Y49.8812
G01 X45.8157 Y49.8812
G01 X45.8053 Y49.8816
G01 X45.7902 Y49.8832
G01 X45.7271 Y49.8813
G01 X45.7009 Y49.8812
G01 X45.6850 Y49.8800
G01 X45.6544 Y49.8790
G01 X45.6441 Y49.8762
G01 X45.6218 Y49.8715
G01 X45.6080 Y49.8694
G01 X45.5767 Y49.8571
G01 X45.5628 Y49.8524
G01 X45.5334 Y49.8438
G01 X45.5241 Y49.8385
G01 X45.5037 Y49.8285
G01 X45.4908 Y49.8230
G01 X45.4660 Y49.8050
G01 X45.4538 Y49.7969
G01 X45.4249 Y49.7797
G01 X45.4148 Y49.7701
G01 X45.3974 Y49.7553
G01 X45.3889 Y49.7489
G01 X45.3693 Y49.7253
G01 X45.3554 Y49.7101
G01 X43.1490 Y47.5038
G01 X43.1377 Y47.4937
G01 X43.1253 Y47.4851
G01 X43.0588 Y47.4486
G01 X43.0504 Y47.4445
G01 X43.0418 Y47.4409
G01 X43.0329 Y47.4380
G01 X43.0239 Y47.4358
G01 X43.0147 Y47.4342
G01 X42.9852 Y47.4310
G01 X42.9716 Y47.4303
G01 X42.5257 Y47.4304
G01 X42.5137 Y47.4316
G01 X42.4989 Y47.4346
G01 X42.4290 Y47.4551
G01 X42.4202 Y47.4580
G01 X42.4089 Y47.4629
G01 X42.4008 Y47.4673
G01 X42.3930 Y47.4722
G01 X42.3832 Y47.4796
G01 X42.3742 Y47.4880
G01 X42.3335 Y47.5295
G01 X42.3273 Y47.5366
G01 X42.3200 Y47.5468
G01 X42.2664 Y47.6336
G01 X42.1633 Y47.7367
G01 X42.0392 Y47.8132
G01 X41.8999 Y47.8594
G01 X41.8174 Y47.8678
G01 X40.4803 Y47.8678
G01 X40.3977 Y47.8594
G01 X40.2584 Y47.8132
G01 X40.1343 Y47.7367
G01 X40.0312 Y47.6336
G01 X39.9547 Y47.5095
G01 X39.9085 Y47.3702
G01 X39.9001 Y47.2877
G01 X39.9001 Y46.5756
G01 X39.9085 Y46.4930
G01 X39.9547 Y46.3537
G01 X40.0312 Y46.2296
G01 X40.1343 Y46.1265
G01 X40.2584 Y46.0500
G01 X40.3977 Y46.0038
G01 X40.4803 Y45.9954
G01 X41.2819 Y45.9953
G01 X41.2939 Y45.9941
G01 X41.3087 Y45.9911
G01 X41.3786 Y45.9706
G01 X41.3904 Y45.9665
G01 X41.4017 Y45.9613
G01 X41.4150 Y45.9532
G01 X41.4224 Y45.9476
G01 X41.4431 Y45.9310
G01 X41.4508 Y45.9243
G01 X41.9061 Y45.4691
G01 X41.9131 Y45.4614
G01 X41.9226 Y45.4496
G01 X41.9687 Y45.4063
G01 X41.9873 Y45.3878
G01 X41.9994 Y45.3775
G01 X42.0217 Y45.3565
G01 X42.0338 Y45.3495
G01 X42.0528 Y45.3369
G01 X42.0613 Y45.3305
G01 X42.0921 Y45.3171
G01 X42.1053 Y45.3106
G01 X42.1322 Y45.2958
G01 X42.1424 Y45.2930
G01 X42.1640 Y45.2857
G01 X42.1770 Y45.2805
G01 X42.2102 Y45.2751
G01 X42.2245 Y45.2721
G01 X42.2542 Y45.2645
G01 X42.2682 Y45.2641
G01 X42.2909 Y45.2623
G01 X42.3014 Y45.2608
G01 X42.3319 Y45.2636
G01 X42.3525 Y45.2645
G01 X43.6435 Y45.2645
G01 X43.6525 Y45.2642
G01 X43.6615 Y45.2632
G01 X43.6705 Y45.2616
G01 X43.6792 Y45.2594
G01 X43.7463 Y45.2397
G01 X43.7582 Y45.2355
G01 X43.7696 Y45.2302
G01 X43.7804 Y45.2238
G01 X43.7906 Y45.2164
G01 X43.7999 Y45.2080
G01 X43.8064 Y45.2011
G01 X43.8542 Y45.1458
G01 X43.8617 Y45.1357
G01 X43.8682 Y45.1248
G01 X43.8736 Y45.1133
G01 X43.8787 Y45.0983
G01 X43.8914 Y45.0407
G01 X43.8930 Y45.0317
G01 X43.8940 Y45.0227
G01 X43.8943 Y45.0137
G01 X43.8943 Y20.0280
G01 X43.8937 Y20.0159
G01 X43.8925 Y20.0069
G01 X43.8900 Y19.9951
G01 X43.8695 Y19.9252
G01 X43.8642 Y19.9106
G01 X43.8572 Y19.8967
G01 X43.8503 Y19.8863
G01 X43.8299 Y19.8607
G01 X43.8208 Y19.8506
G01 X40.9049 Y16.9347
G01 X40.8936 Y16.9246
G01 X40.8812 Y16.9160
G01 X40.8119 Y16.8781
G01 X40.8035 Y16.8741
G01 X40.7948 Y16.8708
G01 X40.7798 Y16.8667
G01 X40.7706 Y16.8651
G01 X40.7411 Y16.8619
G01 X40.7275 Y16.8612
G01 X37.5153 Y16.8612
G01 X37.5062 Y16.8615
G01 X37.4972 Y16.8625
G01 X37.4883 Y16.8641
G01 X37.4796 Y16.8663
G01 X37.4125 Y16.8860
G01 X37.3979 Y16.8913
G01 X37.3867 Y16.8968
G01 X37.3762 Y16.9034
G01 X37.3687 Y16.9090
G01 X37.3429 Y16.9300
G01 X36.7869 Y17.4857
G01 X36.5149 Y17.4857
G01 X36.4873 Y17.4871
G01 X36.4780 Y17.4879
G01 X36.4475 Y17.4924
G01 X36.4261 Y17.4974
G01 X37.3092 Y16.6144
G01 X40.9337 Y16.6144
G01 X44.1411 Y19.8218
G01 X44.1411 Y45.4119
G01 X44.0417 Y45.5113
G01 X42.3172 Y45.5113
G01 X42.2925 Y45.5126
G01 X42.2742 Y45.5151
G01 X42.2650 Y45.5168
G01 X42.2441 Y45.5222
G01 X42.2266 Y45.5283
G01 X42.2180 Y45.5317
G01 X42.1985 Y45.5411
G01 X42.1799 Y45.5521
G01 X42.1722 Y45.5574
G01 X42.1574 Y45.5685
G01 X42.1436 Y45.5808
G01 X41.4819 Y46.2423
G01 X40.5176 Y46.2425
G01 X40.4900 Y46.2438
G01 X40.4807 Y46.2449
G01 X40.4503 Y46.2495
G01 X40.4204 Y46.2569
G01 X40.4085 Y46.2605
G01 X40.3796 Y46.2710
G01 X40.3462 Y46.2868
G01 X40.3197 Y46.3025
G01 X40.3094 Y46.3094
G01 X40.2848 Y46.3278
G01 X40.2619 Y46.3484
G01 X40.2531 Y46.3572
G01 X40.2325 Y46.3801
G01 X40.2105 Y46.4098
G01 X40.1946 Y46.4361
G01 X40.1887 Y46.4470
G01 X40.1757 Y46.4749
G01 X40.1652 Y46.5038
G01 X40.1616 Y46.5157
G01 X40.1542 Y46.5456
G01 X40.1488 Y46.5822
G01 X40.1470 Y46.6191
G01 X40.1470 Y47.2441
G01 X40.1488 Y47.2810
G01 X40.1542 Y47.3176
G01 X40.1616 Y47.3475
G01 X40.1652 Y47.3594
G01 X40.1757 Y47.3883
G01 X40.1887 Y47.4162
G01 X40.1946 Y47.4271
G01 X40.2105 Y47.4534
G01 X40.2287 Y47.4782
G01 X40.2366 Y47.4879
G01 X40.2574 Y47.5105
G01 X40.2848 Y47.5354
G01 X40.3145 Y47.5574
G01 X40.3462 Y47.5764
G01 X40.3796 Y47.5922
G01 X40.4144 Y47.6047
G01 X40.4503 Y47.6137
G01 X40.4869 Y47.6191
G01 X40.5238 Y47.6209
G01 X41.7738 Y47.6209
G01 X41.8107 Y47.6191
G01 X41.8473 Y47.6137
G01 X41.8832 Y47.6047
G01 X41.9180 Y47.5922
G01 X41.9514 Y47.5764
G01 X41.9831 Y47.5574
G01 X42.0128 Y47.5354
G01 X42.0402 Y47.5105
G01 X42.0610 Y47.4879
G01 X42.0670 Y47.4807
G01 X42.0871 Y47.4534
G01 X42.1061 Y47.4217
G01 X42.1219 Y47.3883
G01 X42.1324 Y47.3594
G01 X42.1352 Y47.3505
G01 X42.1434 Y47.3176
G01 X42.1488 Y47.2810
G01 X42.1506 Y47.2472
G01 X42.1506 Y47.1835
G01 X43.1778 Y47.1835
G01 X45.5549 Y49.5606
G01 X45.5685 Y49.5731
G01 X45.5756 Y49.5791
G01 X45.5905 Y49.5902
G01 X45.5983 Y49.5952
G01 X45.6143 Y49.6046
G01 X45.6309 Y49.6127
G01 X45.6395 Y49.6163
G01 X45.6569 Y49.6226
G01 X45.6778 Y49.6282
G01 X45.6900 Y49.6306
G01 X45.7083 Y49.6331
G01 X45.7330 Y49.6344
G01 X50.1712 Y49.6344
G01 X50.1712 Y49.7106
G01 X50.1726 Y49.7382
G01 X50.1738 Y49.7506
G01 X50.1791 Y49.7841
G01 X50.1874 Y49.8169
G01 X50.1999 Y49.8517
G01 X50.2157 Y49.8851
G01 X50.2330 Y49.9142
G01 X50.2383 Y49.9219
G01 X50.2567 Y49.9465
G01 X50.2816 Y49.9739
G01 X50.3090 Y49.9988
G01 X50.3336 Y50.0172
G01 X50.3413 Y50.0225
G01 X50.3650 Y50.0367
G01 X50.3759 Y50.0426
G01 X50.4067 Y50.0568
G01 X50.4357 Y50.0671
G01 X50.4446 Y50.0697
G01 X50.4745 Y50.0771
G01 X50.5049 Y50.0817
G01 X50.5173 Y50.0829
G01 X50.5480 Y50.0843
G01 X51.8480 Y50.0843
G01 X51.8787 Y50.0829
G01 X51.8880 Y50.0821
G01 X51.9154 Y50.0781
G01 X51.9276 Y50.0757
G01 X51.9574 Y50.0681
G01 X51.9922 Y50.0556
G01 X52.0256 Y50.0398
G01 X52.0521 Y50.0241
G01 X52.0624 Y50.0172
G01 X52.0846 Y50.0007
G01 X52.0918 Y49.9947
G01 X52.1144 Y49.9739
G01 X52.1393 Y49.9465
G01 X52.1613 Y49.9168
G01 X52.1772 Y49.8905
G01 X52.1817 Y49.8824
G01 X52.1936 Y49.8574
G01 X52.1984 Y49.8459
G01 X52.2086 Y49.8169
G01 X52.2176 Y49.7810
G01 X52.2230 Y49.7444
G01 X52.2248 Y49.7075
G01 X52.2248 Y49.0575
G01 X52.2230 Y49.0206
G01 X52.2176 Y48.9840
G01 X52.2102 Y48.9541
G01 X52.2066 Y48.9422
G01 X52.1949 Y48.9104
G01 X52.1803 Y48.8799
G01 X52.1630 Y48.8508
G01 X52.1577 Y48.8431
G01 X52.1412 Y48.8209
G01 X52.1294 Y48.8073
G01 X53.8423 Y47.0944
G01 X57.8162 Y47.0944
G01 X57.8162 Y47.1581
G01 X57.8176 Y47.1857
G01 X57.8188 Y47.1981
G01 X57.8241 Y47.2316
G01 X57.8324 Y47.2644
G01 X57.8449 Y47.2992
G01 X57.8607 Y47.3326
G01 X57.8780 Y47.3617
G01 X57.8833 Y47.3694
G01 X57.9017 Y47.3940
G01 X57.9266 Y47.4214
G01 X57.9540 Y47.4463
G01 X57.9786 Y47.4647
G01 X57.9889 Y47.4716
G01 X58.0127 Y47.4858
G01 X58.0209 Y47.4901
G01 X58.0517 Y47.5043
G01 X58.0807 Y47.5146
G01 X58.0896 Y47.5172
G01 X58.1195 Y47.5246
G01 X58.1499 Y47.5292
G01 X58.1623 Y47.5304
G01 X58.1930 Y47.5318
G01 X59.4430 Y47.5318
G01 X59.4799 Y47.5300
G01 X59.5165 Y47.5246
G01 X59.5464 Y47.5172
G01 X59.5583 Y47.5136
G01 X59.5872 Y47.5031
G01 X59.6151 Y47.4901
G01 X59.6260 Y47.4842
G01 X59.6523 Y47.4683
G01 X59.6820 Y47.4463
G01 X59.7049 Y47.4257
G01 X59.7137 Y47.4169
G01 X59.7343 Y47.3940
G01 X59.7563 Y47.3643
G01 X59.7722 Y47.3380
G01 X59.7781 Y47.3271
G01 X59.7911 Y47.2992
G01 X59.8026 Y47.2673
G01 X59.8112 Y47.2346
G01 X59.8136 Y47.2224
G01 X59.8180 Y47.1919
G01 X59.8198 Y47.1581
G01 X59.8198 Y46.5300
G01 X59.8183 Y46.4962
G01 X59.8136 Y46.4626
G01 X59.8112 Y46.4504
G01 X59.8036 Y46.4206
G01 X59.7911 Y46.3858
G01 X59.7753 Y46.3524
G01 X59.7596 Y46.3259
G01 X59.7545 Y46.3181
G01 X59.7381 Y46.2959
G01 X59.7302 Y46.2862
G01 X59.7094 Y46.2636
G01 X59.6820 Y46.2387
G01 X59.6523 Y46.2167
G01 X59.6260 Y46.2008
G01 X59.6151 Y46.1949
G01 X59.5901 Y46.1831
G01 X59.5814 Y46.1796
G01 X59.5524 Y46.1694
G01 X59.5165 Y46.1604
G01 X59.4799 Y46.1550
G01 X59.4430 Y46.1532
G01 X58.1899 Y46.1532
G01 X58.1561 Y46.1550
G01 X58.1256 Y46.1594
G01 X58.1164 Y46.1611
G01 X58.0896 Y46.1678
G01 X58.0807 Y46.1704
G01 X58.0517 Y46.1807
G01 X58.0431 Y46.1844
G01 X58.0181 Y46.1963
G01 X58.0100 Y46.2008
G01 X57.9837 Y46.2167
G01 X57.9589 Y46.2349
G01 X57.9516 Y46.2407
G01 X57.9288 Y46.2614
G01 X57.9223 Y46.2681
G01 X57.9037 Y46.2886
G01 X57.8979 Y46.2959
G01 X57.8797 Y46.3207
G01 X57.8607 Y46.3524
G01 X57.8449 Y46.3858
G01 X57.8344 Y46.4147
G01 X57.8316 Y46.4236
G01 X57.8234 Y46.4565
G01 X57.8180 Y46.4931
G01 X57.8162 Y46.5269
G01 X57.8162 Y46.5906
G01 X53.7380 Y46.5906
G01 X53.7164 Y46.5916
G01 X53.7071 Y46.5926
G01 X53.6889 Y46.5955
G01 X53.6679 Y46.6006
G01 X53.6590 Y46.6034
G01 X53.6416 Y46.6098
G01 X53.6220 Y46.6189
G01 X53.6139 Y46.6234
G01 X53.5981 Y46.6331
G01 X53.5831 Y46.6440
G01 X53.5758 Y46.6498
G01 X53.5599 Y46.6644
G01 X51.5436 Y48.6807
G01 X50.5449 Y48.6807
G01 X50.5111 Y48.6825
G01 X50.4806 Y48.6869
G01 X50.4684 Y48.6893
G01 X50.4357 Y48.6979
G01 X50.4038 Y48.7094
G01 X50.3704 Y48.7252
G01 X50.3387 Y48.7442
G01 X50.3114 Y48.7643
G01 X50.3042 Y48.7703
G01 X50.2816 Y48.7911
G01 X50.2608 Y48.8137
G01 X50.2548 Y48.8209
G01 X50.2383 Y48.8431
G01 X50.2314 Y48.8534
G01 X50.2157 Y48.8799
G01 X50.1999 Y48.9133
G01 X50.1874 Y48.9481
G01 X50.1791 Y48.9809
G01 X50.1738 Y49.0144
G01 X50.1726 Y49.0268
G01 X50.1712 Y49.0544
G01 X50.1712 Y49.1306
G01 X45.8373 Y49.1306
G01 X43.4602 Y46.7535
G01 X43.4419 Y46.7369
G01 X43.4220 Y46.7222
G01 X43.4036 Y46.7110
G01 X43.3953 Y46.7067
G01 X43.3785 Y46.6989
G01 X43.3552 Y46.6906
G01 X43.3343 Y46.6852
G01 X43.3251 Y46.6835
G01 X43.3068 Y46.6810
G01 X43.2852 Y46.6798
G01 X42.1506 Y46.6797
G01 X42.1506 Y46.6160
G01 X42.1488 Y46.5822
G01 X42.1434 Y46.5456
G01 X42.1344 Y46.5097
G01 X42.1219 Y46.4749
G01 X42.1061 Y46.4415
G01 X42.0871 Y46.4098
G01 X42.0689 Y46.3850
G01 X42.0612 Y46.3756
G01 X42.4215 Y46.0151
G01 X44.1460 Y46.0151
G01 X44.1707 Y46.0138
G01 X44.1890 Y46.0113
G01 X44.1982 Y46.0096
G01 X44.2161 Y46.0051
G01 X44.2250 Y46.0023
G01 X44.2424 Y45.9959
G01 X44.2620 Y45.9868
G01 X44.2701 Y45.9823
G01 X44.2859 Y45.9726
G01 X44.3009 Y45.9617
G01 X44.3082 Y45.9559
G01 X44.3241 Y45.9413
G01 X44.5733 Y45.6921
G01 X44.5877 Y45.6760
G01 X44.6024 Y45.6561
G01 X44.6151 Y45.6349
G01 X44.6232 Y45.6183
G01 X44.6279 Y45.6068
G01 X44.6349 Y45.5863
G01 X44.6400 Y45.5653
G01 X44.6436 Y45.5409
G01 X44.6449 Y45.5162
G01 X44.6449 Y19.7175
G01 X44.6439 Y19.6959
G01 X44.6429 Y19.6866
G01 X44.6400 Y19.6684
G01 X44.6349 Y19.6474
G01 X44.6321 Y19.6385
G01 X44.6257 Y19.6211
G01 X44.6166 Y19.6015
G01 X44.6121 Y19.5934
G01 X44.6024 Y19.5776
G01 X44.5915 Y19.5626
G01 X44.5857 Y19.5553
G01 X44.5711 Y19.5394
G01 X41.2161 Y16.1844
G01 X41.1978 Y16.1678
G01 X41.1779 Y16.1531
G01 X41.1567 Y16.1404
G01 X41.1401 Y16.1323
G01 X41.1315 Y16.1287
G01 X41.1141 Y16.1224
G01 X41.0902 Y16.1161
G01 X41.0810 Y16.1144
G01 X41.0627 Y16.1119
G01 X41.0380 Y16.1106
G01 X37.2048 Y16.1106
G01 X37.1832 Y16.1116
G01 X37.1740 Y16.1126
G01 X37.1557 Y16.1155
G01 X37.1317 Y16.1215
G01 X37.1143 Y16.1276
G01 X37.1056 Y16.1310
G01 X37.0889 Y16.1389
G01 X37.0807 Y16.1434
G01 X37.0649 Y16.1531
G01 X37.0500 Y16.1640
G01 X37.0427 Y16.1698
G01 X37.0290 Y16.1822
G01 X35.6473 Y17.5638
G01 X35.6273 Y17.5492
G01 X35.5983 Y17.5317
G01 X35.5901 Y17.5274
G01 X35.5593 Y17.5132
G01 X35.5274 Y17.5019
G01 X35.4976 Y17.4943
G01 X35.4854 Y17.4919
G01 X35.4549 Y17.4875
G01 X35.4180 Y17.4857
G01 X34.8180 Y17.4857
G01 X34.7873 Y17.4871
G01 X34.7780 Y17.4879
G01 X34.7445 Y17.4929
G01 X34.7146 Y17.5003
G01 X34.7027 Y17.5039
G01 X34.6738 Y17.5144
G01 X34.6459 Y17.5274
G01 X34.6350 Y17.5333
G01 X34.6087 Y17.5492
G01 X34.5839 Y17.5674
G01 X34.5742 Y17.5753
G01 X34.5516 Y17.5961
G01 X34.5308 Y17.6187
G01 X34.5229 Y17.6284
G01 X34.5047 Y17.6532
G01 X34.4888 Y17.6795
G01 X34.4829 Y17.6904
G01 X34.4687 Y17.7212
G01 X34.4574 Y17.7531
G01 X34.4484 Y17.7890
G01 X34.4430 Y17.8256
G01 X34.4412 Y17.8625
G01 X34.4412 Y21.9625
G01 X34.4427 Y21.9963
G01 X34.4438 Y22.0056
G01 X34.4484 Y22.0360
G01 X34.4574 Y22.0719
G01 X34.4699 Y22.1067
G01 X34.4829 Y22.1346
G01 X34.4872 Y22.1428
G01 X34.5030 Y22.1692
G01 X34.5229 Y22.1966
G01 X34.5287 Y22.2039
G01 X34.5473 Y22.2244
G01 X34.5561 Y22.2332
G01 X34.5790 Y22.2538
G01 X34.6087 Y22.2758
G01 X34.6404 Y22.2948
G01 X34.6738 Y22.3106
G01 X34.7086 Y22.3231
G01 X34.7445 Y22.3321
G01 X34.7811 Y22.3375
G01 X34.8149 Y22.3393
G01 X35.4211 Y22.3393
G01 X35.4518 Y22.3378
G01 X35.4611 Y22.3367
G01 X35.4915 Y22.3321
G01 X35.5244 Y22.3239
G01 X35.5333 Y22.3211
G01 X35.5622 Y22.3106
G01 X35.5901 Y22.2976
G01 X35.6010 Y22.2917
G01 X35.6273 Y22.2758
G01 X35.6521 Y22.2576
G01 X35.6618 Y22.2497
G01 X35.6844 Y22.2289
G01 X35.7093 Y22.2015
G01 X35.7277 Y22.1769
G01 X35.7346 Y22.1666
G01 X35.7503 Y22.1401
G01 X35.7636 Y22.1124
G01 X35.7684 Y22.1009
G01 X35.7786 Y22.0719
G01 X35.7876 Y22.0360
G01 X35.7922 Y22.0056
G01 X35.7934 Y21.9932
G01 X35.7948 Y21.9625
G01 X35.7948 Y18.1287
G01 X36.1529 Y17.7706
G01 X36.1479 Y17.7920
G01 X36.1434 Y17.8225
G01 X36.1426 Y17.8318
G01 X36.1412 Y17.8594
G01 X36.1412 Y18.1314
G01 X36.1110 Y18.1618
G01 X36.1051 Y18.1687
G01 X36.0998 Y18.1760
G01 X36.0935 Y18.1863
G01 X36.0572 Y18.2532
G01 X36.0513 Y18.2676
G01 X36.0472 Y18.2826
G01 X36.0453 Y18.2949
G01 X36.0424 Y18.3212
G01 X36.0417 Y18.3314
G01 X36.0417 Y22.0060
G01 X36.0333 Y22.0886
G01 X35.9871 Y22.2279
G01 X35.9106 Y22.3520
G01 X35.8075 Y22.4551
G01 X35.6834 Y22.5316
G01 X35.5441 Y22.5778
G01 X35.4616 Y22.5862
G01 X34.7745 Y22.5862
G01 X34.6919 Y22.5778
G01 X34.5526 Y22.5316
G01 X34.4285 Y22.4551
G01 X34.3254 Y22.3520
G01 X34.2489 Y22.2279
G01 X34.2027 Y22.0886
G01 X34.1943 Y22.0061
G01 X34.1943 Y17.8190
G00 Z2.0000
G00 X35.5791 Y17.3722
G01 F60.00
G01 Z-0.1000
G01 F120.00
G01 X35.6328 Y17.3618
G01 X35.6455 Y17.3585
G01 X35.6601 Y17.3538
G01 X35.6245 Y17.3894
G01 X35.6095 Y17.3831
G01 X35.5791 Y17.3722
G00 Z2.0000
G00 X35.9350 Y18.1858
G01 F60.00
G01 Z-0.1000
G01 F120.00
G01 X35.9346 Y18.1866
G01 X35.9343 Y18.1872
G01 X35.9343 Y18.1865
G01 X35.9350 Y18.1858
G00 Z2.0000
G00 X37.3678 Y16.7538
G01 F60.00
G01 Z-0.1000
G01 F120.00
G01 X37.3670 Y16.7541
G01 X37.3665 Y16.7543
G01 X37.3669 Y16.7538
G01 X37.3678 Y16.7538
G00 Z2.0000
G00 X36.5065 Y14.2143
G01 F60.00
G01 Z-0.1000
G01 F120.00
G01 X36.5069 Y14.2138
G01 X36.5078 Y14.2138
G01 X36.5070 Y14.2141
G01 X36.5065 Y14.2143
G00 Z2.0000
G00 X40.8765 Y16.7545
G01 F60.00
G01 Z-0.1000
G01 F120.00
G01 X40.8757 Y16.7541
G01 X40.8753 Y16.7538
G01 X40.8759 Y16.7538
G01 X40.8765 Y16.7545
G00 Z2.0000
G00 X44.0017 Y19.8805
G01 F60.00
G01 Z-0.1000
G01 F120.00
G01 X44.0014 Y19.8796
G01 X44.0012 Y19.8792
G01 X44.0017 Y19.8796
G01 X44.0017 Y19.8805
G00 Z2.0000
G00 X45.9553 Y14.2138
G01 F60.00
G01 Z-0.1000
G01 F120.00
G01 X45.9559 Y14.2138
G01 X45.9565 Y14.2145
G01 X45.9557 Y14.2141
G01 X45.9553 Y14.2138
G00 Z2.0000
G00 X50.8062 Y19.0642
G01 F60.00
G01 Z-0.1000
G01 F120.00
G01 X50.8067 Y19.0646
G01 X50.8067 Y19.0655
G01 X50.8064 Y19.0646
G01 X50.8062 Y19.0642
G00 Z2.0000
G00 X50.8067 Y20.8078
G01 F60.00
G01 Z-0.1000
G01 F120.00
G01 X50.8067 Y21.0111
G01 X50.5957 Y21.0111
G01 X50.6094 Y21.0064
G01 X50.6216 Y21.0015
G01 X50.6336 Y20.9959
G01 X50.6511 Y20.9864
G01 X50.6623 Y20.9794
G01 X50.6784 Y20.9679
G01 X50.6887 Y20.9595
G01 X50.6985 Y20.9507
G01 X50.7079 Y20.9414
G01 X50.7168 Y20.9316
G01 X50.7625 Y20.8788
G01 X50.7750 Y20.8632
G01 X50.7863 Y20.8468
G01 X50.7932 Y20.8354
G01 X50.7994 Y20.8236
G01 X50.8067 Y20.8078
G00 Z2.0000
G00 X51.7927 Y21.0111
G01 F60.00
G01 Z-0.1000
G01 F120.00
G01 X51.5893 Y21.0111
G01 X51.5893 Y20.8003
G01 X51.5940 Y20.8138
G01 X51.5990 Y20.8260
G01 X51.6075 Y20.8439
G01 X51.6140 Y20.8555
G01 X51.6247 Y20.8721
G01 X51.6325 Y20.8828
G01 X51.6409 Y20.8931
G01 X51.6497 Y20.9029
G01 X51.6590 Y20.9123
G01 X51.6688 Y20.9212
G01 X51.7216 Y20.9669
G01 X51.7372 Y20.9794
G01 X51.7481 Y20.9871
G01 X51.7650 Y20.9976
G01 X51.7768 Y21.0038
G01 X51.7927 Y21.0111
G00 Z2.0000
G00 X60.7127 Y27.1647
G01 F60.00
G01 Z-0.1000
G01 F120.00
G01 X60.7080 Y27.1512
G01 X60.7030 Y27.1390
G01 X60.6975 Y27.1270
G01 X60.6880 Y27.1095
G01 X60.6810 Y27.0983
G01 X60.6735 Y27.0875
G01 X60.6611 Y27.0719
G01 X60.6523 Y27.0621
G01 X60.6430 Y27.0527
G01 X60.6332 Y27.0438
G01 X60.5804 Y26.9981
G01 X60.5648 Y26.9856
G01 X60.5539 Y26.9779
G01 X60.5370 Y26.9674
G01 X60.5252 Y26.9612
G01 X60.5093 Y26.9539
G01 X60.7127 Y26.9539
G01 X60.7127 Y27.1647
G00 Z2.0000
G00 X61.7063 Y26.9539
G01 F60.00
G01 Z-0.1000
G01 F120.00
G01 X61.6926 Y26.9586
G01 X61.6804 Y26.9636
G01 X61.6625 Y26.9721
G01 X61.6509 Y26.9786
G01 X61.6397 Y26.9856
G01 X61.6289 Y26.9931
G01 X61.6133 Y27.0055
G01 X61.6035 Y27.0143
G01 X61.5941 Y27.0236
G01 X61.5852 Y27.0334
G01 X61.5395 Y27.0862
G01 X61.5270 Y27.1018
G01 X61.5157 Y27.1182
G01 X61.5088 Y27.1296
G01 X61.5026 Y27.1414
G01 X61.4953 Y27.1572
G01 X61.4953 Y26.9539
G01 X61.7063 Y26.9539
G00 Z2.0000
G00 X62.8188 Y22.8212
G01 F60.00
G01 Z-0.1000
G01 F120.00
G01 X62.8184 Y22.8220
G01 X62.8181 Y22.8225
G01 X62.8181 Y22.8219
G01 X62.8188 Y22.8212
G00 Z2.0000
G00 X62.8124 Y21.2227
G01 F60.00
G01 Z-0.1000
G01 F120.00
G01 X62.8236 Y21.2316
G01 X62.8849 Y21.2774
G01 X62.8958 Y21.2848
G01 X62.9071 Y21.2916
G01 X62.9247 Y21.3008
G01 X62.9429 Y21.3086
G01 X62.9554 Y21.3131
G01 X62.9680 Y21.3169
G01 X62.9873 Y21.3215
G01 X63.0004 Y21.3238
G01 X63.0135 Y21.3254
G01 X63.0898 Y21.3309
G01 X63.1096 Y21.3316
G01 X63.1294 Y21.3308
G01 X63.1426 Y21.3294
G01 X63.1556 Y21.3274
G01 X63.1686 Y21.3248
G01 X63.1814 Y21.3215
G01 X63.1940 Y21.3176
G01 X63.2065 Y21.3130
G01 X63.2186 Y21.3079
G01 X63.2314 Y21.3016
G01 X62.8181 Y21.7150
G01 X62.8181 Y21.2774
G01 X62.8178 Y21.2643
G01 X62.8168 Y21.2513
G01 X62.8152 Y21.2383
G01 X62.8124 Y21.2227
G00 Z2.0000
G00 X71.4270 Y14.2138
G01 F60.00
G01 Z-0.1000
G01 F120.00
G01 X71.4261 Y14.2141
G01 X71.4257 Y14.2143
G01 X71.4261 Y14.2138
G01 X71.4270 Y14.2138
G00 Z2.0000
G00 X78.2745 Y13.4312
G01 F60.00
G01 Z-0.1000
G01 F120.00
G01 X78.2880 Y13.4265
G01 X78.3002 Y13.4215
G01 X78.3122 Y13.4160
G01 X78.3239 Y13.4098
G01 X78.3353 Y13.4031
G01 X78.3463 Y13.3958
G01 X78.3570 Y13.3880
G01 X78.3673 Y13.3796
G01 X78.3818 Y13.3662
G01 X78.3954 Y13.3517
G01 X78.4454 Y13.2939
G01 X78.4535 Y13.2835
G01 X78.4612 Y13.2726
G01 X78.4377 Y13.4312
G01 X78.2745 Y13.4312
G00 Z2.0000
G00 X78.4627 Y14.3827
G01 F60.00
G01 Z-0.1000
G01 F120.00
G01 X78.4463 Y14.3525
G01 X78.4395 Y14.3412
G01 X78.4321 Y14.3302
G01 X78.4241 Y14.3196
G01 X78.4157 Y14.3095
G01 X78.4021 Y14.2950
G01 X78.3924 Y14.2860
G01 X78.3771 Y14.2733
G01 X78.3664 Y14.2656
G01 X78.3554 Y14.2583
G01 X78.3439 Y14.2517
G01 X78.2752 Y14.2138
G01 X78.4377 Y14.2138
G01 X78.4627 Y14.3827
G00 Z2.0000
G00 X73.5115 Y44.3095
G01 F60.00
G01 Z-0.1000
G01 F120.00
G01 X73.5107 Y44.3091
G01 X73.5103 Y44.3088
G01 X73.5109 Y44.3088
G01 X73.5115 Y44.3095
G00 Z2.0000
G00 X80.2576 Y49.9487
G01 F60.00
G01 Z-0.1000
G01 F120.00
G01 X80.2757 Y49.9572
G01 X80.2936 Y49.9641
G01 X80.3058 Y49.9680
G01 X80.3181 Y49.9713
G01 X80.3369 Y49.9751
G01 X80.3560 Y49.9775
G01 X80.3751 Y49.9786
G01 X80.3879 Y49.9785
G01 X80.4176 Y49.9770
G01 X80.3966 Y49.9897
G01 X80.3858 Y49.9969
G01 X80.3556 Y50.0193
G01 X80.3407 Y50.0318
G01 X80.2576 Y49.9487
G00 Z2.0000
G00 X80.1617 Y50.9607
G01 F60.00
G01 Z-0.1000
G01 F120.00
G01 X80.1614 Y50.9596
G01 X80.1612 Y50.9592
G01 X80.1617 Y50.9597
G01 X80.1617 Y50.9607
G00 Z2.0000
G00 X60.0535 Y44.3088
G01 F60.00
G01 Z-0.1000
G01 F120.00
G01 X60.0405 Y44.3133
G01 X60.0226 Y44.3208
G01 X60.0053 Y44.3295
G01 X59.9887 Y44.3394
G01 X59.9781 Y44.3467
G01 X59.9628 Y44.3586
G01 X59.9484 Y44.3716
G01 X59.9355 Y44.3846
G01 X59.9405 Y44.3673
G01 X59.9480 Y44.3371
G01 X59.9506 Y44.3243
G01 X59.9529 Y44.3088
G01 X60.0535 Y44.3088
G00 Z2.0000
G00 X60.1317 Y43.3547
G01 F60.00
G01 Z-0.1000
G01 F120.00
G01 X60.1366 Y43.3672
G01 X60.1454 Y43.3867
G01 X60.0998 Y43.3867
G01 X60.1317 Y43.3547
G00 Z2.0000
G00 X60.2697 Y43.0195
G01 F60.00
G01 Z-0.1000
G01 F120.00
G01 X60.2637 Y43.0318
G01 X60.2586 Y43.0440
G01 X60.2540 Y43.0564
G01 X60.2484 Y43.0754
G01 X60.2442 Y43.0948
G01 X60.2422 Y43.1078
G01 X60.2404 Y43.1276
G01 X60.2400 Y43.1408
G01 X60.2407 Y43.1606
G01 X60.2457 Y43.2303
G01 X60.2478 Y43.2500
G01 X60.2501 Y43.2631
G01 X60.2546 Y43.2824
G01 X60.2606 Y43.3013
G01 X60.2654 Y43.3136
G01 X60.2708 Y43.3257
G01 X60.2768 Y43.3375
G01 X60.2868 Y43.3546
G01 X60.2942 Y43.3656
G01 X60.3440 Y43.4321
G01 X60.3524 Y43.4423
G01 X60.3660 Y43.4567
G01 X60.3806 Y43.4701
G01 X60.3909 Y43.4784
G01 X60.4071 Y43.4899
G01 X60.4183 Y43.4969
G01 X60.4358 Y43.5063
G01 X60.4478 Y43.5118
G01 X60.4853 Y43.5262
G01 X59.9529 Y43.5262
G01 X59.9506 Y43.5107
G01 X59.9480 Y43.4979
G01 X59.9370 Y43.4551
G01 X59.9224 Y43.4135
G01 X59.9174 Y43.4014
G01 X59.9080 Y43.3813
G01 X60.2697 Y43.0195
G00 Z2.0000
G00 X59.0923 Y43.0887
G01 F60.00
G01 Z-0.1000
G01 F120.00
G01 X59.0934 Y43.0884
G01 X59.0938 Y43.0882
G01 X59.0933 Y43.0887
G01 X59.0923 Y43.0887
G00 Z2.0000
G00 X57.5825 Y43.5262
G01 F60.00
G01 Z-0.1000
G01 F120.00
G01 X57.5955 Y43.5217
G01 X57.6134 Y43.5142
G01 X57.6307 Y43.5055
G01 X57.6473 Y43.4956
G01 X57.6631 Y43.4844
G01 X57.6732 Y43.4764
G01 X57.6876 Y43.4634
G01 X57.7005 Y43.4504
G01 X57.6955 Y43.4677
G01 X57.6880 Y43.4979
G01 X57.6854 Y43.5107
G01 X57.6831 Y43.5262
G01 X57.5825 Y43.5262
G00 Z2.0000
G00 X57.7018 Y44.3888
G01 F60.00
G01 Z-0.1000
G01 F120.00
G01 X57.6619 Y44.3529
G01 X57.6519 Y44.3448
G01 X57.6415 Y44.3371
G01 X57.6307 Y44.3300
G01 X57.6140 Y44.3202
G01 X57.6025 Y44.3144
G01 X57.5897 Y44.3088
G01 X57.6831 Y44.3088
G01 X57.6854 Y44.3243
G01 X57.6880 Y44.3371
G01 X57.6971 Y44.3736
G01 X57.7018 Y44.3888
G00 Z2.0000
G00 X57.5825 Y46.4512
G01 F60.00
G01 Z-0.1000
G01 F120.00
G01 X57.5955 Y46.4467
G01 X57.6134 Y46.4392
G01 X57.6307 Y46.4305
G01 X57.6473 Y46.4206
G01 X57.6631 Y46.4094
G01 X57.6732 Y46.4014
G01 X57.6876 Y46.3884
G01 X57.7005 Y46.3754
G01 X57.6955 Y46.3927
G01 X57.6880 Y46.4229
G01 X57.6854 Y46.4357
G01 X57.6831 Y46.4512
G01 X57.5825 Y46.4512
G00 Z2.0000
G00 X57.7018 Y47.3138
G01 F60.00
G01 Z-0.1000
G01 F120.00
G01 X57.6619 Y47.2779
G01 X57.6519 Y47.2698
G01 X57.6415 Y47.2621
G01 X57.6307 Y47.2550
G01 X57.6140 Y47.2452
G01 X57.6025 Y47.2394
G01 X57.5897 Y47.2338
G01 X57.6831 Y47.2338
G01 X57.6854 Y47.2493
G01 X57.6880 Y47.2621
G01 X57.6971 Y47.2986
G01 X57.7018 Y47.3138
G00 Z2.0000
G00 X53.9010 Y47.2338
G01 F60.00
G01 Z-0.1000
G01 F120.00
G01 X53.9001 Y47.2341
G01 X53.8997 Y47.2343
G01 X53.9001 Y47.2338
G01 X53.9010 Y47.2338
G00 Z2.0000
G00 X52.3843 Y47.4455
G01 F60.00
G01 Z-0.1000
G01 F120.00
G01 X52.3754 Y47.4236
G01 X52.3667 Y47.4054
G01 X52.3572 Y47.3876
G01 X52.3468 Y47.3704
G01 X52.3355 Y47.3536
G01 X52.3296 Y47.3455
G01 X52.2877 Y47.2896
G01 X52.2752 Y47.2737
G01 X52.2658 Y47.2629
G01 X52.2973 Y47.2349
G01 X52.3117 Y47.2212
G01 X52.3254 Y47.2068
G01 X52.3419 Y47.1886
G01 X52.3547 Y47.1737
G01 X52.4130 Y47.2240
G01 X52.4288 Y47.2364
G01 X52.4453 Y47.2480
G01 X52.4623 Y47.2588
G01 X52.4799 Y47.2688
G01 X52.4888 Y47.2734
G01 X52.4979 Y47.2778
G01 X52.5163 Y47.2860
G01 X52.5362 Y47.2936
G01 X52.3843 Y47.4455
G00 Z2.0000
G00 X52.2461 Y47.7810
G01 F60.00
G01 Z-0.1000
G01 F120.00
G01 X52.2523 Y47.7682
G01 X52.2598 Y47.7499
G01 X52.2640 Y47.7373
G01 X52.2692 Y47.7182
G01 X52.2718 Y47.7052
G01 X52.2746 Y47.6856
G01 X52.2756 Y47.6724
G01 X52.2759 Y47.6526
G01 X52.2753 Y47.6394
G01 X52.2703 Y47.5697
G01 X52.2691 Y47.5565
G01 X52.2671 Y47.5434
G01 X52.2630 Y47.5240
G01 X52.2575 Y47.5050
G01 X52.2506 Y47.4864
G01 X52.2423 Y47.4684
G01 X52.2327 Y47.4510
G01 X52.2218 Y47.4344
G01 X52.1720 Y47.3679
G01 X52.1636 Y47.3577
G01 X52.1500 Y47.3433
G01 X52.1403 Y47.3342
G01 X52.1303 Y47.3257
G01 X52.1198 Y47.3176
G01 X52.1033 Y47.3065
G01 X52.0919 Y47.2998
G01 X52.0742 Y47.2909
G01 X52.0559 Y47.2832
G01 X51.9820 Y47.2559
G01 X52.0041 Y47.2496
G01 X52.0456 Y47.2345
G01 X52.0797 Y47.2187
G01 X52.0971 Y47.2097
G01 X52.1348 Y47.1868
G01 X52.1652 Y47.1646
G01 X52.1805 Y47.1524
G01 X52.2131 Y47.1226
G01 X52.2429 Y47.0900
G01 X52.2551 Y47.0747
G01 X52.2773 Y47.0443
G01 X52.3002 Y47.0066
G01 X52.3063 Y46.9951
G01 X52.3197 Y46.9670
G01 X52.3274 Y46.9490
G01 X52.3401 Y46.9136
G01 X52.3439 Y46.9011
G01 X52.3473 Y46.8877
G01 X52.3646 Y46.9464
G01 X52.3690 Y46.9589
G01 X52.3739 Y46.9712
G01 X52.3825 Y46.9891
G01 X52.3890 Y47.0006
G01 X52.3960 Y47.0118
G01 X52.4075 Y47.0280
G01 X52.4202 Y47.0432
G01 X52.4340 Y47.0574
G01 X52.4438 Y47.0663
G01 X52.5017 Y47.1164
G01 X52.5121 Y47.1245
G01 X52.5229 Y47.1321
G01 X52.5340 Y47.1392
G01 X52.5514 Y47.1488
G01 X52.5634 Y47.1544
G01 X52.5818 Y47.1617
G01 X52.5944 Y47.1659
G01 X52.6136 Y47.1709
G01 X52.6331 Y47.1744
G01 X52.7022 Y47.1844
G01 X52.7154 Y47.1859
G01 X52.7352 Y47.1870
G01 X52.7484 Y47.1869
G01 X52.7682 Y47.1856
G01 X52.7878 Y47.1828
G01 X52.8072 Y47.1785
G01 X52.8199 Y47.1748
G01 X52.8386 Y47.1682
G01 X52.8752 Y47.1518
G01 X52.2461 Y47.7810
G00 Z2.0000
G00 X52.3573 Y48.7767
G01 F60.00
G01 Z-0.1000
G01 F120.00
G01 X52.3485 Y48.7953
G01 X52.3437 Y48.8075
G01 X52.3394 Y48.8199
G01 X52.3358 Y48.8326
G01 X52.3329 Y48.8453
G01 X52.3305 Y48.8583
G01 X52.3290 Y48.8702
G01 X52.3224 Y48.8539
G01 X52.3088 Y48.8251
G01 X52.3573 Y48.7767
G00 Z2.0000
G00 X51.4848 Y48.5412
G01 F60.00
G01 Z-0.1000
G01 F120.00
G01 X51.4859 Y48.5409
G01 X51.4863 Y48.5407
G01 X51.4858 Y48.5412
G01 X51.4848 Y48.5412
G00 Z2.0000
G00 X49.9298 Y48.9912
G01 F60.00
G01 Z-0.1000
G01 F120.00
G01 X49.9428 Y48.9867
G01 X49.9607 Y48.9792
G01 X49.9779 Y48.9705
G01 X49.9945 Y48.9606
G01 X50.0104 Y48.9494
G01 X50.0254 Y48.9372
G01 X50.0348 Y48.9284
G01 X50.0534 Y48.9097
G01 X50.0445 Y48.9440
G01 X50.0416 Y48.9568
G01 X50.0362 Y48.9912
G01 X49.9298 Y48.9912
G00 Z2.0000
G00 X50.0543 Y49.8584
G01 F60.00
G01 Z-0.1000
G01 F120.00
G01 X50.0092 Y49.8179
G01 X49.9940 Y49.8059
G01 X49.9835 Y49.7985
G01 X49.9670 Y49.7884
G01 X49.9498 Y49.7794
G01 X49.9370 Y49.7738
G01 X50.0362 Y49.7738
G01 X50.0404 Y49.8018
G01 X50.0430 Y49.8146
G01 X50.0505 Y49.8448
G01 X50.0543 Y49.8584
G00 Z2.0000
G00 X50.4096 Y45.7571
G01 F60.00
G01 Z-0.1000
G01 F120.00
G01 X50.4386 Y45.7469
G01 X50.4745 Y45.7379
G01 X50.5111 Y45.7325
G01 X50.5449 Y45.7307
G01 X51.5436 Y45.7307
G01 X53.5349 Y43.7394
G01 X53.5508 Y43.7248
G01 X53.5581 Y43.7190
G01 X53.5731 Y43.7081
G01 X53.5889 Y43.6984
G01 X53.5970 Y43.6939
G01 X53.6166 Y43.6848
G01 X53.6340 Y43.6784
G01 X53.6429 Y43.6756
G01 X53.6639 Y43.6705
G01 X53.6821 Y43.6676
G01 X53.6914 Y43.6666
G01 X53.7130 Y43.6656
G01 X57.8162 Y43.6656
G01 X57.8162 Y43.6019
G01 X57.8176 Y43.5743
G01 X57.8188 Y43.5619
G01 X57.8241 Y43.5284
G01 X57.8324 Y43.4956
G01 X57.8449 Y43.4608
G01 X57.8607 Y43.4274
G01 X57.8780 Y43.3983
G01 X57.8833 Y43.3906
G01 X57.9017 Y43.3660
G01 X57.9223 Y43.3431
G01 X57.9311 Y43.3343
G01 X57.9516 Y43.3157
G01 X57.9589 Y43.3099
G01 X57.9837 Y43.2917
G01 X58.0154 Y43.2727
G01 X58.0488 Y43.2569
G01 X58.0807 Y43.2454
G01 X58.1134 Y43.2368
G01 X58.1256 Y43.2344
G01 X58.1561 Y43.2300
G01 X58.1899 Y43.2282
G01 X59.1511 Y43.2282
G01 X60.8521 Y41.5272
G01 X60.8521 Y26.8144
G01 X59.6562 Y26.8144
G01 X59.6469 Y26.8141
G01 X59.6376 Y26.8130
G01 X59.6284 Y26.8113
G01 X59.6194 Y26.8089
G01 X59.6077 Y26.8047
G01 X59.5992 Y26.8009
G01 X59.5884 Y26.7947
G01 X59.5807 Y26.7894
G01 X59.5734 Y26.7836
G01 X59.5644 Y26.7750
G01 X59.5582 Y26.7680
G01 X59.5525 Y26.7606
G01 X59.5474 Y26.7528
G01 X59.5429 Y26.7446
G01 X59.5379 Y26.7332
G01 X59.5349 Y26.7244
G01 X59.5325 Y26.7154
G01 X59.5300 Y26.7000
G01 X59.5294 Y26.6876
G01 X59.5294 Y21.2774
G01 X59.5300 Y21.2650
G01 X59.5318 Y21.2527
G01 X59.5349 Y21.2406
G01 X59.5391 Y21.2289
G01 X59.5444 Y21.2176
G01 X59.5508 Y21.2070
G01 X59.5582 Y21.1970
G01 X59.5665 Y21.1877
G01 X59.5758 Y21.1794
G01 X59.5858 Y21.1720
G01 X59.5964 Y21.1656
G01 X59.6077 Y21.1603
G01 X59.6194 Y21.1561
G01 X59.6315 Y21.1530
G01 X59.6438 Y21.1512
G01 X59.6562 Y21.1506
G01 X62.5518 Y21.1506
G01 X62.5611 Y21.1509
G01 X62.5704 Y21.1520
G01 X62.5856 Y21.1552
G01 X62.5945 Y21.1580
G01 X62.6032 Y21.1615
G01 X62.6116 Y21.1656
G01 X62.6196 Y21.1703
G01 X62.6298 Y21.1774
G01 X62.6370 Y21.1834
G01 X62.6436 Y21.1900
G01 X62.6498 Y21.1970
G01 X62.6555 Y21.2044
G01 X62.6606 Y21.2122
G01 X62.6651 Y21.2204
G01 X62.6689 Y21.2289
G01 X62.6722 Y21.2376
G01 X62.6748 Y21.2466
G01 X62.6767 Y21.2557
G01 X62.6780 Y21.2650
G01 X62.6786 Y21.2774
G01 X62.6786 Y22.0517
G01 X71.0859 Y13.6444
G01 X71.1042 Y13.6278
G01 X71.1241 Y13.6131
G01 X71.1453 Y13.6004
G01 X71.1619 Y13.5923
G01 X71.1705 Y13.5887
G01 X71.1909 Y13.5815
G01 X71.2149 Y13.5755
G01 X71.2393 Y13.5719
G01 X71.2640 Y13.5706
G01 X78.5634 Y13.5706
G01 X78.5658 Y13.5222
G01 X78.5666 Y13.5129
G01 X78.6102 Y13.2186
G01 X78.6126 Y13.2064
G01 X78.6858 Y12.9148
G01 X78.7892 Y12.6259
G01 X78.9204 Y12.3485
G01 X79.0748 Y12.0906
G01 X79.0817 Y12.0803
G01 X79.2571 Y11.8438
G01 X79.2650 Y11.8342
G01 X79.4670 Y11.6115
G01 X79.6944 Y11.4055
G01 X79.9408 Y11.2227
G01 X80.1986 Y11.0680
G01 X80.2096 Y11.0621
G01 X80.4757 Y10.9362
G01 X80.4872 Y10.9315
G01 X80.7703 Y10.8303
G01 X81.0619 Y10.7571
G01 X81.0741 Y10.7547
G01 X81.3715 Y10.7108
G01 X81.6718 Y10.6959
G01 X81.6842 Y10.6959
G01 X81.9783 Y10.7103
G01 X81.9907 Y10.7115
G01 X82.2880 Y10.7558
G01 X82.5857 Y10.8303
G01 X82.8688 Y10.9315
G01 X82.8803 Y10.9362
G01 X83.1520 Y11.0649
G01 X83.4099 Y11.2193
G01 X83.4202 Y11.2262
G01 X83.6616 Y11.4055
G01 X83.8890 Y11.6115
G01 X84.0950 Y11.8389
G01 X84.2743 Y12.0803
G01 X84.2812 Y12.0906
G01 X84.4356 Y12.3485
G01 X84.5643 Y12.6202
G01 X84.5690 Y12.6317
G01 X84.6682 Y12.9089
G01 X84.6718 Y12.9208
G01 X84.7447 Y13.2125
G01 X84.7897 Y13.5160
G01 X84.8048 Y13.8225
G01 X84.7902 Y14.1228
G01 X84.7890 Y14.1352
G01 X84.7458 Y14.4264
G01 X84.7434 Y14.4386
G01 X84.6702 Y14.7302
G01 X84.5690 Y15.0133
G01 X84.5643 Y15.0248
G01 X84.4356 Y15.2965
G01 X84.2778 Y15.5597
G01 X84.0950 Y15.8061
G01 X83.8933 Y16.0290
G01 X83.8845 Y16.0378
G01 X83.6616 Y16.2395
G01 X83.4202 Y16.4188
G01 X83.4099 Y16.4257
G01 X83.1520 Y16.5801
G01 X82.8746 Y16.7113
G01 X82.5916 Y16.8127
G01 X82.5797 Y16.8163
G01 X82.2880 Y16.8892
G01 X81.9907 Y16.9335
G01 X81.9783 Y16.9347
G01 X81.6780 Y16.9493
G01 X81.3715 Y16.9342
G01 X81.0741 Y16.8903
G01 X81.0619 Y16.8879
G01 X80.7703 Y16.8147
G01 X80.4872 Y16.7135
G01 X80.4757 Y16.7088
G01 X80.2040 Y16.5801
G01 X79.9461 Y16.4257
G01 X79.9358 Y16.4188
G01 X79.6944 Y16.2395
G01 X79.4715 Y16.0378
G01 X79.4627 Y16.0290
G01 X79.2610 Y15.8061
G01 X79.0782 Y15.5597
G01 X78.9235 Y15.3019
G01 X78.9176 Y15.2909
G01 X78.7892 Y15.0191
G01 X78.6878 Y14.7361
G01 X78.6842 Y14.7242
G01 X78.6113 Y14.4325
G01 X78.5666 Y14.1321
G01 X78.5658 Y14.1228
G01 X78.5634 Y14.0744
G01 X71.3683 Y14.0744
G01 X62.6786 Y22.7641
G01 X62.6786 Y26.6876
G01 X62.6783 Y26.6969
G01 X62.6772 Y26.7062
G01 X62.6748 Y26.7184
G01 X62.6722 Y26.7274
G01 X62.6689 Y26.7361
G01 X62.6651 Y26.7446
G01 X62.6606 Y26.7528
G01 X62.6555 Y26.7606
G01 X62.6498 Y26.7680
G01 X62.6436 Y26.7750
G01 X62.6370 Y26.7816
G01 X62.6298 Y26.7876
G01 X62.6222 Y26.7930
G01 X62.6143 Y26.7979
G01 X62.6060 Y26.8022
G01 X62.5974 Y26.8059
G01 X62.5886 Y26.8089
G01 X62.5796 Y26.8113
G01 X62.5704 Y26.8130
G01 X62.5611 Y26.8141
G01 X62.5518 Y26.8144
G01 X61.3559 Y26.8144
G01 X61.3559 Y41.6315
G01 X61.3549 Y41.6531
G01 X61.3539 Y41.6624
G01 X61.3510 Y41.6806
G01 X61.3450 Y41.7046
G01 X61.3367 Y41.7279
G01 X61.3289 Y41.7447
G01 X61.3231 Y41.7556
G01 X61.3117 Y41.7740
G01 X61.2987 Y41.7913
G01 X61.2843 Y41.8074
G01 X59.7305 Y43.3615
G01 X59.7381 Y43.3709
G01 X59.7563 Y43.3957
G01 X59.7753 Y43.4274
G01 X59.7911 Y43.4608
G01 X59.8036 Y43.4956
G01 X59.8126 Y43.5315
G01 X59.8180 Y43.5681
G01 X59.8198 Y43.6019
G01 X59.8198 Y43.6656
G01 X73.6730 Y43.6656
G01 X73.6977 Y43.6669
G01 X73.7221 Y43.6705
G01 X73.7461 Y43.6765
G01 X73.7636 Y43.6826
G01 X73.7722 Y43.6860
G01 X73.7917 Y43.6954
G01 X73.8129 Y43.7081
G01 X73.8328 Y43.7228
G01 X73.8511 Y43.7394
G01 X80.3497 Y50.2380
G01 X80.3647 Y50.2132
G01 X80.3829 Y50.1884
G01 X80.3908 Y50.1787
G01 X80.4116 Y50.1561
G01 X80.4342 Y50.1353
G01 X80.4439 Y50.1274
G01 X80.4687 Y50.1092
G01 X80.4950 Y50.0933
G01 X80.5059 Y50.0874
G01 X80.5338 Y50.0744
G01 X80.5627 Y50.0639
G01 X80.5716 Y50.0611
G01 X80.6045 Y50.0529
G01 X80.6349 Y50.0483
G01 X80.6442 Y50.0472
G01 X80.6749 Y50.0457
G01 X82.6780 Y50.0457
G01 X82.7087 Y50.0471
G01 X82.7180 Y50.0479
G01 X82.7485 Y50.0524
G01 X82.7576 Y50.0543
G01 X82.7844 Y50.0611
G01 X82.7933 Y50.0639
G01 X82.8222 Y50.0744
G01 X82.8501 Y50.0874
G01 X82.8610 Y50.0933
G01 X82.8847 Y50.1075
G01 X82.8924 Y50.1128
G01 X82.9194 Y50.1332
G01 X82.9422 Y50.1539
G01 X82.9487 Y50.1606
G01 X82.9693 Y50.1835
G01 X82.9913 Y50.2132
G01 X83.0103 Y50.2449
G01 X83.0261 Y50.2783
G01 X83.0386 Y50.3131
G01 X83.0476 Y50.3490
G01 X83.0530 Y50.3856
G01 X83.0548 Y50.4194
G01 X83.0548 Y53.4225
G01 X83.0530 Y53.4594
G01 X83.0476 Y53.4960
G01 X83.0386 Y53.5319
G01 X83.0261 Y53.5667
G01 X83.0103 Y53.6001
G01 X82.9913 Y53.6318
G01 X82.9693 Y53.6615
G01 X82.9444 Y53.6889
G01 X82.9170 Y53.7138
G01 X82.8873 Y53.7358
G01 X82.8556 Y53.7548
G01 X82.8222 Y53.7706
G01 X82.7874 Y53.7831
G01 X82.7515 Y53.7921
G01 X82.7149 Y53.7975
G01 X82.6842 Y53.7991
G01 X80.6780 Y53.7993
G01 X80.6411 Y53.7975
G01 X80.6045 Y53.7921
G01 X80.5686 Y53.7831
G01 X80.5338 Y53.7706
G01 X80.5004 Y53.7548
G01 X80.4687 Y53.7358
G01 X80.4390 Y53.7138
G01 X80.4116 Y53.6889
G01 X80.3867 Y53.6615
G01 X80.3647 Y53.6318
G01 X80.3457 Y53.6001
G01 X80.3299 Y53.5667
G01 X80.3174 Y53.5319
G01 X80.3084 Y53.4960
G01 X80.3030 Y53.4594
G01 X80.3014 Y53.4287
G01 X80.3012 Y50.9019
G01 X73.5687 Y44.1694
G01 X59.8198 Y44.1694
G01 X59.8198 Y44.2331
G01 X59.8180 Y44.2669
G01 X59.8126 Y44.3035
G01 X59.8044 Y44.3364
G01 X59.8016 Y44.3453
G01 X59.7911 Y44.3742
G01 X59.7753 Y44.4076
G01 X59.7563 Y44.4393
G01 X59.7381 Y44.4641
G01 X59.7323 Y44.4714
G01 X59.7137 Y44.4919
G01 X59.7072 Y44.4986
G01 X59.6844 Y44.5193
G01 X59.6771 Y44.5251
G01 X59.6523 Y44.5433
G01 X59.6260 Y44.5592
G01 X59.6179 Y44.5637
G01 X59.5929 Y44.5756
G01 X59.5814 Y44.5804
G01 X59.5524 Y44.5906
G01 X59.5165 Y44.5996
G01 X59.4799 Y44.6050
G01 X59.4430 Y44.6068
G01 X58.1930 Y44.6068
G01 X58.1623 Y44.6054
G01 X58.1499 Y44.6042
G01 X58.1195 Y44.5996
G01 X58.0866 Y44.5914
G01 X58.0777 Y44.5886
G01 X58.0488 Y44.5781
G01 X58.0154 Y44.5623
G01 X57.9837 Y44.5433
G01 X57.9589 Y44.5251
G01 X57.9516 Y44.5193
G01 X57.9311 Y44.5007
G01 X57.9223 Y44.4919
G01 X57.9017 Y44.4690
G01 X57.8833 Y44.4444
G01 X57.8780 Y44.4367
G01 X57.8607 Y44.4076
G01 X57.8449 Y44.3742
G01 X57.8324 Y44.3394
G01 X57.8241 Y44.3066
G01 X57.8188 Y44.2731
G01 X57.8176 Y44.2607
G01 X57.8162 Y44.2331
G01 X57.8162 Y44.1694
G01 X53.8173 Y44.1694
G01 X52.1294 Y45.8573
G01 X52.1412 Y45.8709
G01 X52.1577 Y45.8931
G01 X52.1630 Y45.9008
G01 X52.1803 Y45.9299
G01 X52.1949 Y45.9604
G01 X52.2066 Y45.9922
G01 X52.2102 Y46.0041
G01 X52.2176 Y46.0340
G01 X52.2230 Y46.0706
G01 X52.2248 Y46.1075
G01 X52.2248 Y46.7575
G01 X52.2230 Y46.7944
G01 X52.2176 Y46.8310
G01 X52.2086 Y46.8669
G01 X52.1984 Y46.8959
G01 X52.1936 Y46.9074
G01 X52.1817 Y46.9324
G01 X52.1772 Y46.9405
G01 X52.1613 Y46.9668
G01 X52.1393 Y46.9965
G01 X52.1144 Y47.0239
G01 X52.0918 Y47.0447
G01 X52.0846 Y47.0507
G01 X52.0624 Y47.0672
G01 X52.0521 Y47.0741
G01 X52.0256 Y47.0898
G01 X51.9922 Y47.1056
G01 X51.9574 Y47.1181
G01 X51.9276 Y47.1257
G01 X51.9154 Y47.1281
G01 X51.8818 Y47.1328
G01 X51.8480 Y47.1343
G01 X50.5480 Y47.1343
G01 X50.5142 Y47.1328
G01 X50.5049 Y47.1317
G01 X50.4745 Y47.1271
G01 X50.4446 Y47.1197
G01 X50.4327 Y47.1161
G01 X50.4067 Y47.1068
G01 X50.3981 Y47.1031
G01 X50.3704 Y47.0898
G01 X50.3387 Y47.0708
G01 X50.3090 Y47.0488
G01 X50.2838 Y47.0261
G01 X50.2773 Y47.0194
G01 X50.2567 Y46.9965
G01 X50.2383 Y46.9719
G01 X50.2330 Y46.9642
G01 X50.2188 Y46.9405
G01 X50.2129 Y46.9296
G01 X50.1999 Y46.9017
G01 X50.1874 Y46.8669
G01 X50.1784 Y46.8310
G01 X50.1734 Y46.7975
G01 X50.1726 Y46.7882
G01 X50.1712 Y46.7575
G01 X50.1712 Y46.1075
G01 X50.1730 Y46.0706
G01 X50.1774 Y46.0401
G01 X50.1798 Y46.0279
G01 X50.1874 Y45.9981
G01 X50.1999 Y45.9633
G01 X50.2129 Y45.9354
G01 X50.2188 Y45.9245
G01 X50.2347 Y45.8982
G01 X50.2529 Y45.8734
G01 X50.2608 Y45.8637
G01 X50.2816 Y45.8411
G01 X50.3042 Y45.8203
G01 X50.3139 Y45.8124
G01 X50.3387 Y45.7942
G01 X50.3677 Y45.7767
G01 X50.3981 Y45.7619
G01 X50.4096 Y45.7571
G00 Z2.0000
G00 X51.4848 Y45.5912
G01 F60.00
G01 Z-0.1000
G01 F120.00
G01 X51.4859 Y45.5909
G01 X51.4863 Y45.5907
G01 X51.4858 Y45.5912
G01 X51.4848 Y45.5912
G00 Z2.0000
G00 X52.3573 Y45.8267
G01 F60.00
G01 Z-0.1000
G01 F120.00
G01 X52.3485 Y45.8453
G01 X52.3437 Y45.8575
G01 X52.3394 Y45.8699
G01 X52.3358 Y45.8826
G01 X52.3329 Y45.8953
G01 X52.3305 Y45.9083
G01 X52.3290 Y45.9202
G01 X52.3224 Y45.9039
G01 X52.3088 Y45.8751
G01 X52.3573 Y45.8267
G00 Z2.0000
G00 X53.8760 Y44.3088
G01 F60.00
G01 Z-0.1000
G01 F120.00
G01 X53.8751 Y44.3091
G01 X53.8747 Y44.3093
G01 X53.8751 Y44.3088
G01 X53.8760 Y44.3088
G00 Z2.0000
G00 X60.7120 Y41.4700
G01 F60.00
G01 Z-0.1000
G01 F120.00
G01 X60.7124 Y41.4692
G01 X60.7127 Y41.4688
G01 X60.7127 Y41.4694
G01 X60.7120 Y41.4700
G00 Z2.0000
G00 X45.8945 Y48.9905
G01 F60.00
G01 Z-0.1000
G01 F120.00
G01 X45.8953 Y48.9909
G01 X45.8957 Y48.9912
G01 X45.8951 Y48.9912
G01 X45.8945 Y48.9905
G00 Z2.0000
G00 X43.1206 Y47.3236
G01 F60.00
G01 Z-0.1000
G01 F120.00
G01 X43.1198 Y47.3232
G01 X43.1194 Y47.3229
G01 X43.1200 Y47.3229
G01 X43.1206 Y47.3236
G00 Z2.0000
G00 X42.3843 Y47.3229
G01 F60.00
G01 Z-0.1000
G01 F120.00
G01 X42.3713 Y47.3274
G01 X42.3534 Y47.3349
G01 X42.3361 Y47.3436
G01 X42.3195 Y47.3535
G01 X42.3089 Y47.3608
G01 X42.2936 Y47.3727
G01 X42.2792 Y47.3857
G01 X42.2663 Y47.3987
G01 X42.2713 Y47.3814
G01 X42.2788 Y47.3512
G01 X42.2814 Y47.3384
G01 X42.2837 Y47.3229
G01 X42.3843 Y47.3229
G00 Z2.0000
G00 X43.4407 Y46.2940
G01 F60.00
G01 Z-0.1000
G01 F120.00
G01 X43.4352 Y46.3065
G01 X43.4280 Y46.3253
G01 X43.4248 Y46.3348
G01 X43.4190 Y46.3541
G01 X43.4141 Y46.3737
G01 X43.4121 Y46.3836
G01 X43.4069 Y46.4158
G01 X43.3954 Y46.4130
G01 X43.3759 Y46.4092
G01 X43.3440 Y46.4044
G01 X43.3242 Y46.4025
G01 X43.2921 Y46.4009
G01 X42.4305 Y46.4008
G01 X42.5372 Y46.2940
G01 X43.4407 Y46.2940
G00 Z2.0000
G00 X43.7757 Y46.1545
G01 F60.00
G01 Z-0.1000
G01 F120.00
G01 X43.7623 Y46.1592
G01 X43.7500 Y46.1642
G01 X43.7321 Y46.1727
G01 X43.7206 Y46.1792
G01 X43.7039 Y46.1899
G01 X43.6932 Y46.1977
G01 X43.6830 Y46.2061
G01 X43.6684 Y46.2195
G01 X43.6549 Y46.2340
G01 X43.6091 Y46.2868
G01 X43.5967 Y46.3023
G01 X43.5891 Y46.3131
G01 X43.5787 Y46.3300
G01 X43.5695 Y46.3476
G01 X43.5642 Y46.3597
G01 X43.5595 Y46.3720
G01 X43.5535 Y46.3909
G01 X43.5503 Y46.4038
G01 X43.5478 Y46.4168
G01 X43.5360 Y46.4990
G01 X43.5344 Y46.5188
G01 X43.5341 Y46.5320
G01 X43.5345 Y46.5452
G01 X43.5364 Y46.5650
G01 X43.5397 Y46.5845
G01 X43.5427 Y46.5974
G01 X43.5484 Y46.6164
G01 X43.5530 Y46.6288
G01 X43.5694 Y46.6654
G01 X43.5541 Y46.6503
G01 X43.5403 Y46.6376
G01 X43.5304 Y46.6291
G01 X43.5201 Y46.6210
G01 X43.5049 Y46.6099
G01 X43.4940 Y46.6026
G01 X43.4723 Y46.5896
G01 X43.4608 Y46.5835
G01 X43.4319 Y46.5700
G01 X43.4081 Y46.5612
G01 X43.3957 Y46.5571
G01 X43.3712 Y46.5506
G01 X43.3584 Y46.5478
G01 X43.3456 Y46.5455
G01 X43.3205 Y46.5421
G01 X43.2952 Y46.5406
G01 X43.2821 Y46.5403
G01 X42.2837 Y46.5403
G01 X42.2814 Y46.5248
G01 X42.2788 Y46.5120
G01 X42.2678 Y46.4692
G01 X42.2532 Y46.4276
G01 X42.2482 Y46.4155
G01 X42.2387 Y46.3953
G01 X42.4794 Y46.1545
G01 X43.7757 Y46.1545
G00 Z2.0000
G00 X43.7909 Y45.3719
G01 F60.00
G01 Z-0.1000
G01 F120.00
G01 X43.8044 Y45.3672
G01 X43.8166 Y45.3622
G01 X43.8286 Y45.3567
G01 X43.8461 Y45.3472
G01 X43.8573 Y45.3402
G01 X43.8681 Y45.3327
G01 X43.8786 Y45.3246
G01 X43.8935 Y45.3115
G01 X43.9029 Y45.3022
G01 X43.9118 Y45.2924
G01 X43.9575 Y45.2396
G01 X43.9700 Y45.2240
G01 X43.9813 Y45.2076
G01 X43.9882 Y45.1962
G01 X43.9944 Y45.1844
G01 X44.0017 Y45.1686
G01 X44.0017 Y45.3541
G01 X43.9839 Y45.3719
G01 X43.7909 Y45.3719
G00 Z2.0000
G00 X41.4231 Y46.1028
G01 F60.00
G01 Z-0.1000
G01 F120.00
G01 X41.4242 Y46.1025
G01 X41.4246 Y46.1023
G01 X41.4241 Y46.1028
G01 X41.4231 Y46.1028
G00 Z2.0000
G00 X10.9510 Y48.4360
G01 F60.00
G01 Z-0.1000
G01 F120.00
G01 X10.9514 Y48.4352
G01 X10.9517 Y48.4348
G01 X10.9517 Y48.4354
G01 X10.9510 Y48.4360
G00 Z2.0000
G00 X9.2771 Y49.9762
G01 F60.00
G01 Z-0.1000
G01 F120.00
G01 X9.3238 Y49.9775
G01 X9.3430 Y49.9766
G01 X9.3621 Y49.9742
G01 X9.3809 Y49.9705
G01 X9.3994 Y49.9655
G01 X9.4175 Y49.9591
G01 X9.4360 Y49.9510
G01 X9.3553 Y50.0318
G01 X9.3404 Y50.0193
G01 X9.3102 Y49.9969
G01 X9.2994 Y49.9897
G01 X9.2771 Y49.9762
G00 Z2.0000
G00 X9.5350 Y50.9590
G01 F60.00
G01 Z-0.1000
G01 F120.00
G01 X9.5346 Y50.9598
G01 X9.5343 Y50.9603
G01 X9.5343 Y50.9597
G01 X9.5350 Y50.9590
G00 Z2.0000
G00 X-0.9891 Y56.1035
G01 F60.00
G01 Z-0.1000
G01 F120.00
G01 X-0.9891 Y-0.0105
G01 X-0.9885 Y-0.0226
G01 X-0.9868 Y-0.0345
G01 X-0.9743 Y-0.0921
G01 X-0.9717 Y-0.1012
G01 X-0.9684 Y-0.1101
G01 X-0.9615 Y-0.1244
G01 X-0.9547 Y-0.1351
G01 X-0.9490 Y-0.1426
G01 X-0.8991 Y-0.2002
G01 X-0.8878 Y-0.2112
G01 X-0.8804 Y-0.2170
G01 X-0.8726 Y-0.2223
G01 X-0.8616 Y-0.2285
G01 X-0.8471 Y-0.2346
G01 X-0.7740 Y-0.2562
G01 X-0.7653 Y-0.2584
G01 X-0.7563 Y-0.2600
G01 X-0.7473 Y-0.2610
G01 X-0.7383 Y-0.2613
G01 X88.6655 Y-0.2613
G01 X88.6776 Y-0.2607
G01 X88.6895 Y-0.2590
G01 X88.7471 Y-0.2465
G01 X88.7622 Y-0.2418
G01 X88.7709 Y-0.2381
G01 X88.7794 Y-0.2337
G01 X88.7875 Y-0.2287
G01 X88.7976 Y-0.2212
G01 X88.8552 Y-0.1713
G01 X88.8662 Y-0.1600
G01 X88.8720 Y-0.1526
G01 X88.8773 Y-0.1448
G01 X88.8835 Y-0.1338
G01 X88.8896 Y-0.1193
G01 X88.9112 Y-0.0462
G01 X88.9134 Y-0.0375
G01 X88.9150 Y-0.0285
G01 X88.9160 Y-0.0195
G01 X88.9163 Y-0.0105
G01 X88.9163 Y56.1035
G01 X88.9157 Y56.1156
G01 X88.9140 Y56.1275
G01 X88.9015 Y56.1851
G01 X88.8989 Y56.1942
G01 X88.8956 Y56.2031
G01 X88.8887 Y56.2174
G01 X88.8819 Y56.2281
G01 X88.8762 Y56.2356
G01 X88.8263 Y56.2932
G01 X88.8150 Y56.3042
G01 X88.8076 Y56.3100
G01 X88.7998 Y56.3153
G01 X88.7888 Y56.3215
G01 X88.7743 Y56.3276
G01 X88.7012 Y56.3492
G01 X88.6925 Y56.3514
G01 X88.6835 Y56.3530
G01 X88.6745 Y56.3540
G01 X88.6655 Y56.3543
G01 X-0.7383 Y56.3543
G01 X-0.7504 Y56.3537
G01 X-0.7593 Y56.3525
G01 X-0.8168 Y56.3402
G01 X-0.8320 Y56.3359
G01 X-0.8466 Y56.3297
G01 X-0.8603 Y56.3217
G01 X-0.8704 Y56.3142
G01 X-0.9257 Y56.2664
G01 X-0.9326 Y56.2599
G01 X-0.9429 Y56.2481
G01 X-0.9501 Y56.2378
G01 X-0.9576 Y56.2239
G01 X-0.9624 Y56.2123
G01 X-0.9855 Y56.1334
G01 X-0.9882 Y56.1186
G01 X-0.9891 Y56.1035
G00 Z2.0000
G00 X-1.1286 Y56.1035
G01 F60.00
G01 Z-0.1000
G01 F120.00
G01 X-1.1286 Y-0.0105
G01 X-1.1279 Y-0.0295
G01 X-1.1267 Y-0.0421
G01 X-1.1249 Y-0.0547
G01 X-1.1225 Y-0.0671
G01 X-1.1098 Y-0.1251
G01 X-1.1063 Y-0.1379
G01 X-1.0999 Y-0.1568
G01 X-1.0921 Y-0.1752
G01 X-1.0830 Y-0.1930
G01 X-1.0725 Y-0.2099
G01 X-1.0608 Y-0.2261
G01 X-1.0523 Y-0.2364
G01 X-1.0022 Y-0.2941
G01 X-0.9930 Y-0.3037
G01 X-0.9785 Y-0.3171
G01 X-0.9629 Y-0.3295
G01 X-0.9465 Y-0.3406
G01 X-0.9351 Y-0.3473
G01 X-0.9234 Y-0.3535
G01 X-0.9114 Y-0.3590
G01 X-0.8992 Y-0.3640
G01 X-0.8804 Y-0.3703
G01 X-0.8133 Y-0.3900
G01 X-0.7949 Y-0.3947
G01 X-0.7762 Y-0.3981
G01 X-0.7573 Y-0.4001
G01 X-0.7383 Y-0.4008
G01 X88.6655 Y-0.4008
G01 X88.6782 Y-0.4005
G01 X88.6908 Y-0.3996
G01 X88.7097 Y-0.3971
G01 X88.7221 Y-0.3947
G01 X88.7801 Y-0.3820
G01 X88.7929 Y-0.3785
G01 X88.8118 Y-0.3721
G01 X88.8302 Y-0.3643
G01 X88.8480 Y-0.3552
G01 X88.8649 Y-0.3447
G01 X88.8811 Y-0.3330
G01 X88.8914 Y-0.3245
G01 X88.9491 Y-0.2744
G01 X88.9633 Y-0.2605
G01 X88.9764 Y-0.2456
G01 X88.9845 Y-0.2351
G01 X88.9956 Y-0.2187
G01 X89.0023 Y-0.2073
G01 X89.0085 Y-0.1956
G01 X89.0140 Y-0.1836
G01 X89.0190 Y-0.1714
G01 X89.0253 Y-0.1526
G01 X89.0450 Y-0.0855
G01 X89.0497 Y-0.0671
G01 X89.0531 Y-0.0484
G01 X89.0551 Y-0.0295
G01 X89.0558 Y-0.0105
G01 X89.0558 Y56.1035
G01 X89.0555 Y56.1162
G01 X89.0546 Y56.1288
G01 X89.0521 Y56.1477
G01 X89.0497 Y56.1601
G01 X89.0370 Y56.2181
G01 X89.0315 Y56.2373
G01 X89.0271 Y56.2498
G01 X89.0193 Y56.2682
G01 X89.0102 Y56.2860
G01 X88.9997 Y56.3029
G01 X88.9880 Y56.3191
G01 X88.9795 Y56.3294
G01 X88.9294 Y56.3871
G01 X88.9155 Y56.4013
G01 X88.9006 Y56.4144
G01 X88.8901 Y56.4225
G01 X88.8737 Y56.4336
G01 X88.8623 Y56.4403
G01 X88.8506 Y56.4465
G01 X88.8386 Y56.4520
G01 X88.8264 Y56.4570
G01 X88.8076 Y56.4633
G01 X88.7405 Y56.4830
G01 X88.7221 Y56.4877
G01 X88.7034 Y56.4911
G01 X88.6845 Y56.4931
G01 X88.6655 Y56.4938
G01 X-0.7383 Y56.4938
G01 X-0.7510 Y56.4935
G01 X-0.7636 Y56.4926
G01 X-0.7825 Y56.4901
G01 X-0.8464 Y56.4765
G01 X-0.8593 Y56.4733
G01 X-0.8721 Y56.4695
G01 X-0.8846 Y56.4651
G01 X-0.9030 Y56.4573
G01 X-0.9149 Y56.4514
G01 X-0.9265 Y56.4448
G01 X-0.9377 Y56.4377
G01 X-0.9539 Y56.4260
G01 X-0.9642 Y56.4175
G01 X-1.0170 Y56.3718
G01 X-1.0315 Y56.3582
G01 X-1.0406 Y56.3486
G01 X-1.0492 Y56.3386
G01 X-1.0573 Y56.3281
