(G-CODE GENERATED BY FLATCAM v8.994 - www.flatcam.org - Version Date: 2020/11/7)

(Name: Buck Converter-PTH.drl_cnc)
(Type: G-code from Geometry)
(Units: MM)

(Created on Friday, 08 September 2023 at 16:09)

(This preprocessor is the default preprocessor used by FlatCAM.)
(It is made to work with MACH3 compatible motion controllers.)


(TOOLS DIAMETER: )
(Tool: 1 -> Dia: 4.5)

(FEEDRATE Z: )
(Tool: 1 -> Feedrate: 300)

(FEEDRATE RAPIDS: )
(Tool: 1 -> Feedrate Rapids: 1500)

(Z_CUT: )
(Tool: 1 -> Z_Cut: -1.7)

(Tools Offset: )
(Tool: 1 -> Offset Z: 0.0)

(Z_MOVE: )
(Tool: 1 -> Z_Move: 2)

(Z Toolchange: 15 mm)
(X,Y Toolchange: 0.0000, 0.0000 mm)
(Z Start: None mm)
(Z End: 0.5 mm)
(X,Y End: None mm)
(Steps per circle: 64)
(Preprocessor Excellon: default)

(X range:    3.3900 ...   83.9280  mm)
(Y range:   11.4720 ...   23.2730  mm)

(Spindle Speed: 0 RPM)
G21
G90
G94

G01 F300.00

M5
G00 Z15.0000
T1M6
(MSG, Change to Tool Dia = 4.5000 ||| Total drills for tool T1 = 4)
M0
G00 Z15.0000

G01 F300.00
M03
G00 X5.6400 Y20.9220
G01 Z-1.7000
G01 Z0
G00 Z2.0000
G00 X5.6400 Y13.7220
G01 Z-1.7000
G01 Z0
G00 Z2.0000
G00 X81.6780 Y13.8230
G01 Z-1.7000
G01 Z0
G00 Z2.0000
G00 X81.6780 Y21.0230
G01 Z-1.7000
G01 Z0
G00 Z2.0000
M05
G00 Z0.50


