(G-CODE GENERATED BY FLATCAM v8.994 - www.flatcam.org - Version Date: 2020/11/7)

(Name: Current Sense Standalone-F_Cu.gtl_iso_combined_cnc)
(Type: G-code from Geometry)
(Units: MM)

(Created on Tuesday, 29 August 2023 at 13:52)

(This preprocessor is the default preprocessor used by FlatCAM.)
(It is made to work with MACH3 compatible motion controllers.)

(TOOL DIAMETER: 0.2536 mm)
(Feedrate_XY: 120.0 mm/min)
(Feedrate_Z: 60.0 mm/min)
(Feedrate rapids 1500.0 mm/min)

(Z_Cut: -0.1 mm)
(Z_Move: 2.0 mm)
(Z Start: None mm)
(Z End: 15.0 mm)
(X,Y End: None mm)
(Steps per circle: 64)
(Preprocessor Geometry: default)

(X range:    0.0614 ...   63.4747  mm)
(Y range:    0.4288 ...   25.8447  mm)

(Spindle Speed: 0.0 RPM)
G21
G90
G94

G01 F120.00

M5
G00 Z15.0000
G00 X0.0000 Y0.0000
T2M6    
(MSG, Change to Tool Dia = 0.2536)
M0
G00 Z15.0000

M03
G01 F120.00
G00 X13.6025 Y6.9820
G01 F60.00
G01 Z-0.1000
G01 F120.00
G01 X13.6025 Y2.9789
G01 X13.6031 Y2.9696
G01 X13.6049 Y2.9573
G01 X13.6079 Y2.9452
G01 X13.6110 Y2.9364
G01 X13.6160 Y2.9250
G01 X13.6221 Y2.9142
G01 X13.6293 Y2.9040
G01 X13.6353 Y2.8968
G01 X13.6418 Y2.8902
G01 X13.6513 Y2.8820
G01 X13.6614 Y2.8749
G01 X13.6723 Y2.8687
G01 X13.6807 Y2.8648
G01 X13.6925 Y2.8606
G01 X13.7045 Y2.8576
G01 X13.7138 Y2.8561
G01 X13.7293 Y2.8552
G01 X17.5673 Y2.8552
G01 X17.6313 Y2.8522
G01 X47.4360 Y2.8522
G01 X47.6446 Y2.8624
G01 X47.8511 Y2.8931
G01 X48.0477 Y2.9422
G01 X48.0596 Y2.9458
G01 X48.2503 Y3.0142
G01 X48.4390 Y3.1034
G01 X48.6129 Y3.2075
G01 X48.6232 Y3.2144
G01 X48.7859 Y3.3352
G01 X48.9361 Y3.4711
G01 X51.0289 Y5.5639
G01 X51.1648 Y5.7141
G01 X51.2892 Y5.8819
G01 X51.3966 Y6.0610
G01 X51.4833 Y6.2440
G01 X51.4881 Y6.2555
G01 X51.5562 Y6.4463
G01 X51.6069 Y6.6489
G01 X51.6376 Y6.8554
G01 X51.6478 Y7.0609
G01 X51.6478 Y10.9356
G01 X54.3208 Y13.6086
G01 X54.3557 Y13.5770
G01 X54.3629 Y13.5710
G01 X54.6018 Y13.3937
G01 X54.6121 Y13.3868
G01 X54.8701 Y13.2324
G01 X55.1475 Y13.1012
G01 X55.4364 Y12.9978
G01 X55.7280 Y12.9246
G01 X55.7402 Y12.9222
G01 X56.0314 Y12.8790
G01 X56.0438 Y12.8778
G01 X56.3440 Y12.8632
G01 X56.6505 Y12.8783
G01 X56.9541 Y12.9233
G01 X57.2457 Y12.9962
G01 X57.2576 Y12.9998
G01 X57.5406 Y13.1012
G01 X57.8124 Y13.2296
G01 X57.8234 Y13.2355
G01 X58.0759 Y13.3868
G01 X58.0863 Y13.3937
G01 X58.3277 Y13.5730
G01 X58.5505 Y13.7747
G01 X58.5593 Y13.7835
G01 X58.7611 Y14.0064
G01 X58.9403 Y14.2478
G01 X58.9472 Y14.2581
G01 X59.1016 Y14.5160
G01 X59.2328 Y14.7934
G01 X59.3343 Y15.0764
G01 X59.3379 Y15.0883
G01 X59.4108 Y15.3800
G01 X59.4558 Y15.6835
G01 X59.4707 Y15.9838
G01 X59.4707 Y15.9962
G01 X59.4558 Y16.2965
G01 X59.4108 Y16.6000
G01 X59.3379 Y16.8917
G01 X59.3343 Y16.9036
G01 X59.2328 Y17.1866
G01 X59.1044 Y17.4584
G01 X59.0986 Y17.4694
G01 X58.9439 Y17.7272
G01 X58.7649 Y17.9687
G01 X58.7570 Y17.9783
G01 X58.5550 Y18.2010
G01 X58.3324 Y18.4030
G01 X58.3228 Y18.4109
G01 X58.0812 Y18.5898
G01 X57.8234 Y18.7445
G01 X57.8124 Y18.7504
G01 X57.5406 Y18.8788
G01 X57.2547 Y18.9812
G01 X57.2457 Y18.9838
G01 X56.9601 Y19.0554
G01 X56.9479 Y19.0578
G01 X56.6505 Y19.1017
G01 X56.3503 Y19.1166
G01 X56.3378 Y19.1166
G01 X56.0376 Y19.1017
G01 X55.7402 Y19.0578
G01 X55.7310 Y19.0561
G01 X55.4424 Y18.9838
G01 X55.4305 Y18.9802
G01 X55.1475 Y18.8788
G01 X54.8728 Y18.7490
G01 X54.8647 Y18.7445
G01 X54.6121 Y18.5932
G01 X54.6043 Y18.5881
G01 X54.3629 Y18.4090
G01 X54.3557 Y18.4030
G01 X54.3030 Y18.3552
G01 X49.6069 Y23.0513
G01 X49.5272 Y23.1234
G01 X49.4434 Y23.1857
G01 X49.4331 Y23.1926
G01 X49.3435 Y23.2462
G01 X49.2491 Y23.2910
G01 X49.2376 Y23.2957
G01 X49.1393 Y23.3308
G01 X49.0380 Y23.3563
G01 X49.0258 Y23.3587
G01 X48.9225 Y23.3739
G01 X48.8120 Y23.3793
G01 X31.1800 Y23.3793
G01 X31.0695 Y23.3739
G01 X30.9601 Y23.3576
G01 X30.8588 Y23.3324
G01 X30.8469 Y23.3288
G01 X30.7486 Y23.2935
G01 X30.6486 Y23.2462
G01 X30.5590 Y23.1926
G01 X30.5486 Y23.1857
G01 X30.4648 Y23.1234
G01 X30.3851 Y23.0513
G01 X25.8109 Y18.4771
G01 X25.7366 Y18.3952
G01 X25.6707 Y18.3063
G01 X25.6138 Y18.2114
G01 X25.5690 Y18.1171
G01 X25.5643 Y18.1056
G01 X25.5292 Y18.0072
G01 X25.5024 Y17.8999
G01 X25.4861 Y17.7905
G01 X25.4807 Y17.6831
G01 X25.4807 Y14.6320
G01 X25.4861 Y14.5215
G01 X25.5018 Y14.4151
G01 X25.5037 Y14.4060
G01 X25.5276 Y14.3108
G01 X25.5312 Y14.2989
G01 X25.5665 Y14.2006
G01 X25.6138 Y14.1006
G01 X25.6674 Y14.0110
G01 X25.6743 Y14.0006
G01 X25.7366 Y13.9168
G01 X25.8066 Y13.8394
G01 X25.8154 Y13.8306
G01 X25.8881 Y13.7647
G01 X25.8978 Y13.7568
G01 X25.9817 Y13.6947
G01 X26.0712 Y13.6409
G01 X26.0822 Y13.6350
G01 X26.1766 Y13.5905
G01 X26.2778 Y13.5542
G01 X26.3061 Y13.5467
G01 X26.3061 Y12.9046
G01 X25.8714 Y12.9046
G01 X25.8621 Y12.9043
G01 X25.8497 Y12.9027
G01 X25.8376 Y12.9000
G01 X25.8258 Y12.8961
G01 X25.8144 Y12.8911
G01 X25.8036 Y12.8849
G01 X25.7934 Y12.8778
G01 X25.7862 Y12.8718
G01 X25.7774 Y12.8630
G01 X25.7714 Y12.8558
G01 X25.7660 Y12.8482
G01 X25.7611 Y12.8403
G01 X25.7555 Y12.8292
G01 X25.7510 Y12.8176
G01 X25.7484 Y12.8086
G01 X25.7465 Y12.7995
G01 X25.7449 Y12.7871
G01 X25.7446 Y12.7778
G01 X25.7446 Y12.4222
G01 X25.7452 Y12.4098
G01 X25.7470 Y12.3975
G01 X25.7510 Y12.3824
G01 X25.7555 Y12.3708
G01 X25.7611 Y12.3597
G01 X25.7677 Y12.3492
G01 X25.7754 Y12.3394
G01 X25.7840 Y12.3304
G01 X25.7934 Y12.3222
G01 X25.8036 Y12.3151
G01 X25.8144 Y12.3089
G01 X25.8229 Y12.3051
G01 X25.8346 Y12.3009
G01 X25.8436 Y12.2985
G01 X25.8559 Y12.2964
G01 X25.8683 Y12.2954
G01 X27.3477 Y12.2954
G01 X27.3632 Y12.2968
G01 X27.3784 Y12.3000
G01 X27.3931 Y12.3051
G01 X27.4071 Y12.3119
G01 X27.4176 Y12.3185
G01 X27.4298 Y12.3282
G01 X27.4406 Y12.3394
G01 X27.4500 Y12.3518
G01 X27.4579 Y12.3652
G01 X27.4617 Y12.3737
G01 X27.4650 Y12.3824
G01 X27.4676 Y12.3914
G01 X27.4695 Y12.4005
G01 X27.4712 Y12.4160
G01 X27.4714 Y12.7809
G01 X27.4704 Y12.7933
G01 X27.4683 Y12.8056
G01 X27.4650 Y12.8176
G01 X27.4605 Y12.8292
G01 X27.4549 Y12.8403
G01 X27.4483 Y12.8508
G01 X27.4406 Y12.8606
G01 X27.4343 Y12.8675
G01 X27.4274 Y12.8738
G01 X27.4176 Y12.8815
G01 X27.4098 Y12.8866
G01 X27.3988 Y12.8924
G01 X27.3873 Y12.8972
G01 X27.3754 Y12.9008
G01 X27.3632 Y12.9032
G01 X27.3539 Y12.9043
G01 X27.3446 Y12.9046
G01 X26.9099 Y12.9046
G01 X26.9099 Y13.5467
G01 X26.9382 Y13.5542
G01 X27.0394 Y13.5905
G01 X27.1338 Y13.6350
G01 X27.1448 Y13.6409
G01 X27.2343 Y13.6947
G01 X27.3182 Y13.7568
G01 X27.3279 Y13.7647
G01 X27.4006 Y13.8306
G01 X27.4073 Y13.8371
G01 X27.4794 Y13.9168
G01 X27.5417 Y14.0006
G01 X27.5486 Y14.0110
G01 X27.6022 Y14.1006
G01 X27.6470 Y14.1949
G01 X27.6517 Y14.2064
G01 X27.6868 Y14.3048
G01 X27.7130 Y14.4090
G01 X27.7147 Y14.4182
G01 X27.7299 Y14.5215
G01 X27.7353 Y14.6320
G01 X27.7353 Y17.2131
G01 X31.6469 Y21.1247
G01 X48.3451 Y21.1247
G01 X52.0818 Y17.3880
G01 X48.0132 Y13.3193
G01 X47.8752 Y13.1668
G01 X47.7544 Y13.0042
G01 X47.7475 Y12.9939
G01 X47.6465 Y12.8254
G01 X47.6420 Y12.8172
G01 X47.5542 Y12.6312
G01 X47.4838 Y12.4346
G01 X47.4331 Y12.2321
G01 X47.4032 Y12.0317
G01 X47.4020 Y12.0193
G01 X47.3922 Y11.8170
G01 X47.3922 Y7.9454
G01 X46.5546 Y7.1078
G01 X13.7293 Y7.1088
G01 X13.7168 Y7.1082
G01 X13.7045 Y7.1064
G01 X13.6925 Y7.1033
G01 X13.6807 Y7.0991
G01 X13.6695 Y7.0938
G01 X13.6588 Y7.0874
G01 X13.6488 Y7.0800
G01 X13.6396 Y7.0717
G01 X13.6313 Y7.0624
G01 X13.6238 Y7.0524
G01 X13.6174 Y7.0418
G01 X13.6121 Y7.0305
G01 X13.6079 Y7.0188
G01 X13.6049 Y7.0067
G01 X13.6031 Y6.9944
G01 X13.6025 Y6.9820
G00 Z2.0000
G00 X8.9962 Y13.7192
G01 F60.00
G01 Z-0.1000
G01 F120.00
G01 X8.9983 Y13.7204
G01 X9.0027 Y13.7227
G01 X8.9993 Y13.7227
G01 X8.9962 Y13.7192
G00 Z2.0000
G00 X8.9375 Y13.8622
G01 F60.00
G01 Z-0.1000
G01 F120.00
G01 X13.6877 Y13.8622
G01 X13.6985 Y13.8590
G01 X13.7076 Y13.8571
G01 X13.7199 Y13.8555
G01 X13.7293 Y13.8552
G01 X17.6058 Y13.8552
G01 X17.6293 Y13.8542
G01 X17.6528 Y13.8552
G01 X21.5355 Y13.8553
G01 X21.5479 Y13.8566
G01 X21.5571 Y13.8583
G01 X21.5661 Y13.8606
G01 X21.5749 Y13.8637
G01 X21.5863 Y13.8687
G01 X21.5945 Y13.8732
G01 X21.6048 Y13.8801
G01 X21.6121 Y13.8860
G01 X21.6189 Y13.8923
G01 X21.6253 Y13.8992
G01 X21.6329 Y13.9090
G01 X21.6380 Y13.9168
G01 X21.6425 Y13.9250
G01 X21.6476 Y13.9364
G01 X21.6515 Y13.9482
G01 X21.6536 Y13.9573
G01 X21.6555 Y13.9696
G01 X21.6561 Y13.9820
G01 X21.6561 Y14.4911
G01 X24.6406 Y11.5066
G01 X24.6862 Y11.4653
G01 X24.7356 Y11.4286
G01 X24.7884 Y11.3970
G01 X24.8383 Y11.3732
G01 X24.8498 Y11.3684
G01 X24.9020 Y11.3500
G01 X24.9617 Y11.3350
G01 X25.0225 Y11.3260
G01 X25.0778 Y11.3231
G01 X25.0902 Y11.3231
G01 X25.1455 Y11.3260
G01 X25.2002 Y11.3339
G01 X25.2124 Y11.3364
G01 X25.2600 Y11.3483
G01 X25.2719 Y11.3519
G01 X25.3240 Y11.3707
G01 X25.3796 Y11.3970
G01 X25.4324 Y11.4286
G01 X25.4818 Y11.4653
G01 X25.5274 Y11.5066
G01 X25.5687 Y11.5522
G01 X25.6054 Y11.6016
G01 X25.6334 Y11.6481
G01 X25.8454 Y11.6481
G01 X25.8590 Y11.6460
G01 X25.8714 Y11.6454
G01 X27.3508 Y11.6456
G01 X27.3632 Y11.6468
G01 X27.3724 Y11.6485
G01 X27.3814 Y11.6509
G01 X27.3931 Y11.6551
G01 X27.4044 Y11.6604
G01 X27.4124 Y11.6651
G01 X27.4226 Y11.6722
G01 X27.4298 Y11.6782
G01 X27.4386 Y11.6870
G01 X27.4464 Y11.6967
G01 X27.4534 Y11.7070
G01 X27.4579 Y11.7152
G01 X27.4629 Y11.7266
G01 X27.4659 Y11.7354
G01 X27.4683 Y11.7444
G01 X27.4704 Y11.7567
G01 X27.4714 Y11.7722
G01 X27.4714 Y12.1278
G01 X27.4708 Y12.1402
G01 X27.4690 Y12.1525
G01 X27.4650 Y12.1676
G01 X27.4617 Y12.1763
G01 X27.4579 Y12.1848
G01 X27.4534 Y12.1930
G01 X27.4483 Y12.2008
G01 X27.4426 Y12.2082
G01 X27.4364 Y12.2152
G01 X27.4298 Y12.2218
G01 X27.4226 Y12.2278
G01 X27.4098 Y12.2366
G01 X27.4016 Y12.2411
G01 X27.3931 Y12.2449
G01 X27.3784 Y12.2500
G01 X27.3693 Y12.2522
G01 X27.3601 Y12.2536
G01 X27.3446 Y12.2546
G01 X25.8714 Y12.2546
G01 X25.8590 Y12.2540
G01 X25.8454 Y12.2519
G01 X25.6334 Y12.2519
G01 X25.6054 Y12.2984
G01 X25.5725 Y12.3429
G01 X25.5647 Y12.3525
G01 X25.5274 Y12.3934
G01 X21.6561 Y16.2647
G01 X21.6559 Y17.9882
G01 X21.6551 Y17.9975
G01 X21.6536 Y18.0067
G01 X21.6506 Y18.0188
G01 X21.6476 Y18.0276
G01 X21.6439 Y18.0362
G01 X21.6380 Y18.0472
G01 X21.6329 Y18.0550
G01 X21.6273 Y18.0624
G01 X21.6211 Y18.0694
G01 X21.6144 Y18.0759
G01 X21.6073 Y18.0820
G01 X21.5997 Y18.0874
G01 X21.5918 Y18.0923
G01 X21.5835 Y18.0966
G01 X21.5720 Y18.1014
G01 X21.5631 Y18.1042
G01 X21.5540 Y18.1064
G01 X21.5448 Y18.1078
G01 X21.5293 Y18.1088
G01 X17.8078 Y18.1088
G01 X17.6213 Y18.1178
G01 X8.9375 Y18.1178
G01 X8.8662 Y18.1965
G01 X8.8597 Y18.2032
G01 X8.6369 Y18.4050
G01 X8.6297 Y18.4109
G01 X8.3907 Y18.5881
G01 X8.3828 Y18.5932
G01 X8.1249 Y18.7476
G01 X7.8504 Y18.8776
G01 X7.8417 Y18.8810
G01 X7.5586 Y18.9822
G01 X7.2609 Y19.0567
G01 X6.9574 Y19.1017
G01 X6.6509 Y19.1168
G01 X6.3445 Y19.1017
G01 X6.0409 Y19.0567
G01 X5.7433 Y18.9822
G01 X5.4544 Y18.8788
G01 X5.1770 Y18.7476
G01 X4.9138 Y18.5898
G01 X4.6673 Y18.4070
G01 X4.4445 Y18.2053
G01 X4.4378 Y18.1988
G01 X4.2339 Y17.9736
G01 X4.0511 Y17.7272
G01 X3.8933 Y17.4640
G01 X3.7621 Y17.1866
G01 X3.6588 Y16.8977
G01 X3.5842 Y16.6000
G01 X3.5392 Y16.2965
G01 X3.5241 Y15.9900
G01 X3.5392 Y15.6835
G01 X3.5842 Y15.3800
G01 X3.6588 Y15.0823
G01 X3.7621 Y14.7934
G01 X3.8933 Y14.5160
G01 X4.0511 Y14.2528
G01 X4.2339 Y14.0064
G01 X4.4357 Y13.7835
G01 X4.4422 Y13.7768
G01 X4.6673 Y13.5730
G01 X4.9138 Y13.3902
G01 X5.1770 Y13.2324
G01 X5.4544 Y13.1012
G01 X5.7433 Y12.9978
G01 X6.0409 Y12.9233
G01 X6.3445 Y12.8783
G01 X6.6447 Y12.8634
G01 X6.6540 Y12.8632
G01 X6.9574 Y12.8783
G01 X7.2609 Y12.9233
G01 X7.5586 Y12.9978
G01 X7.8417 Y13.0990
G01 X7.8504 Y13.1024
G01 X8.1249 Y13.2324
G01 X8.3828 Y13.3868
G01 X8.3907 Y13.3919
G01 X8.6297 Y13.5691
G01 X8.6369 Y13.5750
G01 X8.8597 Y13.7768
G01 X8.8662 Y13.7835
G01 X8.9375 Y13.8622
G00 Z2.0000
G00 X9.0019 Y18.2573
G01 F60.00
G01 Z-0.1000
G01 F120.00
G01 X8.9982 Y18.2585
G01 X8.9993 Y18.2573
G01 X9.0019 Y18.2573
G00 Z2.0000
G00 X3.2726 Y15.9900
G01 F60.00
G01 Z-0.1000
G01 F120.00
G01 X3.2911 Y15.6369
G01 X3.3464 Y15.2876
G01 X3.4379 Y14.9460
G01 X3.5647 Y14.6159
G01 X3.7252 Y14.3008
G01 X3.9178 Y14.0043
G01 X4.1403 Y13.7295
G01 X4.3904 Y13.4794
G01 X4.6652 Y13.2569
G01 X4.9618 Y13.0643
G01 X5.2768 Y12.9037
G01 X5.6070 Y12.7770
G01 X5.9485 Y12.6855
G01 X6.2978 Y12.6302
G01 X6.6509 Y12.6117
G01 X7.0041 Y12.6302
G01 X7.3533 Y12.6855
G01 X7.6949 Y12.7770
G01 X8.0250 Y12.9037
G01 X8.3401 Y13.0643
G01 X8.6367 Y13.2569
G01 X8.9115 Y13.4794
G01 X8.9771 Y13.5450
G01 X8.9862 Y13.5529
G01 X8.9935 Y13.5582
G01 X9.0038 Y13.5645
G01 X9.0651 Y13.5980
G01 X9.0735 Y13.6021
G01 X9.0821 Y13.6057
G01 X9.0940 Y13.6094
G01 X9.1062 Y13.6119
G01 X9.1455 Y13.6161
G01 X13.6002 Y13.6163
G01 X13.6237 Y13.6152
G01 X13.6882 Y13.6083
G01 X17.5055 Y13.6083
G01 X17.5261 Y13.6074
G01 X17.5546 Y13.6048
G01 X17.6705 Y13.6083
G01 X21.5703 Y13.6083
G01 X21.6074 Y13.6123
G01 X21.7102 Y13.6506
G01 X21.7889 Y13.7095
G01 X21.8017 Y13.7175
G01 X21.8153 Y13.7239
G01 X21.8836 Y13.7494
G01 X21.8956 Y13.7532
G01 X21.9048 Y13.7553
G01 X21.9173 Y13.7570
G01 X21.9267 Y13.7574
G01 X21.9393 Y13.7569
G01 X21.9549 Y13.7545
G01 X22.0232 Y13.7397
G01 X22.0324 Y13.7373
G01 X22.0445 Y13.7330
G01 X22.0560 Y13.7276
G01 X22.0670 Y13.7210
G01 X22.1028 Y13.6943
G01 X22.1120 Y13.6864
G01 X24.4975 Y11.3009
G01 X24.6007 Y11.2167
G01 X24.7582 Y11.1345
G01 X24.9291 Y11.0856
G01 X25.1062 Y11.0721
G01 X25.2766 Y11.0938
G01 X25.2856 Y11.0946
G01 X25.2947 Y11.0948
G01 X25.3097 Y11.0936
G01 X25.3848 Y11.0816
G01 X25.3970 Y11.0787
G01 X25.4089 Y11.0746
G01 X25.4175 Y11.0707
G01 X25.4259 Y11.0662
G01 X25.4338 Y11.0612
G01 X25.4414 Y11.0555
G01 X25.4982 Y11.0048
G01 X25.5089 Y10.9940
G01 X25.5165 Y10.9845
G01 X25.5232 Y10.9742
G01 X25.5390 Y10.9426
G01 X25.6044 Y10.8552
G01 X25.6905 Y10.7908
G01 X25.7446 Y10.7706
G01 X25.7446 Y10.8309
G01 X25.7460 Y10.8464
G01 X25.7484 Y10.8586
G01 X25.7520 Y10.8705
G01 X25.7568 Y10.8820
G01 X25.7626 Y10.8930
G01 X25.7696 Y10.9033
G01 X25.7796 Y10.9152
G01 X25.7910 Y10.9258
G01 X25.8010 Y10.9332
G01 X25.8144 Y10.9411
G01 X25.8287 Y10.9472
G01 X25.8406 Y10.9508
G01 X25.8559 Y10.9536
G01 X25.8714 Y10.9546
G01 X27.3446 Y10.9546
G01 X27.3601 Y10.9536
G01 X27.3724 Y10.9515
G01 X27.3873 Y10.9472
G01 X27.4016 Y10.9411
G01 X27.4150 Y10.9332
G01 X27.4274 Y10.9238
G01 X27.4386 Y10.9130
G01 X27.4483 Y10.9008
G01 X27.4549 Y10.8903
G01 X27.4617 Y10.8763
G01 X27.4668 Y10.8616
G01 X27.4695 Y10.8495
G01 X27.4708 Y10.8402
G01 X27.4714 Y10.8309
G01 X27.4714 Y10.7706
G01 X27.5255 Y10.7908
G01 X27.6116 Y10.8552
G01 X27.6760 Y10.9413
G01 X27.7143 Y11.0441
G01 X27.7183 Y11.0811
G01 X27.7183 Y11.5189
G01 X27.7107 Y11.5903
G01 X27.7102 Y11.6028
G01 X27.7107 Y11.6121
G01 X27.7083 Y11.6513
G01 X27.7091 Y11.6664
G01 X27.7111 Y11.6783
G01 X27.7137 Y11.6880
G01 X27.7183 Y11.7311
G01 X27.7183 Y12.1689
G01 X27.7107 Y12.2403
G01 X27.7102 Y12.2528
G01 X27.7107 Y12.2621
G01 X27.7083 Y12.3014
G01 X27.7092 Y12.3164
G01 X27.7112 Y12.3283
G01 X27.7137 Y12.3380
G01 X27.7183 Y12.3811
G01 X27.7183 Y12.8189
G01 X27.7143 Y12.8559
G01 X27.6760 Y12.9587
G01 X27.6116 Y13.0448
G01 X27.5255 Y13.1092
G01 X27.5126 Y13.1140
G01 X27.5016 Y13.1190
G01 X27.4912 Y13.1251
G01 X27.4837 Y13.1302
G01 X27.4229 Y13.1760
G01 X27.4114 Y13.1868
G01 X27.4052 Y13.1939
G01 X27.3995 Y13.2015
G01 X27.3914 Y13.2149
G01 X27.3861 Y13.2264
G01 X27.3585 Y13.3007
G01 X27.3553 Y13.3129
G01 X27.3533 Y13.3253
G01 X27.3526 Y13.3379
G01 X27.3531 Y13.3505
G01 X27.3555 Y13.3660
G01 X27.3703 Y13.4343
G01 X27.3726 Y13.4433
G01 X27.3756 Y13.4522
G01 X27.3806 Y13.4636
G01 X27.3866 Y13.4744
G01 X27.3919 Y13.4822
G01 X27.3976 Y13.4895
G01 X27.4303 Y13.5279
G01 X27.4416 Y13.5396
G01 X27.4490 Y13.5458
G01 X27.5416 Y13.6179
G01 X27.6958 Y13.7854
G01 X27.8203 Y13.9759
G01 X27.9117 Y14.1844
G01 X27.9676 Y14.4051
G01 X27.9817 Y14.5752
G01 X27.9817 Y17.0101
G01 X27.9830 Y17.0252
G01 X27.9860 Y17.0399
G01 X28.0065 Y17.1099
G01 X28.0118 Y17.1245
G01 X28.0188 Y17.1384
G01 X28.0257 Y17.1488
G01 X28.0461 Y17.1744
G01 X28.0552 Y17.1845
G01 X31.6755 Y20.8048
G01 X31.6868 Y20.8149
G01 X31.6992 Y20.8235
G01 X31.7713 Y20.8628
G01 X31.7857 Y20.8687
G01 X31.7946 Y20.8714
G01 X31.8037 Y20.8734
G01 X31.8130 Y20.8747
G01 X31.8393 Y20.8776
G01 X31.8529 Y20.8783
G01 X48.1392 Y20.8783
G01 X48.1542 Y20.8774
G01 X48.1691 Y20.8747
G01 X48.2419 Y20.8535
G01 X48.2508 Y20.8505
G01 X48.2594 Y20.8469
G01 X48.2677 Y20.8427
G01 X48.2757 Y20.8379
G01 X48.2833 Y20.8325
G01 X48.3064 Y20.8139
G01 X48.3165 Y20.8048
G01 X51.5585 Y17.5628
G01 X51.5645 Y17.5560
G01 X51.5700 Y17.5488
G01 X51.5780 Y17.5361
G01 X51.6144 Y17.4691
G01 X51.6193 Y17.4575
G01 X51.6230 Y17.4455
G01 X51.6260 Y17.4301
G01 X51.6268 Y17.4207
G01 X51.6270 Y17.4112
G01 X51.6217 Y17.3352
G01 X51.6207 Y17.3258
G01 X51.6189 Y17.3164
G01 X51.6155 Y17.3042
G01 X51.6109 Y17.2924
G01 X51.6067 Y17.2839
G01 X51.6019 Y17.2757
G01 X51.5717 Y17.2289
G01 X51.5645 Y17.2192
G01 X51.5564 Y17.2103
G01 X47.8707 Y13.5246
G01 X47.7862 Y13.4451
G01 X47.7160 Y13.3603
G01 X47.6407 Y13.2747
G01 X47.6246 Y13.2511
G01 X47.6158 Y13.2394
G01 X47.5958 Y13.2150
G01 X47.5368 Y13.1220
G01 X47.4728 Y13.0277
G01 X47.4584 Y12.9996
G01 X47.4511 Y12.9869
G01 X47.4358 Y12.9628
G01 X47.3889 Y12.8632
G01 X47.3372 Y12.7616
G01 X47.3264 Y12.7319
G01 X47.3208 Y12.7184
G01 X47.3086 Y12.6925
G01 X47.2746 Y12.5878
G01 X47.2360 Y12.4805
G01 X47.2290 Y12.4498
G01 X47.2251 Y12.4356
G01 X47.2163 Y12.4085
G01 X47.1949 Y12.2965
G01 X47.1709 Y12.1890
G01 X47.1682 Y12.1606
G01 X47.1661 Y12.1461
G01 X47.1604 Y12.1151
G01 X47.1531 Y12.0013
G01 X47.1428 Y11.8917
G01 X47.1463 Y11.7757
G01 X47.1463 Y8.1511
G01 X47.1457 Y8.1391
G01 X47.1440 Y8.1271
G01 X47.1412 Y8.1154
G01 X47.1215 Y8.0483
G01 X47.1185 Y8.0395
G01 X47.1149 Y8.0309
G01 X47.1092 Y8.0199
G01 X47.1023 Y8.0094
G01 X47.0819 Y7.9839
G01 X47.0752 Y7.9762
G01 X46.5241 Y7.4250
G01 X46.5126 Y7.4153
G01 X46.5000 Y7.4070
G01 X46.4360 Y7.3720
G01 X46.4219 Y7.3654
G01 X46.4102 Y7.3614
G01 X46.3950 Y7.3581
G01 X46.3625 Y7.3544
G01 X46.3489 Y7.3537
G01 X21.6023 Y7.3537
G01 X21.5823 Y7.3546
G01 X21.5704 Y7.3557
G01 X13.6882 Y7.3557
G01 X13.6512 Y7.3517
G01 X13.5483 Y7.3134
G01 X13.4623 Y7.2490
G01 X13.3979 Y7.1629
G01 X13.3596 Y7.0601
G01 X13.3556 Y7.0231
G01 X13.3556 Y2.9409
G01 X13.3596 Y2.9039
G01 X13.3979 Y2.8011
G01 X13.4623 Y2.7150
G01 X13.5483 Y2.6506
G01 X13.6512 Y2.6123
G01 X13.6882 Y2.6083
G01 X17.5172 Y2.6083
G01 X17.5329 Y2.6078
G01 X17.5567 Y2.6063
G01 X47.3948 Y2.6063
G01 X47.5107 Y2.6028
G01 X47.6204 Y2.6131
G01 X47.7341 Y2.6204
G01 X47.7651 Y2.6261
G01 X47.7796 Y2.6282
G01 X47.8081 Y2.6309
G01 X47.9193 Y2.6557
G01 X48.0275 Y2.6763
G01 X48.0547 Y2.6851
G01 X48.0688 Y2.6890
G01 X48.0996 Y2.6960
G01 X48.2032 Y2.7334
G01 X48.3115 Y2.7686
G01 X48.3402 Y2.7819
G01 X48.3537 Y2.7875
G01 X48.3806 Y2.7972
G01 X48.4787 Y2.8472
G01 X48.5818 Y2.8958
G01 X48.6059 Y2.9111
G01 X48.6186 Y2.9184
G01 X48.6467 Y2.9328
G01 X48.7378 Y2.9947
G01 X48.8340 Y3.0558
G01 X48.8584 Y3.0759
G01 X48.8701 Y3.0846
G01 X48.8937 Y3.1007
G01 X48.9793 Y3.1760
G01 X49.0641 Y3.2462
G01 X49.1436 Y3.3307
G01 X51.1693 Y5.3564
G01 X51.2538 Y5.4359
G01 X51.3240 Y5.5208
G01 X51.3993 Y5.6063
G01 X51.4154 Y5.6299
G01 X51.4241 Y5.6416
G01 X51.4442 Y5.6660
G01 X51.5032 Y5.7590
G01 X51.5672 Y5.8533
G01 X51.5816 Y5.8814
G01 X51.5889 Y5.8941
G01 X51.6042 Y5.9182
G01 X51.6528 Y6.0213
G01 X51.7028 Y6.1194
G01 X51.7125 Y6.1463
G01 X51.7181 Y6.1599
G01 X51.7314 Y6.1885
G01 X51.7666 Y6.2968
G01 X51.8040 Y6.4004
G01 X51.8110 Y6.4312
G01 X51.8149 Y6.4453
G01 X51.8237 Y6.4725
G01 X51.8443 Y6.5807
G01 X51.8691 Y6.6919
G01 X51.8718 Y6.7204
G01 X51.8739 Y6.7349
G01 X51.8796 Y6.7659
G01 X51.8866 Y6.8758
G01 X51.8972 Y6.9893
G01 X51.8937 Y7.1052
G01 X51.8937 Y10.7329
G01 X51.8950 Y10.7479
G01 X51.8980 Y10.7627
G01 X51.9185 Y10.8326
G01 X51.9226 Y10.8444
G01 X51.9293 Y10.8584
G01 X51.9359 Y10.8690
G01 X51.9414 Y10.8765
G01 X51.9625 Y10.9023
G01 X54.1895 Y13.1296
G01 X54.2008 Y13.1396
G01 X54.2081 Y13.1450
G01 X54.2158 Y13.1498
G01 X54.2825 Y13.1862
G01 X54.2970 Y13.1925
G01 X54.3090 Y13.1962
G01 X54.3213 Y13.1988
G01 X54.3338 Y13.2000
G01 X54.3464 Y13.2001
G01 X54.4255 Y13.1943
G01 X54.4348 Y13.1928
G01 X54.4439 Y13.1907
G01 X54.4587 Y13.1856
G01 X54.4673 Y13.1817
G01 X54.4915 Y13.1695
G01 X54.5005 Y13.1644
G01 X54.6549 Y13.0643
G01 X54.9700 Y12.9037
G01 X55.3001 Y12.7770
G01 X55.6417 Y12.6855
G01 X55.9909 Y12.6302
G01 X56.3440 Y12.6117
G01 X56.6972 Y12.6302
G01 X57.0464 Y12.6855
G01 X57.3880 Y12.7770
G01 X57.7181 Y12.9037
G01 X58.0332 Y13.0643
G01 X58.3298 Y13.2569
G01 X58.6046 Y13.4794
G01 X58.8546 Y13.7295
G01 X59.0772 Y14.0043
G01 X59.2698 Y14.3008
G01 X59.4303 Y14.6159
G01 X59.5570 Y14.9460
G01 X59.6486 Y15.2876
G01 X59.7039 Y15.6369
G01 X59.7224 Y15.9900
G01 X59.7039 Y16.3431
G01 X59.6486 Y16.6924
G01 X59.5570 Y17.0340
G01 X59.4303 Y17.3641
G01 X59.2698 Y17.6792
G01 X59.0772 Y17.9757
G01 X58.8546 Y18.2505
G01 X58.6046 Y18.5006
G01 X58.3298 Y18.7231
G01 X58.0332 Y18.9157
G01 X57.7181 Y19.0763
G01 X57.3880 Y19.2030
G01 X57.0464 Y19.2945
G01 X56.6972 Y19.3498
G01 X56.3440 Y19.3683
G01 X55.9909 Y19.3498
G01 X55.6416 Y19.2945
G01 X55.3001 Y19.2030
G01 X54.9700 Y19.0763
G01 X54.6549 Y18.9157
G01 X54.4808 Y18.8027
G01 X54.4702 Y18.7969
G01 X54.4592 Y18.7921
G01 X54.4506 Y18.7892
G01 X54.3776 Y18.7675
G01 X54.3683 Y18.7656
G01 X54.3590 Y18.7644
G01 X54.3432 Y18.7639
G01 X54.3276 Y18.7654
G01 X54.3122 Y18.7688
G01 X54.2421 Y18.7891
G01 X54.2303 Y18.7935
G01 X54.2218 Y18.7975
G01 X54.2137 Y18.8021
G01 X54.2034 Y18.8092
G01 X54.1771 Y18.8303
G01 X54.1694 Y18.8373
G01 X49.8547 Y23.1520
G01 X49.8374 Y23.1713
G01 X49.8262 Y23.1856
G01 X49.7671 Y23.2399
G01 X49.7432 Y23.2635
G01 X49.7196 Y23.2837
G01 X49.6587 Y23.3398
G01 X49.6414 Y23.3514
G01 X49.6270 Y23.3621
G01 X49.6130 Y23.3738
G01 X49.5375 Y23.4190
G01 X49.4681 Y23.4643
G01 X49.4515 Y23.4717
G01 X49.4355 Y23.4799
G01 X49.4174 Y23.4903
G01 X49.3355 Y23.5225
G01 X49.2596 Y23.5557
G01 X49.2395 Y23.5611
G01 X49.2224 Y23.5666
G01 X49.2054 Y23.5731
G01 X49.1193 Y23.5913
G01 X49.0389 Y23.6116
G01 X49.0208 Y23.6132
G01 X49.0030 Y23.6158
G01 X48.9825 Y23.6198
G01 X48.8998 Y23.6233
G01 X48.8689 Y23.6257
G01 X48.8353 Y23.6259
G01 X48.7551 Y23.6292
G01 X48.7370 Y23.6271
G01 X48.7112 Y23.6257
G01 X31.2809 Y23.6257
G01 X31.2551 Y23.6271
G01 X31.2370 Y23.6292
G01 X31.1568 Y23.6259
G01 X31.1232 Y23.6257
G01 X31.0923 Y23.6233
G01 X31.0095 Y23.6198
G01 X30.9891 Y23.6158
G01 X30.9713 Y23.6132
G01 X30.9531 Y23.6116
G01 X30.8728 Y23.5913
G01 X30.7867 Y23.5731
G01 X30.7697 Y23.5666
G01 X30.7526 Y23.5611
G01 X30.7324 Y23.5557
G01 X30.6518 Y23.5205
G01 X30.5746 Y23.4903
G01 X30.5589 Y23.4811
G01 X30.5429 Y23.4729
G01 X30.5240 Y23.4643
G01 X30.4502 Y23.4163
G01 X30.3790 Y23.3738
G01 X30.3630 Y23.3605
G01 X30.3485 Y23.3498
G01 X30.3334 Y23.3398
G01 X30.2743 Y23.2854
G01 X30.2488 Y23.2635
G01 X30.2268 Y23.2417
G01 X30.1659 Y23.1856
G01 X30.1546 Y23.1713
G01 X30.1373 Y23.1520
G01 X25.7080 Y18.7227
G01 X25.6887 Y18.7054
G01 X25.6744 Y18.6941
G01 X25.6183 Y18.6332
G01 X25.5965 Y18.6112
G01 X25.5763 Y18.5876
G01 X25.5202 Y18.5266
G01 X25.5102 Y18.5115
G01 X25.4995 Y18.4970
G01 X25.4862 Y18.4810
G01 X25.4437 Y18.4098
G01 X25.3957 Y18.3361
G01 X25.3883 Y18.3194
G01 X25.3801 Y18.3034
G01 X25.3696 Y18.2854
G01 X25.3375 Y18.2035
G01 X25.3043 Y18.1276
G01 X25.2989 Y18.1074
G01 X25.2934 Y18.0903
G01 X25.2869 Y18.0733
G01 X25.2687 Y17.9872
G01 X25.2484 Y17.9069
G01 X25.2468 Y17.8887
G01 X25.2442 Y17.8709
G01 X25.2402 Y17.8505
G01 X25.2367 Y17.7677
G01 X25.2343 Y17.7368
G01 X25.2341 Y17.7032
G01 X25.2308 Y17.6230
G01 X25.2329 Y17.6049
G01 X25.2343 Y17.5791
G01 X25.2343 Y14.5752
G01 X25.2484 Y14.4051
G01 X25.3043 Y14.1844
G01 X25.3957 Y13.9760
G01 X25.5202 Y13.7854
G01 X25.6744 Y13.6179
G01 X25.7670 Y13.5458
G01 X25.7739 Y13.5400
G01 X25.7804 Y13.5337
G01 X25.7902 Y13.5223
G01 X25.8328 Y13.4631
G01 X25.8397 Y13.4526
G01 X25.8454 Y13.4414
G01 X25.8500 Y13.4296
G01 X25.8541 Y13.4145
G01 X25.8563 Y13.3989
G01 X25.8603 Y13.3228
G01 X25.8598 Y13.3071
G01 X25.8573 Y13.2915
G01 X25.8539 Y13.2794
G01 X25.8481 Y13.2648
G01 X25.8437 Y13.2564
G01 X25.8059 Y13.1904
G01 X25.7967 Y13.1779
G01 X25.7861 Y13.1665
G01 X25.7767 Y13.1584
G01 X25.7691 Y13.1530
G01 X25.7210 Y13.1227
G01 X25.7066 Y13.1154
G01 X25.6905 Y13.1092
G01 X25.5339 Y12.9920
G01 X25.5261 Y12.9866
G01 X25.5152 Y12.9804
G01 X25.5037 Y12.9752
G01 X25.4918 Y12.9713
G01 X25.4795 Y12.9685
G01 X25.4670 Y12.9670
G01 X25.3910 Y12.9617
G01 X25.3753 Y12.9624
G01 X25.3659 Y12.9637
G01 X25.3567 Y12.9657
G01 X25.3447 Y12.9694
G01 X25.3331 Y12.9743
G01 X25.2662 Y13.0107
G01 X25.2584 Y13.0153
G01 X25.2509 Y13.0205
G01 X25.2394 Y13.0302
G01 X21.9764 Y16.2932
G01 X21.9703 Y16.2998
G01 X21.9628 Y16.3093
G01 X21.9548 Y16.3221
G01 X21.9213 Y16.3834
G01 X21.9171 Y16.3917
G01 X21.9136 Y16.4004
G01 X21.9099 Y16.4122
G01 X21.9073 Y16.4244
G01 X21.9037 Y16.4570
G01 X21.9030 Y16.4671
G01 X21.9030 Y18.0231
G01 X21.8990 Y18.0601
G01 X21.8606 Y18.1629
G01 X21.7962 Y18.2490
G01 X21.7102 Y18.3134
G01 X21.6074 Y18.3517
G01 X21.5703 Y18.3557
G01 X17.8311 Y18.3557
G01 X17.8056 Y18.3569
G01 X17.6960 Y18.3672
G01 X17.5800 Y18.3637
G01 X9.1523 Y18.3637
G01 X9.1432 Y18.3640
G01 X9.1312 Y18.3655
G01 X9.1194 Y18.3680
G01 X9.0465 Y18.3894
G01 X9.0377 Y18.3926
G01 X9.0292 Y18.3964
G01 X9.0210 Y18.4008
G01 X9.0131 Y18.4059
G01 X9.0057 Y18.4115
G01 X8.9850 Y18.4281
G01 X8.9773 Y18.4348
G01 X8.9115 Y18.5006
G01 X8.6367 Y18.7231
G01 X8.3401 Y18.9157
G01 X8.0250 Y19.0763
G01 X7.6949 Y19.2030
G01 X7.3533 Y19.2945
G01 X7.0041 Y19.3498
G01 X6.6509 Y19.3683
G01 X6.2978 Y19.3498
G01 X5.9485 Y19.2945
G01 X5.6070 Y19.2030
G01 X5.2768 Y19.0763
G01 X4.9618 Y18.9157
G01 X4.6652 Y18.7231
G01 X4.3904 Y18.5006
G01 X4.1403 Y18.2505
G01 X3.9178 Y17.9757
G01 X3.7252 Y17.6792
G01 X3.5647 Y17.3641
G01 X3.4380 Y17.0340
G01 X3.3464 Y16.6924
G01 X3.2911 Y16.3431
G01 X3.2726 Y15.9900
G00 Z2.0000
G00 X0.4799 Y25.1755
G01 F60.00
G01 Z-0.1000
G01 F120.00
G01 X0.4799 Y1.0980
G01 X0.4804 Y1.0860
G01 X0.4821 Y1.0740
G01 X0.4955 Y1.0134
G01 X0.4983 Y1.0043
G01 X0.5018 Y0.9955
G01 X0.5059 Y0.9869
G01 X0.5107 Y0.9787
G01 X0.5161 Y0.9709
G01 X0.5220 Y0.9635
G01 X0.5678 Y0.9107
G01 X0.5765 Y0.9016
G01 X0.5861 Y0.8934
G01 X0.5964 Y0.8862
G01 X0.6074 Y0.8801
G01 X0.6189 Y0.8750
G01 X0.6279 Y0.8720
G01 X0.7008 Y0.8508
G01 X0.7156 Y0.8481
G01 X0.7307 Y0.8472
G01 X62.8055 Y0.8472
G01 X62.8176 Y0.8478
G01 X62.8295 Y0.8495
G01 X62.8901 Y0.8628
G01 X62.8992 Y0.8657
G01 X62.9080 Y0.8691
G01 X62.9166 Y0.8733
G01 X62.9248 Y0.8781
G01 X62.9326 Y0.8834
G01 X62.9400 Y0.8894
G01 X62.9929 Y0.9352
G01 X63.0019 Y0.9439
G01 X63.0101 Y0.9534
G01 X63.0173 Y0.9638
G01 X63.0235 Y0.9748
G01 X63.0285 Y0.9863
G01 X63.0315 Y0.9953
G01 X63.0527 Y1.0681
G01 X63.0554 Y1.0830
G01 X63.0563 Y1.0980
G01 X63.0563 Y25.1755
G01 X63.0557 Y25.1876
G01 X63.0540 Y25.1995
G01 X63.0407 Y25.2601
G01 X63.0379 Y25.2692
G01 X63.0344 Y25.2780
G01 X63.0302 Y25.2866
G01 X63.0255 Y25.2948
G01 X63.0201 Y25.3026
G01 X63.0141 Y25.3100
G01 X62.9684 Y25.3629
G01 X62.9597 Y25.3719
G01 X62.9501 Y25.3801
G01 X62.9398 Y25.3873
G01 X62.9288 Y25.3935
G01 X62.9172 Y25.3985
G01 X62.9083 Y25.4015
G01 X62.8354 Y25.4227
G01 X62.8206 Y25.4254
G01 X62.8055 Y25.4263
G01 X0.7307 Y25.4263
G01 X0.7186 Y25.4257
G01 X0.7096 Y25.4245
G01 X0.6522 Y25.4122
G01 X0.6370 Y25.4079
G01 X0.6224 Y25.4017
G01 X0.6114 Y25.3955
G01 X0.5985 Y25.3862
G01 X0.5433 Y25.3384
G01 X0.5364 Y25.3319
G01 X0.5280 Y25.3226
G01 X0.5188 Y25.3098
G01 X0.5127 Y25.2988
G01 X0.5066 Y25.2843
G01 X0.4834 Y25.2054
G01 X0.4807 Y25.1906
G01 X0.4799 Y25.1755
G00 Z2.0000
G00 X0.3404 Y25.1755
G01 F60.00
G01 Z-0.1000
G01 F120.00
G01 X0.3404 Y1.0980
G01 X0.3411 Y1.0790
G01 X0.3423 Y1.0664
G01 X0.3441 Y1.0539
G01 X0.3577 Y0.9899
G01 X0.3608 Y0.9770
G01 X0.3667 Y0.9579
G01 X0.3741 Y0.9394
G01 X0.3828 Y0.9214
G01 X0.3928 Y0.9042
G01 X0.4041 Y0.8877
G01 X0.4166 Y0.8721
G01 X0.4668 Y0.8144
G01 X0.4759 Y0.8048
G01 X0.4855 Y0.7957
G01 X0.4956 Y0.7872
G01 X0.5060 Y0.7791
G01 X0.5224 Y0.7679
G01 X0.5338 Y0.7612
G01 X0.5455 Y0.7550
G01 X0.5575 Y0.7495
G01 X0.5698 Y0.7445
G01 X0.5886 Y0.7382
G01 X0.6556 Y0.7185
G01 X0.6740 Y0.7138
G01 X0.6865 Y0.7114
G01 X0.6990 Y0.7096
G01 X0.7117 Y0.7084
G01 X0.7307 Y0.7077
G01 X62.8055 Y0.7077
G01 X62.8245 Y0.7084
G01 X62.8371 Y0.7096
G01 X62.8497 Y0.7114
G01 X62.9136 Y0.7250
G01 X62.9265 Y0.7282
G01 X62.9456 Y0.7341
G01 X62.9642 Y0.7415
G01 X62.9821 Y0.7502
G01 X62.9994 Y0.7602
G01 X63.0158 Y0.7715
G01 X63.0314 Y0.7840
G01 X63.0891 Y0.8341
G01 X63.0987 Y0.8433
G01 X63.1078 Y0.8529
G01 X63.1164 Y0.8629
G01 X63.1245 Y0.8734
G01 X63.1320 Y0.8843
G01 X63.1390 Y0.8955
G01 X63.1455 Y0.9070
G01 X63.1513 Y0.9189
G01 X63.1590 Y0.9372
G01 X63.1653 Y0.9560
G01 X63.1850 Y1.0230
G01 X63.1897 Y1.0414
G01 X63.1921 Y1.0539
G01 X63.1946 Y1.0727
G01 X63.1955 Y1.0854
G01 X63.1958 Y1.0980
G01 X63.1958 Y25.1755
G01 X63.1955 Y25.1882
G01 X63.1946 Y25.2008
G01 X63.1921 Y25.2197
G01 X63.1785 Y25.2836
G01 X63.1753 Y25.2965
G01 X63.1694 Y25.3156
G01 X63.1621 Y25.3342
G01 X63.1534 Y25.3521
G01 X63.1433 Y25.3694
G01 X63.1320 Y25.3858
G01 X63.1195 Y25.4014
G01 X63.0694 Y25.4591
G01 X63.0602 Y25.4687
G01 X63.0506 Y25.4778
G01 X63.0406 Y25.4864
G01 X63.0301 Y25.4945
G01 X63.0137 Y25.5056
G01 X63.0023 Y25.5123
G01 X62.9906 Y25.5185
G01 X62.9786 Y25.5240
G01 X62.9664 Y25.5290
G01 X62.9476 Y25.5353
G01 X62.8805 Y25.5550
G01 X62.8621 Y25.5597
G01 X62.8497 Y25.5621
G01 X62.8308 Y25.5646
G01 X62.8182 Y25.5655
G01 X62.8055 Y25.5658
G01 X0.7307 Y25.5658
G01 X0.7180 Y25.5655
G01 X0.7053 Y25.5646
G01 X0.6865 Y25.5621
G01 X0.6225 Y25.5485
G01 X0.6096 Y25.5453
G01 X0.5969 Y25.5415
G01 X0.5781 Y25.5347
G01 X0.5659 Y25.5293
G01 X0.5540 Y25.5234
G01 X0.5368 Y25.5133
G01 X0.5257 Y25.5059
G01 X0.5150 Y25.4980
G01 X0.5048 Y25.4895
G01 X0.4520 Y25.4438
G01 X0.4375 Y25.4302
G01 X0.4284 Y25.4206
G01 X0.4157 Y25.4054
G01 X0.4078 Y25.3947
G01 X0.4006 Y25.3837
G01 X0.3938 Y25.3723
G01 X0.3877 Y25.3606
G01 X0.3821 Y25.3486
G01 X0.3771 Y25.3364
G01 X0.3708 Y25.3176
G01 X0.3512 Y25.2505
G01 X0.3465 Y25.2321
G01 X0.3441 Y25.2197
G01 X0.3423 Y25.2071
G01 X0.3407 Y25.1882
G01 X0.3404 Y25.1755
G00 Z2.0000
G00 X0.2009 Y25.1755
G01 F60.00
G01 Z-0.1000
G01 F120.00
G01 X0.2010 Y1.0884
G01 X0.2027 Y1.0595
G01 X0.2065 Y1.0307
G01 X0.2102 Y1.0118
G01 X0.2214 Y0.9603
G01 X0.2262 Y0.9406
G01 X0.2289 Y0.9308
G01 X0.2352 Y0.9115
G01 X0.2387 Y0.9020
G01 X0.2424 Y0.8926
G01 X0.2506 Y0.8740
G01 X0.2550 Y0.8649
G01 X0.2645 Y0.8470
G01 X0.2696 Y0.8382
G01 X0.2805 Y0.8211
G01 X0.2922 Y0.8045
G01 X0.3047 Y0.7885
G01 X0.3570 Y0.7280
G01 X0.3637 Y0.7205
G01 X0.3776 Y0.7059
G01 X0.3922 Y0.6921
G01 X0.3998 Y0.6854
G01 X0.4154 Y0.6727
G01 X0.4317 Y0.6608
G01 X0.4485 Y0.6497
G01 X0.4571 Y0.6444
G01 X0.4747 Y0.6346
G01 X0.4928 Y0.6257
G01 X0.5112 Y0.6176
G01 X0.5206 Y0.6140
G01 X0.5397 Y0.6073
G01 X0.5493 Y0.6044
G01 X0.6163 Y0.5847
G01 X0.6444 Y0.5775
G01 X0.6729 Y0.5724
G01 X0.6921 Y0.5701
G01 X0.7113 Y0.5687
G01 X0.7307 Y0.5683
G01 X62.8055 Y0.5683
G01 X62.8344 Y0.5693
G01 X62.8537 Y0.5711
G01 X62.8728 Y0.5739
G01 X62.8918 Y0.5775
G01 X62.9433 Y0.5887
G01 X62.9630 Y0.5935
G01 X62.9727 Y0.5963
G01 X62.9824 Y0.5993
G01 X63.0015 Y0.6061
G01 X63.0110 Y0.6098
G01 X63.0295 Y0.6180
G01 X63.0386 Y0.6224
G01 X63.0565 Y0.6319
G01 X63.0653 Y0.6370
G01 X63.0824 Y0.6479
G01 X63.0990 Y0.6595
G01 X63.1150 Y0.6720
G01 X63.1755 Y0.7243
G01 X63.1831 Y0.7310
G01 X63.1976 Y0.7450
G01 X63.2046 Y0.7522
G01 X63.2181 Y0.7672
G01 X63.2308 Y0.7828
G01 X63.2369 Y0.7909
G01 X63.2484 Y0.8074
G01 X63.2591 Y0.8245
G01 X63.2641 Y0.8332
G01 X63.2735 Y0.8510
G01 X63.2820 Y0.8693
G01 X63.2895 Y0.8880
G01 X63.2930 Y0.8975
G01 X63.2991 Y0.9167
G01 X63.3188 Y0.9837
G01 X63.3260 Y1.0118
G01 X63.3296 Y1.0307
G01 X63.3324 Y1.0498
G01 X63.3342 Y1.0691
G01 X63.3353 Y1.0980
G01 X63.3353 Y25.1755
G01 X63.3348 Y25.1948
G01 X63.3334 Y25.2141
G01 X63.3296 Y25.2428
G01 X63.3260 Y25.2618
G01 X63.3148 Y25.3133
G01 X63.3125 Y25.3231
G01 X63.3072 Y25.3427
G01 X63.3042 Y25.3524
G01 X63.2974 Y25.3715
G01 X63.2937 Y25.3810
G01 X63.2856 Y25.3995
G01 X63.2765 Y25.4176
G01 X63.2716 Y25.4265
G01 X63.2612 Y25.4439
G01 X63.2557 Y25.4524
G01 X63.2440 Y25.4690
G01 X63.2315 Y25.4850
G01 X63.1792 Y25.5455
G01 X63.1656 Y25.5604
G01 X63.1586 Y25.5676
G01 X63.1439 Y25.5815
G01 X63.1363 Y25.5881
G01 X63.1207 Y25.6008
G01 X63.1045 Y25.6128
G01 X63.0961 Y25.6184
G01 X63.0790 Y25.6291
G01 X63.0614 Y25.6389
G01 X63.0434 Y25.6479
G01 X63.0249 Y25.6559
G01 X63.0155 Y25.6595
G01 X63.0060 Y25.6630
G01 X62.9869 Y25.6691
G01 X62.9198 Y25.6888
G01 X62.8918 Y25.6960
G01 X62.8632 Y25.7011
G01 X62.8441 Y25.7034
G01 X62.8248 Y25.7048
G01 X62.8055 Y25.7053
G01 X0.7307 Y25.7053
G01 X0.7113 Y25.7048
G01 X0.6921 Y25.7034
G01 X0.6729 Y25.7011
G01 X0.6444 Y25.6960
G01 X0.5929 Y25.6848
G01 X0.5732 Y25.6800
G01 X0.5538 Y25.6742
G01 X0.5441 Y25.6709
G01 X0.5252 Y25.6637
G01 X0.5159 Y25.6598
G01 X0.4975 Y25.6511
G01 X0.4885 Y25.6465
G01 X0.4708 Y25.6365
G01 X0.4537 Y25.6257
G01 X0.4371 Y25.6140
G01 X0.4212 Y25.6015
G01 X0.4134 Y25.5949
G01 X0.3606 Y25.5492
G01 X0.3457 Y25.5356
G01 X0.3385 Y25.5286
G01 X0.3247 Y25.5139
G01 X0.3116 Y25.4986
G01 X0.2993 Y25.4827
G01 X0.2877 Y25.4661
G01 X0.2823 Y25.4577
G01 X0.2720 Y25.4403
G01 X0.2627 Y25.4225
G01 X0.2542 Y25.4042
G01 X0.2466 Y25.3855
G01 X0.2432 Y25.3760
G01 X0.2370 Y25.3569
G01 X0.2173 Y25.2898
G01 X0.2102 Y25.2618
G01 X0.2065 Y25.2428
G01 X0.2027 Y25.2141
G01 X0.2014 Y25.1948
G01 X0.2009 Y25.1755
G00 Z2.0000
G00 X0.0614 Y25.1755
G01 F60.00
G01 Z-0.1000
G01 F120.00
G01 X0.0616 Y1.0850
G01 X0.0628 Y1.0591
G01 X0.0639 Y1.0462
G01 X0.0670 Y1.0204
G01 X0.0690 Y1.0076
G01 X0.0739 Y0.9821
G01 X0.0851 Y0.9306
G01 X0.0915 Y0.9041
G01 X0.0953 Y0.8910
G01 X0.1037 Y0.8651
G01 X0.1084 Y0.8523
G01 X0.1187 Y0.8271
G01 X0.1243 Y0.8147
G01 X0.1365 Y0.7903
G01 X0.1431 Y0.7784
G01 X0.1499 Y0.7666
G01 X0.1645 Y0.7436
G01 X0.1802 Y0.7213
G01 X0.1970 Y0.6999
G01 X0.2515 Y0.6367
G01 X0.2698 Y0.6166
G01 X0.2793 Y0.6070
G01 X0.2890 Y0.5975
G01 X0.3091 Y0.5794
G01 X0.3301 Y0.5623
G01 X0.3409 Y0.5542
G01 X0.3632 Y0.5387
G01 X0.3861 Y0.5244
G01 X0.3979 Y0.5176
G01 X0.4218 Y0.5050
G01 X0.4464 Y0.4936
G01 X0.4715 Y0.4834
G01 X0.4971 Y0.4745
G01 X0.5100 Y0.4706
G01 X0.5895 Y0.4474
G01 X0.6148 Y0.4412
G01 X0.6275 Y0.4386
G01 X0.6531 Y0.4343
G01 X0.6788 Y0.4313
G01 X0.7047 Y0.4294
G01 X0.7307 Y0.4288
G01 X62.8055 Y0.4288
G01 X62.8314 Y0.4294
G01 X62.8573 Y0.4313
G01 X62.8702 Y0.4326
G01 X62.8959 Y0.4363
G01 X62.9214 Y0.4412
G01 X62.9729 Y0.4524
G01 X62.9862 Y0.4555
G01 X63.0125 Y0.4626
G01 X63.0255 Y0.4667
G01 X63.0512 Y0.4757
G01 X63.0639 Y0.4808
G01 X63.0888 Y0.4917
G01 X63.1132 Y0.5039
G01 X63.1251 Y0.5105
G01 X63.1485 Y0.5245
G01 X63.1599 Y0.5319
G01 X63.1822 Y0.5476
G01 X63.2037 Y0.5644
G01 X63.2669 Y0.6189
G01 X63.2770 Y0.6279
G01 X63.2966 Y0.6466
G01 X63.3152 Y0.6663
G01 X63.3241 Y0.6765
G01 X63.3412 Y0.6975
G01 X63.3572 Y0.7193
G01 X63.3721 Y0.7419
G01 X63.3792 Y0.7535
G01 X63.3859 Y0.7652
G01 X63.3985 Y0.7892
G01 X63.4099 Y0.8138
G01 X63.4201 Y0.8389
G01 X63.4290 Y0.8644
G01 X63.4330 Y0.8774
G01 X63.4562 Y0.9569
G01 X63.4623 Y0.9821
G01 X63.4649 Y0.9948
G01 X63.4692 Y1.0204
G01 X63.4723 Y1.0462
G01 X63.4741 Y1.0721
G01 X63.4747 Y1.0980
G01 X63.4746 Y25.1885
G01 X63.4741 Y25.2014
G01 X63.4723 Y25.2273
G01 X63.4692 Y25.2531
G01 X63.4672 Y25.2659
G01 X63.4623 Y25.2914
G01 X63.4511 Y25.3429
G01 X63.4446 Y25.3694
G01 X63.4409 Y25.3825
G01 X63.4368 Y25.3955
G01 X63.4278 Y25.4212
G01 X63.4228 Y25.4339
G01 X63.4118 Y25.4588
G01 X63.4059 Y25.4711
G01 X63.3931 Y25.4951
G01 X63.3791 Y25.5185
G01 X63.3716 Y25.5299
G01 X63.3559 Y25.5522
G01 X63.3392 Y25.5737
G01 X63.2846 Y25.6369
G01 X63.2664 Y25.6569
G01 X63.2569 Y25.6666
G01 X63.2472 Y25.6760
G01 X63.2270 Y25.6941
G01 X63.2060 Y25.7112
G01 X63.1842 Y25.7272
G01 X63.1730 Y25.7348
G01 X63.1500 Y25.7492
G01 X63.1383 Y25.7559
G01 X63.1143 Y25.7685
G01 X63.0898 Y25.7799
G01 X63.0647 Y25.7901
G01 X63.0519 Y25.7947
G01 X63.0262 Y25.8030
G01 X62.9466 Y25.8262
G01 X62.9214 Y25.8323
G01 X62.8959 Y25.8372
G01 X62.8831 Y25.8392
G01 X62.8573 Y25.8423
G01 X62.8314 Y25.8441
G01 X62.8055 Y25.8447
G01 X0.7307 Y25.8447
G01 X0.7047 Y25.8441
G01 X0.6788 Y25.8423
G01 X0.6659 Y25.8409
G01 X0.6402 Y25.8372
G01 X0.6147 Y25.8323
G01 X0.5500 Y25.8180
G01 X0.5237 Y25.8109
G01 X0.5106 Y25.8068
G01 X0.4850 Y25.7978
G01 X0.4597 Y25.7874
G01 X0.4473 Y25.7818
G01 X0.4230 Y25.7696
G01 X0.3992 Y25.7562
G01 X0.3762 Y25.7416
G01 X0.3540 Y25.7259
G01 X0.3431 Y25.7177
G01 X0.3221 Y25.7004
G01 X0.2592 Y25.6456
G01 X0.2396 Y25.6269
G01 X0.2210 Y25.6072
G01 X0.2034 Y25.5866
G01 X0.1868 Y25.5652
G01 X0.1713 Y25.5430
G01 X0.1570 Y25.5200
G01 X0.1438 Y25.4964
G01 X0.1318 Y25.4721
G01 X0.1210 Y25.4473
G01 X0.1115 Y25.4219
G01 X0.1032 Y25.3962
G01 X0.0800 Y25.3166
G01 X0.0739 Y25.2914
G01 X0.0690 Y25.2659
G01 X0.0653 Y25.2402
G01 X0.0628 Y25.2144
G01 X0.0616 Y25.1885
G01 X0.0614 Y25.1755
G00 Z2.0000
G00 X21.7960 Y16.3221
G01 F60.00
G01 Z-0.1000
G01 F120.00
G01 X21.7958 Y16.3223
G01 X21.7956 Y16.3229
G01 X21.7956 Y16.3225
G01 X21.7960 Y16.3221
G00 Z2.0000
G00 X21.7621 Y13.8528
G01 F60.00
G01 Z-0.1000
G01 F120.00
G01 X21.8349 Y13.8801
G01 X21.8537 Y13.8864
G01 X21.8729 Y13.8912
G01 X21.8859 Y13.8936
G01 X21.8990 Y13.8953
G01 X21.9122 Y13.8964
G01 X21.9254 Y13.8969
G01 X21.9387 Y13.8967
G01 X21.9519 Y13.8958
G01 X21.9715 Y13.8933
G01 X21.9845 Y13.8908
G01 X22.0593 Y13.8745
G01 X22.0723 Y13.8710
G01 X22.0822 Y13.8678
G01 X21.7956 Y14.1544
G01 X21.7956 Y13.9820
G01 X21.7952 Y13.9689
G01 X21.7943 Y13.9559
G01 X21.7927 Y13.9429
G01 X21.7904 Y13.9300
G01 X21.7876 Y13.9173
G01 X21.7841 Y13.9047
G01 X21.7800 Y13.8923
G01 X21.7753 Y13.8801
G01 X21.7700 Y13.8681
G01 X21.7621 Y13.8528
G00 Z2.0000
G00 X25.6051 Y12.5129
G01 F60.00
G01 Z-0.1000
G01 F120.00
G01 X25.6051 Y12.7778
G01 X25.6058 Y12.7974
G01 X25.6071 Y12.8104
G01 X25.6090 Y12.8233
G01 X25.6131 Y12.8425
G01 X25.6166 Y12.8551
G01 X25.6207 Y12.8675
G01 X25.6254 Y12.8797
G01 X25.6297 Y12.8894
G01 X25.6121 Y12.8764
G01 X25.5955 Y12.8655
G01 X25.5782 Y12.8559
G01 X25.5602 Y12.8476
G01 X25.5416 Y12.8407
G01 X25.5226 Y12.8352
G01 X25.5032 Y12.8311
G01 X25.4835 Y12.8284
G01 X25.4006 Y12.8225
G01 X25.3808 Y12.8223
G01 X25.3610 Y12.8236
G01 X25.3479 Y12.8253
G01 X25.3349 Y12.8276
G01 X25.3220 Y12.8306
G01 X25.3093 Y12.8342
G01 X25.2967 Y12.8385
G01 X25.2844 Y12.8433
G01 X25.2662 Y12.8519
G01 X25.6051 Y12.5129
G00 Z2.0000
G00 X25.8560 Y13.0436
G01 F60.00
G01 Z-0.1000
G01 F120.00
G01 X25.8714 Y13.0441
G01 X26.1666 Y13.0441
G01 X26.1666 Y13.4458
G01 X26.1293 Y13.4592
G01 X26.1172 Y13.4642
G01 X26.0166 Y13.5118
G01 X25.9995 Y13.5212
G01 X25.9351 Y13.5598
G01 X25.9535 Y13.5337
G01 X25.9636 Y13.5166
G01 X25.9697 Y13.5049
G01 X25.9751 Y13.4928
G01 X25.9800 Y13.4805
G01 X25.9842 Y13.4680
G01 X25.9894 Y13.4489
G01 X25.9931 Y13.4294
G01 X25.9954 Y13.4097
G01 X25.9995 Y13.3333
G01 X25.9999 Y13.3201
G01 X25.9996 Y13.3069
G01 X25.9986 Y13.2937
G01 X25.9970 Y13.2805
G01 X25.9934 Y13.2610
G01 X25.9884 Y13.2419
G01 X25.9819 Y13.2231
G01 X25.9768 Y13.2109
G01 X25.9711 Y13.1990
G01 X25.9649 Y13.1873
G01 X25.9269 Y13.1210
G01 X25.9199 Y13.1100
G01 X25.9123 Y13.0993
G01 X25.9043 Y13.0891
G01 X25.8957 Y13.0792
G01 X25.8867 Y13.0698
G01 X25.8772 Y13.0608
G01 X25.8673 Y13.0523
G01 X25.8560 Y13.0436
G00 Z2.0000
G00 X27.2725 Y13.5548
G01 F60.00
G01 Z-0.1000
G01 F120.00
G01 X27.2165 Y13.5212
G01 X27.1994 Y13.5118
G01 X27.0988 Y13.4642
G01 X27.0867 Y13.4592
G01 X27.0494 Y13.4458
G01 X27.0494 Y13.0441
G01 X27.3446 Y13.0441
G01 X27.3577 Y13.0438
G01 X27.3674 Y13.0431
G01 X27.3338 Y13.0686
G01 X27.3239 Y13.0773
G01 X27.3143 Y13.0865
G01 X27.3053 Y13.0961
G01 X27.2967 Y13.1062
G01 X27.2848 Y13.1221
G01 X27.2776 Y13.1331
G01 X27.2709 Y13.1445
G01 X27.2648 Y13.1563
G01 X27.2592 Y13.1683
G01 X27.2543 Y13.1806
G01 X27.2277 Y13.2522
G01 X27.2219 Y13.2712
G01 X27.2176 Y13.2906
G01 X27.2155 Y13.3036
G01 X27.2140 Y13.3168
G01 X27.2133 Y13.3300
G01 X27.2131 Y13.3432
G01 X27.2137 Y13.3564
G01 X27.2149 Y13.3696
G01 X27.2167 Y13.3827
G01 X27.2192 Y13.3957
G01 X27.2355 Y13.4703
G01 X27.2408 Y13.4892
G01 X27.2475 Y13.5076
G01 X27.2556 Y13.5254
G01 X27.2649 Y13.5426
G01 X27.2725 Y13.5548
G00 Z2.0000
G00 X27.5694 Y12.2795
G01 F60.00
G01 Z-0.1000
G01 F120.00
G01 X27.5665 Y12.2750
G01 X27.5698 Y12.2699
G01 X27.5694 Y12.2795
G00 Z2.0000
G00 X27.5665 Y11.6250
G01 F60.00
G01 Z-0.1000
G01 F120.00
G01 X27.5696 Y11.6203
G01 X27.5698 Y11.6199
G01 X27.5694 Y11.6295
G01 X27.5665 Y11.6250
G00 Z2.0000
G00 X25.7446 Y11.4778
G01 F60.00
G01 Z-0.1000
G01 F120.00
G01 X25.7446 Y11.1222
G01 X25.7452 Y11.1098
G01 X25.7470 Y11.0975
G01 X25.7492 Y11.0884
G01 X25.7520 Y11.0795
G01 X25.7555 Y11.0708
G01 X25.7596 Y11.0624
G01 X25.7643 Y11.0544
G01 X25.7696 Y11.0467
G01 X25.7754 Y11.0394
G01 X25.7817 Y11.0325
G01 X25.7886 Y11.0262
G01 X25.7959 Y11.0204
G01 X25.8089 Y11.0119
G01 X25.8172 Y11.0076
G01 X25.8258 Y11.0039
G01 X25.8346 Y11.0009
G01 X25.8436 Y10.9985
G01 X25.8559 Y10.9964
G01 X25.8714 Y10.9954
G01 X27.3508 Y10.9956
G01 X27.3632 Y10.9968
G01 X27.3724 Y10.9985
G01 X27.3814 Y11.0009
G01 X27.3931 Y11.0051
G01 X27.4044 Y11.0104
G01 X27.4124 Y11.0151
G01 X27.4201 Y11.0204
G01 X27.4274 Y11.0262
G01 X27.4364 Y11.0348
G01 X27.4426 Y11.0418
G01 X27.4483 Y11.0492
G01 X27.4534 Y11.0570
G01 X27.4579 Y11.0652
G01 X27.4629 Y11.0766
G01 X27.4659 Y11.0854
G01 X27.4683 Y11.0944
G01 X27.4704 Y11.1067
G01 X27.4714 Y11.1222
G01 X27.4714 Y11.4778
G01 X27.4708 Y11.4902
G01 X27.4690 Y11.5025
G01 X27.4668 Y11.5116
G01 X27.4640 Y11.5205
G01 X27.4605 Y11.5292
G01 X27.4564 Y11.5376
G01 X27.4517 Y11.5456
G01 X27.4464 Y11.5533
G01 X27.4406 Y11.5606
G01 X27.4343 Y11.5675
G01 X27.4274 Y11.5738
G01 X27.4201 Y11.5796
G01 X27.4071 Y11.5881
G01 X27.3988 Y11.5924
G01 X27.3902 Y11.5961
G01 X27.3814 Y11.5991
G01 X27.3724 Y11.6015
G01 X27.3570 Y11.6040
G01 X27.3446 Y11.6046
G01 X25.8714 Y11.6046
G01 X25.8621 Y11.6043
G01 X25.8497 Y11.6027
G01 X25.8376 Y11.6000
G01 X25.8287 Y11.5972
G01 X25.8172 Y11.5924
G01 X25.8062 Y11.5866
G01 X25.7984 Y11.5815
G01 X25.7886 Y11.5738
G01 X25.7796 Y11.5652
G01 X25.7714 Y11.5558
G01 X25.7643 Y11.5456
G01 X25.7581 Y11.5348
G01 X25.7543 Y11.5263
G01 X25.7501 Y11.5146
G01 X25.7470 Y11.5025
G01 X25.7452 Y11.4902
G01 X25.7446 Y11.4778
G00 Z2.0000
G00 X25.6067 Y11.0938
G01 F60.00
G01 Z-0.1000
G01 F120.00
G01 X25.6054 Y11.1091
G01 X25.6051 Y11.1222
G01 X25.6051 Y11.3886
G01 X25.5753 Y11.3617
G01 X25.5652 Y11.3534
G01 X25.5153 Y11.3164
G01 X25.4988 Y11.3057
G01 X25.4567 Y11.2804
G01 X25.4395 Y11.2710
G01 X25.3833 Y11.2444
G01 X25.3713 Y11.2394
G01 X25.3438 Y11.2295
G01 X25.4103 Y11.2187
G01 X25.4296 Y11.2144
G01 X25.4423 Y11.2107
G01 X25.4548 Y11.2064
G01 X25.4671 Y11.2014
G01 X25.4850 Y11.1929
G01 X25.4965 Y11.1865
G01 X25.5078 Y11.1795
G01 X25.5186 Y11.1720
G01 X25.5291 Y11.1639
G01 X25.5392 Y11.1553
G01 X25.5913 Y11.1087
G01 X25.6067 Y11.0938
G00 Z2.0000
G00 X31.3443 Y11.5620
G01 F60.00
G01 Z-0.1000
G01 F120.00
G01 X31.3397 Y11.5189
G01 X31.3397 Y11.0811
G01 X31.3473 Y11.0097
G01 X31.3478 Y10.9972
G01 X31.3473 Y10.9879
G01 X31.3497 Y10.9486
G01 X31.3488 Y10.9336
G01 X31.3468 Y10.9217
G01 X31.3443 Y10.9120
G01 X31.3397 Y10.8689
G01 X31.3397 Y10.4311
G01 X31.3437 Y10.3941
G01 X31.3820 Y10.2913
G01 X31.4464 Y10.2052
G01 X31.5325 Y10.1408
G01 X31.6353 Y10.1025
G01 X31.6723 Y10.0985
G01 X33.2277 Y10.0985
G01 X33.2647 Y10.1025
G01 X33.3675 Y10.1408
G01 X33.4536 Y10.2052
G01 X33.5180 Y10.2913
G01 X33.5541 Y10.3881
G01 X33.5576 Y10.3965
G01 X33.5616 Y10.4046
G01 X33.5662 Y10.4124
G01 X33.5714 Y10.4198
G01 X33.6133 Y10.4758
G01 X33.6213 Y10.4854
G01 X33.6303 Y10.4943
G01 X33.6426 Y10.5040
G01 X33.6533 Y10.5107
G01 X33.6646 Y10.5162
G01 X33.7418 Y10.5450
G01 X33.7570 Y10.5488
G01 X33.7726 Y10.5508
G01 X33.7891 Y10.5513
G01 X40.8528 Y10.5513
G01 X40.8705 Y10.5507
G01 X40.9138 Y10.5472
G01 X40.9861 Y10.5570
G01 X41.0611 Y10.5651
G01 X41.0693 Y10.5671
G01 X41.1435 Y10.5942
G01 X41.2152 Y10.6184
G01 X41.2227 Y10.6220
G01 X41.2895 Y10.6646
G01 X41.3542 Y10.7035
G01 X41.3608 Y10.7087
G01 X41.4133 Y10.7611
G01 X41.4266 Y10.7738
G01 X41.4266 Y10.8631
G01 X41.4275 Y10.8755
G01 X41.4297 Y10.8878
G01 X41.4320 Y10.8968
G01 X41.4351 Y10.9056
G01 X41.4387 Y10.9142
G01 X41.4430 Y10.9225
G01 X41.4479 Y10.9304
G01 X41.4534 Y10.9380
G01 X41.4594 Y10.9452
G01 X41.4659 Y10.9518
G01 X41.4729 Y10.9580
G01 X41.4804 Y10.9637
G01 X41.4882 Y10.9688
G01 X41.4964 Y10.9733
G01 X41.5049 Y10.9771
G01 X41.5136 Y10.9804
G01 X41.5286 Y10.9844
G01 X41.5379 Y10.9858
G01 X41.5503 Y10.9868
G01 X41.6390 Y10.9868
G01 X42.2694 Y11.6170
G01 X42.2787 Y11.6247
G01 X42.2887 Y11.6315
G01 X42.3553 Y11.6680
G01 X42.3693 Y11.6746
G01 X42.3841 Y11.6794
G01 X42.3932 Y11.6814
G01 X42.4025 Y11.6827
G01 X42.4322 Y11.6859
G01 X42.4424 Y11.6863
G01 X43.3945 Y11.6863
G01 X43.4315 Y11.6903
G01 X43.5343 Y11.7286
G01 X43.6203 Y11.7930
G01 X43.6847 Y11.8791
G01 X43.6911 Y11.8960
G01 X43.6947 Y11.9042
G01 X43.7005 Y11.9148
G01 X43.7055 Y11.9224
G01 X43.7531 Y11.9857
G01 X43.7638 Y11.9972
G01 X43.7734 Y12.0053
G01 X43.7811 Y12.0108
G01 X43.7892 Y12.0157
G01 X43.7976 Y12.0199
G01 X43.8064 Y12.0236
G01 X43.8777 Y12.0500
G01 X43.8929 Y12.0538
G01 X43.9085 Y12.0558
G01 X43.9250 Y12.0563
G01 X44.1918 Y12.0563
G01 X44.2068 Y12.0554
G01 X44.2217 Y12.0527
G01 X44.2975 Y12.0306
G01 X44.3063 Y12.0274
G01 X44.3176 Y12.0222
G01 X44.3257 Y12.0175
G01 X44.3334 Y12.0123
G01 X44.3637 Y11.9879
G01 X44.4886 Y11.9109
G01 X44.6279 Y11.8647
G01 X44.7105 Y11.8563
G01 X46.0975 Y11.8563
G01 X46.1801 Y11.8647
G01 X46.3194 Y11.9109
G01 X46.4435 Y11.9874
G01 X46.5466 Y12.0905
G01 X46.6231 Y12.2146
G01 X46.6693 Y12.3539
G01 X46.6777 Y12.4365
G01 X46.6779 Y12.6459
G01 X46.6805 Y12.6762
G01 X46.6949 Y12.7642
G01 X46.6885 Y12.8831
G01 X46.6886 Y12.8932
G01 X46.6899 Y12.9193
G01 X46.6913 Y12.9326
G01 X46.7107 Y13.0546
G01 X46.6988 Y13.1800
G01 X46.6450 Y13.3294
G01 X46.6231 Y13.3954
G01 X46.5466 Y13.5195
G01 X46.4435 Y13.6226
G01 X46.3194 Y13.6991
G01 X46.1801 Y13.7453
G01 X46.0976 Y13.7537
G01 X45.0114 Y13.7537
G01 X45.0023 Y13.7540
G01 X44.9933 Y13.7550
G01 X44.9844 Y13.7566
G01 X44.9757 Y13.7588
G01 X44.9026 Y13.7804
G01 X44.8881 Y13.7865
G01 X44.8745 Y13.7944
G01 X44.8643 Y13.8018
G01 X44.8528 Y13.8125
G01 X44.8007 Y13.8724
G01 X44.7915 Y13.8851
G01 X44.7853 Y13.8961
G01 X44.7802 Y13.9076
G01 X44.7755 Y13.9226
G01 X44.7731 Y13.9349
G01 X44.7631 Y14.0041
G01 X44.7621 Y14.0135
G01 X44.7618 Y14.0229
G01 X44.7625 Y14.0355
G01 X44.7645 Y14.0479
G01 X44.7677 Y14.0601
G01 X44.7720 Y14.0719
G01 X44.8051 Y14.1440
G01 X44.8131 Y14.1575
G01 X44.8228 Y14.1698
G01 X44.8340 Y14.1818
G01 X45.6507 Y14.9985
G01 X45.6637 Y15.0106
G01 X45.6968 Y15.0387
G01 X45.7409 Y15.0967
G01 X45.7883 Y15.1556
G01 X45.7927 Y15.1627
G01 X45.8246 Y15.2316
G01 X45.8595 Y15.3022
G01 X45.8623 Y15.3101
G01 X45.8794 Y15.3873
G01 X45.8976 Y15.4607
G01 X45.8987 Y15.4690
G01 X45.8988 Y15.5481
G01 X45.9008 Y15.6237
G01 X45.8990 Y15.6426
G01 X45.8987 Y15.6517
G01 X45.8987 Y16.2223
G01 X45.9000 Y16.2373
G01 X45.9030 Y16.2521
G01 X45.9235 Y16.3220
G01 X45.9265 Y16.3310
G01 X45.9315 Y16.3425
G01 X45.9377 Y16.3535
G01 X45.9449 Y16.3638
G01 X45.9531 Y16.3734
G01 X45.9621 Y16.3821
G01 X46.0150 Y16.4279
G01 X46.0274 Y16.4374
G01 X46.0409 Y16.4453
G01 X46.0576 Y16.4526
G01 X46.1809 Y16.4986
G01 X46.2670 Y16.5630
G01 X46.3314 Y16.6491
G01 X46.3697 Y16.7519
G01 X46.3737 Y16.7889
G01 X46.3737 Y18.5711
G01 X46.3697 Y18.6081
G01 X46.3314 Y18.7109
G01 X46.2670 Y18.7970
G01 X46.1809 Y18.8614
G01 X46.0781 Y18.8997
G01 X46.0411 Y18.9037
G01 X44.2589 Y18.9037
G01 X44.2219 Y18.8997
G01 X44.1191 Y18.8614
G01 X44.0330 Y18.7970
G01 X43.9686 Y18.7109
G01 X43.9303 Y18.6081
G01 X43.9263 Y18.5711
G01 X43.9263 Y16.7889
G01 X43.9303 Y16.7519
G01 X43.9686 Y16.6491
G01 X44.0330 Y16.5630
G01 X44.1191 Y16.4986
G01 X44.2410 Y16.4531
G01 X44.2519 Y16.4481
G01 X44.2624 Y16.4421
G01 X44.2698 Y16.4369
G01 X44.3258 Y16.3951
G01 X44.3354 Y16.3870
G01 X44.3443 Y16.3781
G01 X44.3522 Y16.3683
G01 X44.3575 Y16.3604
G01 X44.3636 Y16.3494
G01 X44.3686 Y16.3379
G01 X44.3930 Y16.2724
G01 X44.3959 Y16.2635
G01 X44.3982 Y16.2544
G01 X44.4002 Y16.2420
G01 X44.4013 Y16.2192
G01 X44.4013 Y15.9706
G01 X44.4007 Y15.9586
G01 X44.3990 Y15.9466
G01 X44.3962 Y15.9349
G01 X44.3756 Y15.8649
G01 X44.3724 Y15.8561
G01 X44.3686 Y15.8476
G01 X44.3625 Y15.8367
G01 X44.3555 Y15.8265
G01 X44.3347 Y15.8008
G01 X44.3278 Y15.7933
G01 X42.6417 Y14.1072
G01 X42.6304 Y14.0971
G01 X42.6180 Y14.0885
G01 X42.5487 Y14.0506
G01 X42.5345 Y14.0443
G01 X42.5226 Y14.0406
G01 X42.5105 Y14.0381
G01 X42.4712 Y14.0339
G01 X41.5123 Y14.0337
G01 X41.4753 Y14.0297
G01 X41.3724 Y13.9914
G01 X41.2864 Y13.9270
G01 X41.2220 Y13.8409
G01 X41.1837 Y13.7381
G01 X41.1797 Y13.7011
G01 X41.1796 Y12.7460
G01 X41.1784 Y12.7310
G01 X41.1761 Y12.7191
G01 X41.1530 Y12.6403
G01 X41.1470 Y12.6260
G01 X41.1392 Y12.6125
G01 X41.1319 Y12.6024
G01 X41.1153 Y12.5818
G01 X41.1086 Y12.5741
G01 X40.6567 Y12.1222
G01 X40.6478 Y12.1140
G01 X40.6381 Y12.1068
G01 X40.6278 Y12.1005
G01 X40.5665 Y12.0670
G01 X40.5581 Y12.0629
G01 X40.5495 Y12.0593
G01 X40.5376 Y12.0556
G01 X40.5255 Y12.0531
G01 X40.4929 Y12.0494
G01 X40.4828 Y12.0487
G01 X36.6902 Y12.0488
G01 X36.6752 Y12.0505
G01 X36.6634 Y12.0530
G01 X36.5935 Y12.0735
G01 X36.5816 Y12.0777
G01 X36.5702 Y12.0830
G01 X36.5567 Y12.0911
G01 X36.5468 Y12.0988
G01 X36.5355 Y12.1098
G01 X36.4836 Y12.1698
G01 X36.4781 Y12.1775
G01 X36.4731 Y12.1855
G01 X36.4662 Y12.1996
G01 X36.4620 Y12.2115
G01 X36.4584 Y12.2268
G01 X36.4476 Y12.3022
G01 X36.4467 Y12.3179
G01 X36.4474 Y12.3305
G01 X36.4487 Y12.3399
G01 X36.4508 Y12.3491
G01 X36.4546 Y12.3611
G01 X36.4582 Y12.3698
G01 X36.4872 Y12.4334
G01 X36.4914 Y12.4418
G01 X36.4962 Y12.4498
G01 X36.5056 Y12.4624
G01 X36.5189 Y12.4768
G01 X36.6186 Y12.5765
G01 X36.6951 Y12.7006
G01 X36.7413 Y12.8399
G01 X36.7497 Y12.9225
G01 X36.7497 Y14.3095
G01 X36.7413 Y14.3921
G01 X36.6951 Y14.5314
G01 X36.6186 Y14.6555
G01 X36.5155 Y14.7586
G01 X36.3914 Y14.8351
G01 X36.2521 Y14.8813
G01 X36.1696 Y14.8897
G01 X35.6900 Y14.8897
G01 X35.6810 Y14.8900
G01 X35.6690 Y14.8915
G01 X35.6572 Y14.8940
G01 X35.5843 Y14.9154
G01 X35.5755 Y14.9186
G01 X35.5670 Y14.9224
G01 X35.5588 Y14.9268
G01 X35.5509 Y14.9319
G01 X35.5434 Y14.9375
G01 X35.5228 Y14.9541
G01 X35.5127 Y14.9632
G01 X34.5400 Y15.9358
G01 X34.5340 Y15.9426
G01 X34.5285 Y15.9498
G01 X34.5205 Y15.9626
G01 X34.4842 Y16.0294
G01 X34.4793 Y16.0409
G01 X34.4756 Y16.0527
G01 X34.4736 Y16.0619
G01 X34.4723 Y16.0711
G01 X34.4691 Y16.1008
G01 X34.4687 Y16.1110
G01 X34.4687 Y16.7303
G01 X34.4700 Y16.7453
G01 X34.4730 Y16.7601
G01 X34.4935 Y16.8300
G01 X34.4965 Y16.8390
G01 X34.5015 Y16.8505
G01 X34.5077 Y16.8615
G01 X34.5149 Y16.8718
G01 X34.5231 Y16.8814
G01 X34.5321 Y16.8901
G01 X34.5850 Y16.9359
G01 X34.5974 Y16.9454
G01 X34.6109 Y16.9533
G01 X34.6276 Y16.9606
G01 X34.7509 Y17.0066
G01 X34.8370 Y17.0710
G01 X34.9014 Y17.1571
G01 X34.9397 Y17.2599
G01 X34.9437 Y17.2969
G01 X34.9437 Y19.0791
G01 X34.9397 Y19.1161
G01 X34.9014 Y19.2189
G01 X34.8370 Y19.3050
G01 X34.7509 Y19.3694
G01 X34.6481 Y19.4077
G01 X34.6111 Y19.4117
G01 X32.8289 Y19.4117
G01 X32.7919 Y19.4077
G01 X32.6891 Y19.3694
G01 X32.6030 Y19.3050
G01 X32.5386 Y19.2189
G01 X32.5003 Y19.1161
G01 X32.4963 Y19.0791
G01 X32.4963 Y17.2969
G01 X32.5003 Y17.2599
G01 X32.5386 Y17.1571
G01 X32.6030 Y17.0710
G01 X32.6891 Y17.0066
G01 X32.8110 Y16.9611
G01 X32.8219 Y16.9561
G01 X32.8324 Y16.9501
G01 X32.8398 Y16.9449
G01 X32.8958 Y16.9031
G01 X32.9077 Y16.8929
G01 X32.9164 Y16.8837
G01 X32.9240 Y16.8737
G01 X32.9307 Y16.8630
G01 X32.9362 Y16.8517
G01 X32.9650 Y16.7745
G01 X32.9688 Y16.7593
G01 X32.9702 Y16.7500
G01 X32.9709 Y16.7406
G01 X32.9713 Y16.7272
G01 X32.9713 Y15.7376
G01 X32.9707 Y15.7198
G01 X32.9672 Y15.6766
G01 X32.9770 Y15.6043
G01 X32.9851 Y15.5292
G01 X32.9870 Y15.5211
G01 X33.0143 Y15.4467
G01 X33.0384 Y15.3752
G01 X33.0420 Y15.3676
G01 X33.0846 Y15.3008
G01 X33.1235 Y15.2362
G01 X33.1286 Y15.2296
G01 X33.1846 Y15.1735
G01 X33.2365 Y15.1187
G01 X33.2512 Y15.1065
G01 X33.2578 Y15.1004
G01 X33.5677 Y14.7905
G01 X33.5758 Y14.7816
G01 X33.5830 Y14.7719
G01 X33.5893 Y14.7616
G01 X33.6257 Y14.6947
G01 X33.6316 Y14.6801
G01 X33.6357 Y14.6649
G01 X33.6379 Y14.6494
G01 X33.6382 Y14.6336
G01 X33.6330 Y14.5608
G01 X33.6315 Y14.5483
G01 X33.6287 Y14.5360
G01 X33.6236 Y14.5211
G01 X33.6166 Y14.5070
G01 X33.6099 Y14.4964
G01 X33.5661 Y14.4379
G01 X33.5604 Y14.4308
G01 X33.5542 Y14.4241
G01 X33.5451 Y14.4159
G01 X33.5379 Y14.4104
G01 X33.5302 Y14.4054
G01 X33.5222 Y14.4009
G01 X33.5140 Y14.3971
G01 X33.4502 Y14.3719
G01 X33.4386 Y14.3680
G01 X33.4296 Y14.3658
G01 X33.4205 Y14.3642
G01 X33.3041 Y14.3515
G01 X33.1498 Y14.2995
G01 X33.0102 Y14.2155
G01 X32.8920 Y14.1036
G01 X32.8006 Y13.9688
G01 X32.7403 Y13.8175
G01 X32.7232 Y13.7134
G01 X32.7212 Y13.7046
G01 X32.7186 Y13.6959
G01 X32.7129 Y13.6819
G01 X32.6826 Y13.6190
G01 X32.6784 Y13.6109
G01 X32.6736 Y13.6032
G01 X32.6644 Y13.5911
G01 X32.6536 Y13.5796
G01 X32.2990 Y13.2250
G01 X32.2900 Y13.2168
G01 X32.2804 Y13.2096
G01 X32.2701 Y13.2033
G01 X32.2088 Y13.1698
G01 X32.1947 Y13.1632
G01 X32.1829 Y13.1592
G01 X32.1708 Y13.1564
G01 X32.1615 Y13.1551
G01 X32.1352 Y13.1522
G01 X32.1216 Y13.1515
G01 X31.6723 Y13.1515
G01 X31.6353 Y13.1475
G01 X31.5325 Y13.1092
G01 X31.4464 Y13.0448
G01 X31.3820 Y12.9587
G01 X31.3437 Y12.8559
G01 X31.3397 Y12.8189
G01 X31.3397 Y12.3811
G01 X31.3473 Y12.3097
G01 X31.3478 Y12.2972
G01 X31.3473 Y12.2879
G01 X31.3497 Y12.2486
G01 X31.3488 Y12.2336
G01 X31.3468 Y12.2217
G01 X31.3443 Y12.2120
G01 X31.3397 Y12.1689
G01 X31.3397 Y11.7311
G01 X31.3473 Y11.6597
G01 X31.3478 Y11.6472
G01 X31.3473 Y11.6379
G01 X31.3497 Y11.5986
G01 X31.3494 Y11.5896
G01 X31.3485 Y11.5806
G01 X31.3468 Y11.5717
G01 X31.3443 Y11.5620
G00 Z2.0000
G00 X31.4915 Y11.6250
G01 F60.00
G01 Z-0.1000
G01 F120.00
G01 X31.4884 Y11.6297
G01 X31.4882 Y11.6301
G01 X31.4886 Y11.6205
G01 X31.4915 Y11.6250
G00 Z2.0000
G00 X31.5866 Y11.4778
G01 F60.00
G01 Z-0.1000
G01 F120.00
G01 X31.5866 Y11.1222
G01 X31.5872 Y11.1098
G01 X31.5885 Y11.1005
G01 X31.5904 Y11.0914
G01 X31.5930 Y11.0824
G01 X31.5988 Y11.0680
G01 X31.6031 Y11.0597
G01 X31.6080 Y11.0518
G01 X31.6174 Y11.0394
G01 X31.6237 Y11.0325
G01 X31.6306 Y11.0262
G01 X31.6430 Y11.0168
G01 X31.6564 Y11.0089
G01 X31.6649 Y11.0051
G01 X31.6736 Y11.0018
G01 X31.6826 Y10.9992
G01 X31.6917 Y10.9973
G01 X31.7041 Y10.9957
G01 X31.7134 Y10.9954
G01 X33.1866 Y10.9954
G01 X33.1990 Y10.9960
G01 X33.2126 Y10.9981
G01 X33.3195 Y10.9981
G01 X33.3340 Y10.9792
G01 X33.3629 Y10.9473
G01 X33.3695 Y10.9407
G01 X33.3992 Y10.9140
G01 X33.4064 Y10.9081
G01 X33.4411 Y10.8826
G01 X33.4806 Y10.8588
G01 X33.4889 Y10.8545
G01 X33.5279 Y10.8362
G01 X33.5743 Y10.8196
G01 X33.6221 Y10.8077
G01 X33.6646 Y10.8012
G01 X33.6739 Y10.8002
G01 X33.7200 Y10.7980
G01 X40.8996 Y10.7982
G01 X40.9426 Y10.8004
G01 X40.9913 Y10.8077
G01 X41.0391 Y10.8196
G01 X41.0797 Y10.8340
G01 X41.0912 Y10.8387
G01 X41.1272 Y10.8559
G01 X41.1354 Y10.8604
G01 X41.1723 Y10.8826
G01 X41.2069 Y10.9081
G01 X41.2142 Y10.9140
G01 X41.2483 Y10.9450
G01 X42.2365 Y11.9332
G01 X43.3534 Y11.9332
G01 X43.3627 Y11.9335
G01 X43.3720 Y11.9346
G01 X43.3812 Y11.9363
G01 X43.3902 Y11.9387
G01 X43.3990 Y11.9417
G01 X43.4076 Y11.9454
G01 X43.4212 Y11.9529
G01 X43.4338 Y11.9620
G01 X43.4452 Y11.9726
G01 X43.4514 Y11.9796
G01 X43.4570 Y11.9870
G01 X43.4652 Y12.0002
G01 X43.4717 Y12.0144
G01 X43.4764 Y12.0292
G01 X43.4788 Y12.0414
G01 X43.4801 Y12.0569
G01 X43.4802 Y12.3030
G01 X44.4214 Y12.3030
G01 X44.4407 Y12.2707
G01 X44.4589 Y12.2459
G01 X44.4668 Y12.2362
G01 X44.4876 Y12.2136
G01 X44.5102 Y12.1928
G01 X44.5199 Y12.1849
G01 X44.5447 Y12.1667
G01 X44.5710 Y12.1508
G01 X44.5819 Y12.1449
G01 X44.6098 Y12.1319
G01 X44.6387 Y12.1214
G01 X44.6506 Y12.1178
G01 X44.6805 Y12.1104
G01 X44.7109 Y12.1058
G01 X44.7233 Y12.1046
G01 X44.7540 Y12.1032
G01 X46.0571 Y12.1032
G01 X46.0847 Y12.1046
G01 X46.0940 Y12.1054
G01 X46.1245 Y12.1099
G01 X46.1336 Y12.1118
G01 X46.1634 Y12.1194
G01 X46.1924 Y12.1296
G01 X46.2011 Y12.1331
G01 X46.2289 Y12.1463
G01 X46.2370 Y12.1508
G01 X46.2633 Y12.1667
G01 X46.2930 Y12.1887
G01 X46.3204 Y12.2136
G01 X46.3412 Y12.2362
G01 X46.3491 Y12.2459
G01 X46.3690 Y12.2733
G01 X46.3848 Y12.2997
G01 X46.3891 Y12.3079
G01 X46.4009 Y12.3329
G01 X46.4044 Y12.3416
G01 X46.4146 Y12.3706
G01 X46.4222 Y12.4004
G01 X46.4241 Y12.4095
G01 X46.4286 Y12.4400
G01 X46.4294 Y12.4493
G01 X46.4308 Y12.4769
G01 X46.4308 Y12.6889
G01 X46.4358 Y12.7101
G01 X46.4421 Y12.7527
G01 X46.4429 Y12.7620
G01 X46.4448 Y12.8019
G01 X46.4447 Y12.8112
G01 X46.4429 Y12.8480
G01 X46.4421 Y12.8573
G01 X46.4358 Y12.8999
G01 X46.4308 Y12.9211
G01 X46.4308 Y12.9525
G01 X46.4397 Y12.9711
G01 X46.4432 Y12.9798
G01 X46.4493 Y12.9973
G01 X46.4539 Y13.0152
G01 X46.4558 Y13.0243
G01 X46.4589 Y13.0457
G01 X46.4599 Y13.0642
G01 X46.4601 Y13.0735
G01 X46.4589 Y13.0951
G01 X46.4558 Y13.1165
G01 X46.4509 Y13.1375
G01 X46.4473 Y13.1494
G01 X46.4421 Y13.1639
G01 X46.4384 Y13.1724
G01 X46.4304 Y13.1891
G01 X46.4243 Y13.1996
G01 X46.4222 Y13.2096
G01 X46.4146 Y13.2394
G01 X46.4021 Y13.2742
G01 X46.3863 Y13.3076
G01 X46.3690 Y13.3367
G01 X46.3491 Y13.3641
G01 X46.3412 Y13.3738
G01 X46.3204 Y13.3964
G01 X46.2930 Y13.4213
G01 X46.2684 Y13.4397
G01 X46.2581 Y13.4466
G01 X46.2316 Y13.4623
G01 X46.2011 Y13.4769
G01 X46.1924 Y13.4804
G01 X46.1634 Y13.4906
G01 X46.1275 Y13.4996
G01 X46.0909 Y13.5050
G01 X46.0571 Y13.5068
G01 X44.7540 Y13.5068
G01 X44.7202 Y13.5053
G01 X44.7109 Y13.5042
G01 X44.6805 Y13.4996
G01 X44.6506 Y13.4922
G01 X44.6387 Y13.4886
G01 X44.6098 Y13.4781
G01 X44.5819 Y13.4651
G01 X44.5710 Y13.4592
G01 X44.5447 Y13.4433
G01 X44.5199 Y13.4251
G01 X44.5102 Y13.4172
G01 X44.4876 Y13.3964
G01 X44.4668 Y13.3738
G01 X44.4589 Y13.3641
G01 X44.4407 Y13.3393
G01 X44.4214 Y13.3070
G01 X43.6103 Y13.3070
G01 X45.5050 Y15.2017
G01 X45.5380 Y15.2382
G01 X45.5638 Y15.2726
G01 X45.5707 Y15.2830
G01 X45.5912 Y15.3173
G01 X45.5955 Y15.3255
G01 X45.6125 Y15.3617
G01 X45.6160 Y15.3703
G01 X45.6304 Y15.4109
G01 X45.6410 Y15.4526
G01 X45.6434 Y15.4648
G01 X45.6492 Y15.5043
G01 X45.6500 Y15.5136
G01 X45.6518 Y15.5504
G01 X45.6520 Y16.7032
G01 X46.0000 Y16.7032
G01 X46.0124 Y16.7038
G01 X46.0278 Y16.7063
G01 X46.0398 Y16.7096
G01 X46.0485 Y16.7129
G01 X46.0570 Y16.7167
G01 X46.0652 Y16.7212
G01 X46.0730 Y16.7263
G01 X46.0804 Y16.7320
G01 X46.0874 Y16.7382
G01 X46.0940 Y16.7448
G01 X46.1000 Y16.7520
G01 X46.1054 Y16.7596
G01 X46.1103 Y16.7675
G01 X46.1146 Y16.7758
G01 X46.1183 Y16.7844
G01 X46.1213 Y16.7932
G01 X46.1237 Y16.8022
G01 X46.1254 Y16.8114
G01 X46.1265 Y16.8207
G01 X46.1268 Y16.8300
G01 X46.1268 Y18.5300
G01 X46.1258 Y18.5455
G01 X46.1237 Y18.5578
G01 X46.1194 Y18.5727
G01 X46.1133 Y18.5870
G01 X46.1088 Y18.5952
G01 X46.1037 Y18.6030
G01 X46.0980 Y18.6104
G01 X46.0918 Y18.6174
G01 X46.0852 Y18.6240
G01 X46.0780 Y18.6300
G01 X46.0652 Y18.6388
G01 X46.0514 Y18.6459
G01 X46.0427 Y18.6494
G01 X46.0338 Y18.6522
G01 X46.0247 Y18.6544
G01 X46.0155 Y18.6558
G01 X46.0000 Y18.6568
G01 X44.2969 Y18.6568
G01 X44.2814 Y18.6554
G01 X44.2692 Y18.6530
G01 X44.2544 Y18.6483
G01 X44.2430 Y18.6433
G01 X44.2296 Y18.6354
G01 X44.2196 Y18.6280
G01 X44.2082 Y18.6174
G01 X44.2000 Y18.6080
G01 X44.1946 Y18.6004
G01 X44.1897 Y18.5925
G01 X44.1841 Y18.5814
G01 X44.1806 Y18.5727
G01 X44.1770 Y18.5608
G01 X44.1751 Y18.5517
G01 X44.1738 Y18.5424
G01 X44.1732 Y18.5331
G01 X44.1732 Y16.8300
G01 X44.1735 Y16.8207
G01 X44.1746 Y16.8114
G01 X44.1763 Y16.8022
G01 X44.1796 Y16.7902
G01 X44.1829 Y16.7815
G01 X44.1867 Y16.7730
G01 X44.1912 Y16.7648
G01 X44.1963 Y16.7570
G01 X44.2020 Y16.7496
G01 X44.2082 Y16.7426
G01 X44.2148 Y16.7360
G01 X44.2220 Y16.7300
G01 X44.2296 Y16.7246
G01 X44.2375 Y16.7197
G01 X44.2458 Y16.7154
G01 X44.2544 Y16.7117
G01 X44.2632 Y16.7087
G01 X44.2722 Y16.7063
G01 X44.2876 Y16.7038
G01 X44.3000 Y16.7032
G01 X44.6480 Y16.7032
G01 X44.6480 Y15.7646
G01 X42.6703 Y13.7868
G01 X41.5503 Y13.7868
G01 X41.5379 Y13.7858
G01 X41.5256 Y13.7837
G01 X41.5136 Y13.7804
G01 X41.5020 Y13.7759
G01 X41.4909 Y13.7703
G01 X41.4829 Y13.7654
G01 X41.4729 Y13.7580
G01 X41.4637 Y13.7497
G01 X41.4554 Y13.7404
G01 X41.4497 Y13.7330
G01 X41.4430 Y13.7225
G01 X41.4375 Y13.7114
G01 X41.4330 Y13.6998
G01 X41.4297 Y13.6878
G01 X41.4275 Y13.6755
G01 X41.4266 Y13.6631
G01 X41.4266 Y12.5431
G01 X40.6854 Y11.8020
G01 X33.7169 Y11.8019
G01 X33.6708 Y11.7996
G01 X33.6282 Y11.7934
G01 X33.6160 Y11.7910
G01 X33.5743 Y11.7804
G01 X33.5337 Y11.7660
G01 X33.5222 Y11.7613
G01 X33.4861 Y11.7441
G01 X33.4779 Y11.7396
G01 X33.4411 Y11.7174
G01 X33.4064 Y11.6919
G01 X33.3992 Y11.6860
G01 X33.3695 Y11.6593
G01 X33.3629 Y11.6527
G01 X33.3340 Y11.6208
G01 X33.3195 Y11.6019
G01 X33.2126 Y11.6019
G01 X33.1990 Y11.6040
G01 X33.1866 Y11.6046
G01 X31.7134 Y11.6046
G01 X31.7041 Y11.6043
G01 X31.6948 Y11.6032
G01 X31.6826 Y11.6008
G01 X31.6707 Y11.5972
G01 X31.6592 Y11.5924
G01 X31.6482 Y11.5866
G01 X31.6404 Y11.5815
G01 X31.6306 Y11.5738
G01 X31.6216 Y11.5652
G01 X31.6134 Y11.5558
G01 X31.6063 Y11.5456
G01 X31.6016 Y11.5376
G01 X31.5963 Y11.5263
G01 X31.5921 Y11.5146
G01 X31.5890 Y11.5025
G01 X31.5872 Y11.4902
G01 X31.5866 Y11.4778
G00 Z2.0000
G00 X31.4886 Y10.9705
G01 F60.00
G01 Z-0.1000
G01 F120.00
G01 X31.4915 Y10.9750
G01 X31.4882 Y10.9801
G01 X31.4886 Y10.9705
G00 Z2.0000
G00 X31.5866 Y10.8278
G01 F60.00
G01 Z-0.1000
G01 F120.00
G01 X31.5866 Y10.4722
G01 X31.5872 Y10.4598
G01 X31.5890 Y10.4475
G01 X31.5912 Y10.4384
G01 X31.5940 Y10.4295
G01 X31.5975 Y10.4208
G01 X31.6016 Y10.4124
G01 X31.6063 Y10.4044
G01 X31.6116 Y10.3967
G01 X31.6174 Y10.3894
G01 X31.6237 Y10.3825
G01 X31.6306 Y10.3762
G01 X31.6379 Y10.3704
G01 X31.6509 Y10.3619
G01 X31.6592 Y10.3576
G01 X31.6678 Y10.3539
G01 X31.6766 Y10.3509
G01 X31.6856 Y10.3485
G01 X31.6979 Y10.3464
G01 X31.7134 Y10.3454
G01 X33.1928 Y10.3456
G01 X33.2052 Y10.3468
G01 X33.2144 Y10.3485
G01 X33.2234 Y10.3509
G01 X33.2322 Y10.3539
G01 X33.2408 Y10.3576
G01 X33.2491 Y10.3619
G01 X33.2596 Y10.3685
G01 X33.2670 Y10.3742
G01 X33.2763 Y10.3825
G01 X33.2826 Y10.3894
G01 X33.2884 Y10.3967
G01 X33.2954 Y10.4070
G01 X33.2999 Y10.4152
G01 X33.3037 Y10.4237
G01 X33.3079 Y10.4354
G01 X33.3103 Y10.4444
G01 X33.3124 Y10.4567
G01 X33.3134 Y10.4722
G01 X33.3134 Y10.8278
G01 X33.3128 Y10.8402
G01 X33.3110 Y10.8525
G01 X33.3088 Y10.8616
G01 X33.3060 Y10.8705
G01 X33.3025 Y10.8792
G01 X33.2984 Y10.8876
G01 X33.2937 Y10.8956
G01 X33.2884 Y10.9033
G01 X33.2826 Y10.9106
G01 X33.2763 Y10.9175
G01 X33.2694 Y10.9238
G01 X33.2621 Y10.9296
G01 X33.2544 Y10.9349
G01 X33.2464 Y10.9396
G01 X33.2322 Y10.9461
G01 X33.2234 Y10.9491
G01 X33.2144 Y10.9515
G01 X33.1990 Y10.9540
G01 X33.1866 Y10.9546
G01 X31.7134 Y10.9546
G01 X31.7041 Y10.9543
G01 X31.6948 Y10.9532
G01 X31.6826 Y10.9508
G01 X31.6707 Y10.9472
G01 X31.6592 Y10.9424
G01 X31.6482 Y10.9366
G01 X31.6404 Y10.9315
G01 X31.6306 Y10.9238
G01 X31.6216 Y10.9152
G01 X31.6134 Y10.9058
G01 X31.6063 Y10.8956
G01 X31.6016 Y10.8876
G01 X31.5963 Y10.8763
G01 X31.5921 Y10.8646
G01 X31.5890 Y10.8525
G01 X31.5872 Y10.8402
G01 X31.5866 Y10.8278
G00 Z2.0000
G00 X31.5866 Y12.1278
G01 F60.00
G01 Z-0.1000
G01 F120.00
G01 X31.5866 Y11.7722
G01 X31.5872 Y11.7598
G01 X31.5890 Y11.7475
G01 X31.5912 Y11.7384
G01 X31.5940 Y11.7295
G01 X31.5975 Y11.7208
G01 X31.6016 Y11.7124
G01 X31.6063 Y11.7044
G01 X31.6116 Y11.6967
G01 X31.6174 Y11.6894
G01 X31.6237 Y11.6825
G01 X31.6306 Y11.6762
G01 X31.6379 Y11.6704
G01 X31.6509 Y11.6619
G01 X31.6592 Y11.6576
G01 X31.6678 Y11.6539
G01 X31.6766 Y11.6509
G01 X31.6856 Y11.6485
G01 X31.6979 Y11.6464
G01 X31.7134 Y11.6454
G01 X33.1928 Y11.6456
G01 X33.2052 Y11.6468
G01 X33.2144 Y11.6485
G01 X33.2234 Y11.6509
G01 X33.2322 Y11.6539
G01 X33.2408 Y11.6576
G01 X33.2491 Y11.6619
G01 X33.2596 Y11.6685
G01 X33.2670 Y11.6742
G01 X33.2763 Y11.6825
G01 X33.2826 Y11.6894
G01 X33.2884 Y11.6967
G01 X33.2954 Y11.7070
G01 X33.2999 Y11.7152
G01 X33.3037 Y11.7237
G01 X33.3079 Y11.7354
G01 X33.3103 Y11.7444
G01 X33.3124 Y11.7567
G01 X33.3134 Y11.7722
G01 X33.3134 Y12.1278
G01 X33.3128 Y12.1402
G01 X33.3110 Y12.1525
G01 X33.3088 Y12.1616
G01 X33.3060 Y12.1705
G01 X33.3025 Y12.1792
G01 X33.2984 Y12.1876
G01 X33.2937 Y12.1956
G01 X33.2884 Y12.2033
G01 X33.2826 Y12.2106
G01 X33.2763 Y12.2175
G01 X33.2694 Y12.2238
G01 X33.2621 Y12.2296
G01 X33.2544 Y12.2349
G01 X33.2464 Y12.2396
G01 X33.2322 Y12.2461
G01 X33.2234 Y12.2491
G01 X33.2144 Y12.2515
G01 X33.1990 Y12.2540
G01 X33.1866 Y12.2546
G01 X31.7134 Y12.2546
G01 X31.7041 Y12.2543
G01 X31.6948 Y12.2532
G01 X31.6826 Y12.2508
G01 X31.6707 Y12.2472
G01 X31.6592 Y12.2424
G01 X31.6482 Y12.2366
G01 X31.6404 Y12.2315
G01 X31.6306 Y12.2238
G01 X31.6216 Y12.2152
G01 X31.6134 Y12.2058
G01 X31.6063 Y12.1956
G01 X31.6016 Y12.1876
G01 X31.5963 Y12.1763
G01 X31.5921 Y12.1646
G01 X31.5890 Y12.1525
G01 X31.5872 Y12.1402
G01 X31.5866 Y12.1278
G00 Z2.0000
G00 X31.4886 Y12.2705
G01 F60.00
G01 Z-0.1000
G01 F120.00
G01 X31.4915 Y12.2750
G01 X31.4882 Y12.2801
G01 X31.4886 Y12.2705
G00 Z2.0000
G00 X31.5866 Y12.7778
G01 F60.00
G01 Z-0.1000
G01 F120.00
G01 X31.5866 Y12.4222
G01 X31.5872 Y12.4098
G01 X31.5890 Y12.3975
G01 X31.5912 Y12.3884
G01 X31.5940 Y12.3795
G01 X31.6001 Y12.3652
G01 X31.6080 Y12.3518
G01 X31.6134 Y12.3442
G01 X31.6194 Y12.3370
G01 X31.6260 Y12.3304
G01 X31.6330 Y12.3242
G01 X31.6456 Y12.3151
G01 X31.6536 Y12.3104
G01 X31.6620 Y12.3063
G01 X31.6766 Y12.3009
G01 X31.6856 Y12.2985
G01 X31.6948 Y12.2968
G01 X31.7041 Y12.2957
G01 X31.7134 Y12.2954
G01 X33.1866 Y12.2954
G01 X33.1959 Y12.2957
G01 X33.2083 Y12.2973
G01 X33.2204 Y12.3000
G01 X33.2293 Y12.3028
G01 X33.2380 Y12.3063
G01 X33.2491 Y12.3119
G01 X33.2570 Y12.3168
G01 X33.2646 Y12.3222
G01 X33.2718 Y12.3282
G01 X33.2806 Y12.3370
G01 X33.2866 Y12.3442
G01 X33.2920 Y12.3518
G01 X33.2969 Y12.3597
G01 X33.3025 Y12.3708
G01 X33.3070 Y12.3824
G01 X33.3096 Y12.3914
G01 X33.3124 Y12.4067
G01 X33.3134 Y12.4222
G01 X33.3134 Y12.7778
G01 X33.3128 Y12.7902
G01 X33.3110 Y12.8025
G01 X33.3079 Y12.8146
G01 X33.3037 Y12.8263
G01 X33.2984 Y12.8376
G01 X33.2903 Y12.8508
G01 X33.2826 Y12.8606
G01 X33.2740 Y12.8696
G01 X33.2646 Y12.8778
G01 X33.2544 Y12.8849
G01 X33.2436 Y12.8911
G01 X33.2322 Y12.8961
G01 X33.2204 Y12.9000
G01 X33.2083 Y12.9027
G01 X33.1959 Y12.9043
G01 X33.1815 Y12.9046
G01 X33.3963 Y13.1193
G01 X33.4199 Y13.1162
G01 X33.4660 Y13.1140
G01 X35.0992 Y13.1140
G01 X35.0992 Y12.9629
G01 X35.1010 Y12.9291
G01 X35.1059 Y12.8955
G01 X35.1078 Y12.8864
G01 X35.1154 Y12.8566
G01 X35.1279 Y12.8218
G01 X35.1437 Y12.7884
G01 X35.1610 Y12.7593
G01 X35.1663 Y12.7516
G01 X35.1847 Y12.7270
G01 X35.2096 Y12.6996
G01 X35.2370 Y12.6747
G01 X35.2616 Y12.6563
G01 X35.2719 Y12.6494
G01 X35.2984 Y12.6337
G01 X35.3261 Y12.6204
G01 X35.3347 Y12.6167
G01 X35.3607 Y12.6074
G01 X35.3726 Y12.6038
G01 X35.4025 Y12.5964
G01 X35.4391 Y12.5910
G01 X35.4760 Y12.5892
G01 X36.1260 Y12.5892
G01 X36.1629 Y12.5910
G01 X36.1995 Y12.5964
G01 X36.2354 Y12.6054
G01 X36.2644 Y12.6156
G01 X36.2759 Y12.6204
G01 X36.3036 Y12.6337
G01 X36.3301 Y12.6494
G01 X36.3379 Y12.6545
G01 X36.3601 Y12.6709
G01 X36.3698 Y12.6788
G01 X36.3924 Y12.6996
G01 X36.4173 Y12.7270
G01 X36.4393 Y12.7567
G01 X36.4552 Y12.7830
G01 X36.4611 Y12.7939
G01 X36.4729 Y12.8189
G01 X36.4764 Y12.8276
G01 X36.4866 Y12.8566
G01 X36.4942 Y12.8864
G01 X36.4961 Y12.8955
G01 X36.5006 Y12.9260
G01 X36.5014 Y12.9353
G01 X36.5028 Y12.9629
G01 X36.5028 Y14.2691
G01 X36.5010 Y14.3029
G01 X36.4966 Y14.3334
G01 X36.4942 Y14.3456
G01 X36.4866 Y14.3754
G01 X36.4741 Y14.4102
G01 X36.4611 Y14.4381
G01 X36.4552 Y14.4490
G01 X36.4375 Y14.4779
G01 X36.4173 Y14.5050
G01 X36.3924 Y14.5324
G01 X36.3650 Y14.5573
G01 X36.3353 Y14.5793
G01 X36.3036 Y14.5983
G01 X36.2702 Y14.6141
G01 X36.2354 Y14.6266
G01 X36.2056 Y14.6342
G01 X36.1965 Y14.6361
G01 X36.1629 Y14.6410
G01 X36.1260 Y14.6428
G01 X35.4841 Y14.6428
G01 X34.2220 Y15.9049
G01 X34.2220 Y17.2112
G01 X34.5700 Y17.2112
G01 X34.5824 Y17.2118
G01 X34.5978 Y17.2143
G01 X34.6098 Y17.2176
G01 X34.6185 Y17.2209
G01 X34.6270 Y17.2247
G01 X34.6352 Y17.2292
G01 X34.6430 Y17.2343
G01 X34.6504 Y17.2400
G01 X34.6574 Y17.2462
G01 X34.6640 Y17.2528
G01 X34.6700 Y17.2600
G01 X34.6754 Y17.2676
G01 X34.6818 Y17.2782
G01 X34.6859 Y17.2866
G01 X34.6894 Y17.2953
G01 X34.6922 Y17.3042
G01 X34.6944 Y17.3133
G01 X34.6958 Y17.3225
G01 X34.6968 Y17.3380
G01 X34.6966 Y19.0442
G01 X34.6949 Y19.0597
G01 X34.6930 Y19.0688
G01 X34.6904 Y19.0778
G01 X34.6846 Y19.0922
G01 X34.6803 Y19.1005
G01 X34.6754 Y19.1084
G01 X34.6700 Y19.1160
G01 X34.6640 Y19.1232
G01 X34.6528 Y19.1340
G01 X34.6404 Y19.1434
G01 X34.6325 Y19.1483
G01 X34.6242 Y19.1526
G01 X34.6098 Y19.1584
G01 X34.5978 Y19.1617
G01 X34.5855 Y19.1638
G01 X34.5700 Y19.1648
G01 X32.8638 Y19.1646
G01 X32.8514 Y19.1634
G01 X32.8422 Y19.1617
G01 X32.8302 Y19.1584
G01 X32.8186 Y19.1539
G01 X32.8075 Y19.1483
G01 X32.7970 Y19.1417
G01 X32.7872 Y19.1340
G01 X32.7782 Y19.1254
G01 X32.7700 Y19.1160
G01 X32.7629 Y19.1058
G01 X32.7567 Y19.0950
G01 X32.7517 Y19.0836
G01 X32.7478 Y19.0718
G01 X32.7451 Y19.0597
G01 X32.7438 Y19.0504
G01 X32.7432 Y19.0380
G01 X32.7432 Y17.3380
G01 X32.7435 Y17.3287
G01 X32.7446 Y17.3194
G01 X32.7463 Y17.3102
G01 X32.7496 Y17.2982
G01 X32.7529 Y17.2895
G01 X32.7567 Y17.2810
G01 X32.7612 Y17.2728
G01 X32.7663 Y17.2650
G01 X32.7720 Y17.2576
G01 X32.7782 Y17.2506
G01 X32.7848 Y17.2440
G01 X32.7920 Y17.2380
G01 X32.7996 Y17.2326
G01 X32.8075 Y17.2277
G01 X32.8158 Y17.2234
G01 X32.8244 Y17.2197
G01 X32.8332 Y17.2167
G01 X32.8422 Y17.2143
G01 X32.8576 Y17.2118
G01 X32.8700 Y17.2112
G01 X33.2180 Y17.2112
G01 X33.2181 Y15.6939
G01 X33.2204 Y15.6478
G01 X33.2277 Y15.5991
G01 X33.2396 Y15.5513
G01 X33.2551 Y15.5078
G01 X33.2587 Y15.4992
G01 X33.2773 Y15.4604
G01 X33.3026 Y15.4181
G01 X33.3320 Y15.3785
G01 X33.3629 Y15.3443
G01 X34.5891 Y14.1180
G01 X33.4629 Y14.1179
G01 X33.4168 Y14.1156
G01 X33.3681 Y14.1083
G01 X33.3203 Y14.0964
G01 X33.2797 Y14.0820
G01 X33.2710 Y14.0785
G01 X33.2294 Y14.0587
G01 X33.1924 Y14.0367
G01 X33.1820 Y14.0298
G01 X33.1500 Y14.0060
G01 X33.1428 Y14.0000
G01 X33.1110 Y13.9710
G01 X33.0780 Y13.9345
G01 X33.0486 Y13.8949
G01 X33.0248 Y13.8554
G01 X33.0205 Y13.8471
G01 X33.0047 Y13.8138
G01 X33.0000 Y13.8023
G01 X32.9856 Y13.7617
G01 X32.9750 Y13.7200
G01 X32.9731 Y13.7109
G01 X32.9664 Y13.6652
G01 X32.9641 Y13.6191
G01 X32.9642 Y13.6098
G01 X32.9662 Y13.5699
G01 X32.9693 Y13.5463
G01 X32.3277 Y12.9046
G01 X31.7134 Y12.9046
G01 X31.7010 Y12.9040
G01 X31.6917 Y12.9027
G01 X31.6796 Y12.9000
G01 X31.6707 Y12.8972
G01 X31.6620 Y12.8937
G01 X31.6509 Y12.8881
G01 X31.6404 Y12.8815
G01 X31.6330 Y12.8758
G01 X31.6237 Y12.8675
G01 X31.6154 Y12.8582
G01 X31.6080 Y12.8482
G01 X31.6031 Y12.8403
G01 X31.5988 Y12.8320
G01 X31.5940 Y12.8205
G01 X31.5904 Y12.8086
G01 X31.5885 Y12.7995
G01 X31.5872 Y12.7902
G01 X31.5866 Y12.7778
G00 Z2.0000
G00 X32.2706 Y13.0448
G01 F60.00
G01 Z-0.1000
G01 F120.00
G01 X32.2698 Y13.0444
G01 X32.2693 Y13.0441
G01 X32.2699 Y13.0441
G01 X32.2706 Y13.0448
G00 Z2.0000
G00 X33.4085 Y12.2750
G01 F60.00
G01 Z-0.1000
G01 F120.00
G01 X33.4183 Y12.2591
G01 X33.4244 Y12.2475
G01 X33.4326 Y12.2297
G01 X33.4373 Y12.2175
G01 X33.4432 Y12.1988
G01 X33.4464 Y12.1861
G01 X33.4490 Y12.1733
G01 X33.4509 Y12.1604
G01 X33.4522 Y12.1474
G01 X33.4529 Y12.1278
G01 X33.4529 Y11.8828
G01 X33.4685 Y11.8901
G01 X33.4806 Y11.8951
G01 X33.5276 Y11.9119
G01 X33.5464 Y11.9173
G01 X33.5885 Y11.9278
G01 X33.6077 Y11.9314
G01 X33.6571 Y11.9384
G01 X33.6702 Y11.9393
G01 X33.7135 Y11.9414
G01 X36.5484 Y11.9415
G01 X36.5354 Y11.9460
G01 X36.5171 Y11.9537
G01 X36.4994 Y11.9627
G01 X36.4880 Y11.9694
G01 X36.4716 Y11.9805
G01 X36.4611 Y11.9886
G01 X36.4511 Y11.9972
G01 X36.4369 Y12.0110
G01 X36.4280 Y12.0208
G01 X36.3779 Y12.0787
G01 X36.3698 Y12.0891
G01 X36.3621 Y12.0999
G01 X36.3517 Y12.1168
G01 X36.3426 Y12.1344
G01 X36.3348 Y12.1526
G01 X36.3284 Y12.1714
G01 X36.3249 Y12.1841
G01 X36.3209 Y12.2036
G01 X36.3099 Y12.2792
G01 X36.3084 Y12.2924
G01 X36.3075 Y12.3056
G01 X36.3073 Y12.3254
G01 X36.3081 Y12.3386
G01 X36.3095 Y12.3518
G01 X36.3115 Y12.3648
G01 X36.3142 Y12.3778
G01 X36.3194 Y12.3969
G01 X36.3237 Y12.4094
G01 X36.3313 Y12.4278
G01 X36.3603 Y12.4913
G01 X36.3705 Y12.5113
G01 X36.3577 Y12.5048
G01 X36.3355 Y12.4943
G01 X36.3175 Y12.4866
G01 X36.2821 Y12.4739
G01 X36.2633 Y12.4685
G01 X36.2267 Y12.4596
G01 X36.1896 Y12.4538
G01 X36.1701 Y12.4516
G01 X36.1325 Y12.4498
G01 X35.4695 Y12.4498
G01 X35.4254 Y12.4522
G01 X35.3817 Y12.4584
G01 X35.3625 Y12.4625
G01 X35.3324 Y12.4701
G01 X35.3199 Y12.4739
G01 X35.2784 Y12.4890
G01 X35.2384 Y12.5077
G01 X35.2269 Y12.5138
G01 X35.2002 Y12.5297
G01 X35.1892 Y12.5367
G01 X35.1785 Y12.5443
G01 X35.1485 Y12.5669
G01 X35.1204 Y12.5919
G01 X35.1109 Y12.6009
G01 X35.1019 Y12.6104
G01 X35.0769 Y12.6385
G01 X35.0504 Y12.6738
G01 X35.0432 Y12.6846
G01 X35.0271 Y12.7113
G01 X35.0207 Y12.7226
G01 X35.0148 Y12.7343
G01 X34.9990 Y12.7684
G01 X34.9861 Y12.8037
G01 X34.9820 Y12.8161
G01 X34.9725 Y12.8525
G01 X34.9696 Y12.8653
G01 X34.9638 Y12.9024
G01 X34.9622 Y12.9154
G01 X34.9612 Y12.9284
G01 X34.9598 Y12.9595
G01 X34.9597 Y12.9745
G01 X33.4660 Y12.9745
G01 X33.4511 Y12.9749
G01 X33.4054 Y12.9295
G01 X33.4116 Y12.9203
G01 X33.4183 Y12.9090
G01 X33.4273 Y12.8916
G01 X33.4350 Y12.8736
G01 X33.4414 Y12.8551
G01 X33.4464 Y12.8361
G01 X33.4500 Y12.8169
G01 X33.4522 Y12.7974
G01 X33.4529 Y12.7778
G01 X33.4529 Y12.4222
G01 X33.4526 Y12.4091
G01 X33.4516 Y12.3961
G01 X33.4490 Y12.3767
G01 X33.4464 Y12.3639
G01 X33.4414 Y12.3449
G01 X33.4373 Y12.3325
G01 X33.4326 Y12.3203
G01 X33.4244 Y12.3025
G01 X33.4183 Y12.2910
G01 X33.4085 Y12.2750
G00 Z2.0000
G00 X33.5647 Y12.2750
G01 F60.00
G01 Z-0.1000
G01 F120.00
G01 X33.5719 Y12.2551
G01 X33.5802 Y12.2264
G01 X33.5846 Y12.2070
G01 X33.5893 Y12.1775
G01 X33.5913 Y12.1577
G01 X33.5922 Y12.1378
G01 X33.5924 Y12.0701
G01 X33.6336 Y12.0761
G01 X33.6534 Y12.0780
G01 X33.7001 Y12.0805
G01 X33.7200 Y12.0809
G01 X36.2137 Y12.0809
G01 X36.2046 Y12.1027
G01 X36.1978 Y12.1216
G01 X36.1921 Y12.1409
G01 X36.1872 Y12.1605
G01 X36.1852 Y12.1704
G01 X36.1818 Y12.1902
G01 X36.1706 Y12.2694
G01 X36.1687 Y12.2895
G01 X36.1678 Y12.3118
G01 X36.1459 Y12.3107
G01 X36.1260 Y12.3102
G01 X35.4760 Y12.3102
G01 X35.4561 Y12.3107
G01 X35.4216 Y12.3125
G01 X35.3920 Y12.3158
G01 X35.3677 Y12.3194
G01 X35.3481 Y12.3228
G01 X35.3286 Y12.3272
G01 X35.3048 Y12.3332
G01 X35.2856 Y12.3385
G01 X35.2667 Y12.3447
G01 X35.2436 Y12.3530
G01 X35.2251 Y12.3602
G01 X35.2068 Y12.3682
G01 X35.1847 Y12.3787
G01 X35.1669 Y12.3877
G01 X35.1495 Y12.3975
G01 X35.1285 Y12.4101
G01 X35.1117 Y12.4208
G01 X35.0954 Y12.4322
G01 X35.0757 Y12.4468
G01 X35.0524 Y12.4655
G01 X35.0194 Y12.4954
G01 X35.0054 Y12.5094
G01 X34.9755 Y12.5424
G01 X34.9568 Y12.5657
G01 X34.9422 Y12.5854
G01 X34.9308 Y12.6017
G01 X34.9201 Y12.6185
G01 X34.9075 Y12.6395
G01 X34.8931 Y12.6657
G01 X34.8741 Y12.7059
G01 X34.8630 Y12.7336
G01 X34.8547 Y12.7567
G01 X34.8485 Y12.7756
G01 X34.8432 Y12.7948
G01 X34.8335 Y12.8351
G01 X33.5883 Y12.8351
G01 X33.5913 Y12.8076
G01 X33.5924 Y12.7778
G01 X33.5924 Y12.4222
G01 X33.5919 Y12.4023
G01 X33.5893 Y12.3725
G01 X33.5864 Y12.3528
G01 X33.5825 Y12.3333
G01 X33.5749 Y12.3044
G01 X33.5686 Y12.2855
G01 X33.5647 Y12.2750
G00 Z2.0000
G00 X33.7116 Y12.2750
G01 F60.00
G01 Z-0.1000
G01 F120.00
G01 X33.7186 Y12.2473
G01 X33.7239 Y12.2204
G01 X35.2001 Y12.2204
G01 X35.1841 Y12.2263
G01 X35.1594 Y12.2366
G01 X35.1130 Y12.2585
G01 X35.0894 Y12.2711
G01 X35.0454 Y12.2975
G01 X35.0232 Y12.3124
G01 X35.0123 Y12.3202
G01 X34.9820 Y12.3429
G01 X34.9715 Y12.3513
G01 X34.9613 Y12.3599
G01 X34.9331 Y12.3852
G01 X34.9137 Y12.4037
G01 X34.8952 Y12.4231
G01 X34.8699 Y12.4513
G01 X34.8613 Y12.4615
G01 X34.8529 Y12.4720
G01 X34.8302 Y12.5023
G01 X34.8224 Y12.5132
G01 X34.8075 Y12.5354
G01 X34.7811 Y12.5794
G01 X34.7685 Y12.6030
G01 X34.7466 Y12.6494
G01 X34.7363 Y12.6741
G01 X34.7285 Y12.6956
G01 X33.7318 Y12.6956
G01 X33.7318 Y12.4222
G01 X33.7312 Y12.3954
G01 X33.7292 Y12.3688
G01 X33.7277 Y12.3555
G01 X33.7238 Y12.3290
G01 X33.7186 Y12.3027
G01 X33.7116 Y12.2750
G00 Z2.0000
G00 X33.4529 Y10.7172
G01 F60.00
G01 Z-0.1000
G01 F120.00
G01 X33.4529 Y10.4938
G01 X33.5016 Y10.5593
G01 X33.5098 Y10.5697
G01 X33.5185 Y10.5797
G01 X33.5277 Y10.5892
G01 X33.5423 Y10.6026
G01 X33.5526 Y10.6109
G01 X33.5632 Y10.6187
G01 X33.5743 Y10.6260
G01 X33.5915 Y10.6358
G01 X33.6034 Y10.6416
G01 X33.6156 Y10.6469
G01 X33.6554 Y10.6618
G01 X33.6077 Y10.6686
G01 X33.5949 Y10.6709
G01 X33.5821 Y10.6737
G01 X33.5401 Y10.6843
G01 X33.5214 Y10.6903
G01 X33.4806 Y10.7049
G01 X33.4685 Y10.7099
G01 X33.4529 Y10.7172
G00 Z2.0000
G00 X33.8861 Y14.4265
G01 F60.00
G01 Z-0.1000
G01 F120.00
G01 X33.8811 Y14.4140
G01 X33.8736 Y14.3969
G01 X33.9156 Y14.3969
G01 X33.8861 Y14.4265
G00 Z2.0000
G00 X33.7480 Y14.7618
G01 F60.00
G01 Z-0.1000
G01 F120.00
G01 X33.7541 Y14.7494
G01 X33.7592 Y14.7372
G01 X33.7638 Y14.7248
G01 X33.7694 Y14.7058
G01 X33.7736 Y14.6864
G01 X33.7756 Y14.6733
G01 X33.7774 Y14.6536
G01 X33.7778 Y14.6404
G01 X33.7771 Y14.6205
G01 X33.7721 Y14.5508
G01 X33.7700 Y14.5311
G01 X33.7677 Y14.5181
G01 X33.7631 Y14.4988
G01 X33.7593 Y14.4861
G01 X33.7524 Y14.4675
G01 X33.7470 Y14.4555
G01 X33.7378 Y14.4379
G01 X33.7310 Y14.4266
G01 X33.7236 Y14.4156
G01 X33.6739 Y14.3492
G01 X33.6658 Y14.3394
G01 X33.6527 Y14.3253
G01 X33.6386 Y14.3123
G01 X33.6287 Y14.3042
G01 X33.6132 Y14.2929
G01 X33.6024 Y14.2860
G01 X33.5913 Y14.2797
G01 X33.5741 Y14.2711
G01 X33.5402 Y14.2575
G01 X34.2524 Y14.2575
G01 X33.7480 Y14.7618
G00 Z2.0000
G00 X34.3618 Y15.9624
G01 F60.00
G01 Z-0.1000
G01 F120.00
G01 X34.3616 Y15.9628
G01 X34.3615 Y15.9630
G01 X34.3615 Y15.9627
G01 X34.3618 Y15.9624
G00 Z2.0000
G00 X34.3615 Y16.8751
G01 F60.00
G01 Z-0.1000
G01 F120.00
G01 X34.3660 Y16.8881
G01 X34.3710 Y16.9004
G01 X34.3765 Y16.9124
G01 X34.3827 Y16.9241
G01 X34.3894 Y16.9354
G01 X34.3967 Y16.9465
G01 X34.4086 Y16.9623
G01 X34.4172 Y16.9724
G01 X34.4263 Y16.9820
G01 X34.4359 Y16.9911
G01 X34.4986 Y17.0455
G01 X34.5090 Y17.0536
G01 X34.5197 Y17.0612
G01 X34.5368 Y17.0717
G01 X34.3615 Y17.0717
G01 X34.3615 Y16.8751
G00 Z2.0000
G00 X32.9009 Y17.0717
G01 F60.00
G01 Z-0.1000
G01 F120.00
G01 X32.9183 Y17.0603
G01 X32.9846 Y17.0107
G01 X32.9948 Y17.0022
G01 X33.0045 Y16.9933
G01 X33.0183 Y16.9790
G01 X33.0309 Y16.9638
G01 X33.0387 Y16.9531
G01 X33.0460 Y16.9420
G01 X33.0527 Y16.9306
G01 X33.0588 Y16.9189
G01 X33.0643 Y16.9069
G01 X33.0785 Y16.8697
G01 X33.0785 Y17.0717
G01 X32.9009 Y17.0717
G00 Z2.0000
G00 X35.5428 Y14.7823
G01 F60.00
G01 Z-0.1000
G01 F120.00
G01 X35.5417 Y14.7826
G01 X35.5415 Y14.7827
G01 X35.5419 Y14.7823
G01 X35.5428 Y14.7823
G00 Z2.0000
G00 X40.6280 Y11.9418
G01 F60.00
G01 Z-0.1000
G01 F120.00
G01 X40.6276 Y11.9416
G01 X40.6274 Y11.9415
G01 X40.6277 Y11.9415
G01 X40.6280 Y11.9418
G00 Z2.0000
G00 X41.2871 Y12.6018
G01 F60.00
G01 Z-0.1000
G01 F120.00
G01 X41.2868 Y12.6007
G01 X41.2867 Y12.6005
G01 X41.2871 Y12.6009
G01 X41.2871 Y12.6018
G00 Z2.0000
G00 X42.2938 Y11.7932
G01 F60.00
G01 Z-0.1000
G01 F120.00
G01 X42.2942 Y11.7934
G01 X42.2948 Y11.7937
G01 X42.2943 Y11.7937
G01 X42.2938 Y11.7932
G00 Z2.0000
G00 X43.6188 Y12.0394
G01 F60.00
G01 Z-0.1000
G01 F120.00
G01 X43.6415 Y12.0696
G01 X43.6544 Y12.0847
G01 X43.6683 Y12.0988
G01 X43.6782 Y12.1076
G01 X43.6885 Y12.1159
G01 X43.6991 Y12.1237
G01 X43.7102 Y12.1310
G01 X43.7216 Y12.1377
G01 X43.7333 Y12.1438
G01 X43.7514 Y12.1519
G01 X43.7825 Y12.1635
G01 X43.6197 Y12.1635
G01 X43.6197 Y12.0600
G01 X43.6188 Y12.0394
G00 Z2.0000
G00 X44.3396 Y12.1635
G01 F60.00
G01 Z-0.1000
G01 F120.00
G01 X44.3463 Y12.1613
G01 X44.3486 Y12.1605
G01 X44.3463 Y12.1635
G01 X44.3396 Y12.1635
G00 Z2.0000
G00 X44.8641 Y13.6463
G01 F60.00
G01 Z-0.1000
G01 F120.00
G01 X44.8505 Y13.6510
G01 X44.8383 Y13.6560
G01 X44.8204 Y13.6645
G01 X44.8088 Y13.6710
G01 X44.7976 Y13.6780
G01 X44.7868 Y13.6855
G01 X44.7763 Y13.6936
G01 X44.7614 Y13.7067
G01 X44.7520 Y13.7160
G01 X44.7431 Y13.7258
G01 X44.6973 Y13.7786
G01 X44.6849 Y13.7941
G01 X44.6737 Y13.8104
G01 X44.6669 Y13.8218
G01 X44.6607 Y13.8334
G01 X44.6524 Y13.8515
G01 X44.6455 Y13.8701
G01 X44.6417 Y13.8827
G01 X44.6386 Y13.8956
G01 X44.6360 Y13.9086
G01 X44.6242 Y13.9908
G01 X44.6226 Y14.0106
G01 X44.6224 Y14.0238
G01 X44.6232 Y14.0436
G01 X44.6246 Y14.0568
G01 X44.6267 Y14.0698
G01 X44.6309 Y14.0892
G01 X44.6346 Y14.1019
G01 X44.6412 Y14.1206
G01 X44.6574 Y14.1569
G01 X43.9470 Y13.4465
G01 X44.3463 Y13.4465
G01 X44.3591 Y13.4625
G01 X44.3889 Y13.4951
G01 X44.4215 Y13.5249
G01 X44.4368 Y13.5371
G01 X44.4672 Y13.5593
G01 X44.5049 Y13.5822
G01 X44.5223 Y13.5912
G01 X44.5504 Y13.6044
G01 X44.5625 Y13.6094
G01 X44.6041 Y13.6240
G01 X44.6405 Y13.6335
G01 X44.6597 Y13.6376
G01 X44.6969 Y13.6431
G01 X44.7099 Y13.6444
G01 X44.7475 Y13.6462
G01 X44.8641 Y13.6463
G00 Z2.0000
G00 X44.5462 Y13.7518
G01 F60.00
G01 Z-0.1000
G01 F120.00
G01 X44.5407 Y13.7619
G01 X44.5316 Y13.7799
G01 X44.5235 Y13.7983
G01 X44.5159 Y13.8181
G01 X44.3100 Y13.6122
G01 X44.3380 Y13.6369
G01 X44.3537 Y13.6492
G01 X44.3734 Y13.6638
G01 X44.3980 Y13.6807
G01 X44.4275 Y13.6985
G01 X44.4537 Y13.7129
G01 X44.4939 Y13.7319
G01 X44.5123 Y13.7395
G01 X44.5462 Y13.7518
G00 Z2.0000
G00 X42.6130 Y13.9268
G01 F60.00
G01 Z-0.1000
G01 F120.00
G01 X42.6126 Y13.9266
G01 X42.6120 Y13.9263
G01 X42.6125 Y13.9263
G01 X42.6130 Y13.9268
G00 Z2.0000
G00 X44.5085 Y15.8228
G01 F60.00
G01 Z-0.1000
G01 F120.00
G01 X44.5084 Y15.8223
G01 X44.5083 Y15.8221
G01 X44.5085 Y15.8223
G01 X44.5085 Y15.8228
G00 Z2.0000
G00 X44.3309 Y16.5637
G01 F60.00
G01 Z-0.1000
G01 F120.00
G01 X44.3483 Y16.5523
G01 X44.4146 Y16.5027
G01 X44.4248 Y16.4942
G01 X44.4345 Y16.4853
G01 X44.4483 Y16.4710
G01 X44.4609 Y16.4558
G01 X44.4687 Y16.4451
G01 X44.4760 Y16.4340
G01 X44.4827 Y16.4226
G01 X44.4888 Y16.4109
G01 X44.4943 Y16.3989
G01 X44.5085 Y16.3617
G01 X44.5085 Y16.5637
G01 X44.3309 Y16.5637
G00 Z2.0000
G00 X45.7915 Y16.3671
G01 F60.00
G01 Z-0.1000
G01 F120.00
G01 X45.7960 Y16.3801
G01 X45.8010 Y16.3924
G01 X45.8065 Y16.4044
G01 X45.8127 Y16.4161
G01 X45.8194 Y16.4274
G01 X45.8267 Y16.4385
G01 X45.8386 Y16.4543
G01 X45.8472 Y16.4644
G01 X45.8563 Y16.4740
G01 X45.8659 Y16.4831
G01 X45.9286 Y16.5375
G01 X45.9390 Y16.5456
G01 X45.9497 Y16.5532
G01 X45.9668 Y16.5637
G01 X45.7915 Y16.5637
G01 X45.7915 Y16.3671
G00 Z2.0000
G00 X51.7427 Y17.2461
G01 F60.00
G01 Z-0.1000
G01 F120.00
G01 X51.8846 Y17.3880
G01 X51.7372 Y17.5353
G01 X51.7454 Y17.5178
G01 X51.7503 Y17.5055
G01 X51.7545 Y17.4930
G01 X51.7581 Y17.4802
G01 X51.7623 Y17.4608
G01 X51.7643 Y17.4478
G01 X51.7657 Y17.4346
G01 X51.7664 Y17.4214
G01 X51.7664 Y17.4082
G01 X51.7658 Y17.3950
G01 X51.7608 Y17.3253
G01 X51.7587 Y17.3054
G01 X51.7550 Y17.2858
G01 X51.7518 Y17.2729
G01 X51.7479 Y17.2602
G01 X51.7427 Y17.2461
G00 Z2.0000
G00 X54.1991 Y18.6564
G01 F60.00
G01 Z-0.1000
G01 F120.00
G01 X54.3112 Y18.5444
G01 X54.4412 Y18.6408
G01 X54.4108 Y18.6321
G01 X54.3979 Y18.6292
G01 X54.3849 Y18.6270
G01 X54.3717 Y18.6255
G01 X54.3585 Y18.6246
G01 X54.3453 Y18.6244
G01 X54.3321 Y18.6248
G01 X54.3123 Y18.6267
G01 X54.2993 Y18.6288
G01 X54.2863 Y18.6315
G01 X54.2735 Y18.6348
G01 X54.1991 Y18.6564
G00 Z2.0000
G00 X54.4516 Y13.3315
G01 F60.00
G01 Z-0.1000
G01 F120.00
G01 X54.3306 Y13.4212
G01 X54.2206 Y13.3111
G01 X54.2307 Y13.3160
G01 X54.2428 Y13.3211
G01 X54.2553 Y13.3257
G01 X54.2679 Y13.3296
G01 X54.2807 Y13.3329
G01 X54.2937 Y13.3355
G01 X54.3067 Y13.3376
G01 X54.3199 Y13.3389
G01 X54.3397 Y13.3397
G01 X54.3529 Y13.3394
G01 X54.4292 Y13.3340
G01 X54.4516 Y13.3315
G00 Z2.0000
M05
G00 Z2.0000
G00 Z15.00


