(G-CODE GENERATED BY FLATCAM v8.994 - www.flatcam.org - Version Date: 2020/11/7)

(Name: mcu_singleside-PTH.drl_cnc)
(Type: G-code from Geometry)
(Units: MM)

(Created on Monday, 04 September 2023 at 14:52)

(This preprocessor is the default preprocessor used by FlatCAM.)
(It is made to work with MACH3 compatible motion controllers.)


(TOOLS DIAMETER: )
(Tool: 1 -> Dia: 0.4)
(Tool: 2 -> Dia: 0.5)
(Tool: 3 -> Dia: 0.7)
(Tool: 4 -> Dia: 0.8)
(Tool: 5 -> Dia: 0.9)
(Tool: 6 -> Dia: 1.0)
(Tool: 7 -> Dia: 1.1)
(Tool: 8 -> Dia: 2.7)

(FEEDRATE Z: )
(Tool: 1 -> Feedrate: 300)
(Tool: 2 -> Feedrate: 300)
(Tool: 3 -> Feedrate: 300)
(Tool: 4 -> Feedrate: 300)
(Tool: 5 -> Feedrate: 300)
(Tool: 6 -> Feedrate: 300)
(Tool: 7 -> Feedrate: 300)
(Tool: 8 -> Feedrate: 300)

(FEEDRATE RAPIDS: )
(Tool: 1 -> Feedrate Rapids: 1500)
(Tool: 2 -> Feedrate Rapids: 1500)
(Tool: 3 -> Feedrate Rapids: 1500)
(Tool: 4 -> Feedrate Rapids: 1500)
(Tool: 5 -> Feedrate Rapids: 1500)
(Tool: 6 -> Feedrate Rapids: 1500)
(Tool: 7 -> Feedrate Rapids: 1500)
(Tool: 8 -> Feedrate Rapids: 1500)

(Z_CUT: )
(Tool: 1 -> Z_Cut: -1.7)
(Tool: 2 -> Z_Cut: -1.7)
(Tool: 3 -> Z_Cut: -1.7)
(Tool: 4 -> Z_Cut: -1.7)
(Tool: 5 -> Z_Cut: -1.7)
(Tool: 6 -> Z_Cut: -1.7)
(Tool: 7 -> Z_Cut: -1.7)
(Tool: 8 -> Z_Cut: -1.7)

(Tools Offset: )
(Tool: 6 -> Offset Z: 0.0)

(Z_MOVE: )
(Tool: 1 -> Z_Move: 2)
(Tool: 2 -> Z_Move: 2)
(Tool: 3 -> Z_Move: 2)
(Tool: 4 -> Z_Move: 2)
(Tool: 5 -> Z_Move: 2)
(Tool: 6 -> Z_Move: 2)
(Tool: 7 -> Z_Move: 2)
(Tool: 8 -> Z_Move: 2)

(Z Toolchange: 15 mm)
(X,Y Toolchange: 0.0000, 0.0000 mm)
(Z Start: None mm)
(Z End: 0.5 mm)
(X,Y End: None mm)
(Steps per circle: 64)
(Preprocessor Excellon: default)

(X range:   12.7670 ...   54.4000  mm)
(Y range:    9.8350 ...   46.8000  mm)

(Spindle Speed: 0 RPM)
G21
G90
G94

G01 F300.00

M5
G00 Z15.0000
T4M6
(MSG, Change to Tool Dia = 1.0000 ||| Total drills for tool T6 = 25)
M0
G00 Z15.0000

G01 F300.00
M03
G00 X23.9830 Y34.6900
G01 Z-1.7000
G01 Z0
G00 Z2.0000
G00 X23.9830 Y32.1500
G01 Z-1.7000
G01 Z0
G00 Z2.0000
G00 X23.9830 Y29.6100
G01 Z-1.7000
G01 Z0
G00 Z2.0000
G00 X23.9830 Y27.0700
G01 Z-1.7000
G01 Z0
G00 Z2.0000
G00 X23.9830 Y24.5300
G01 Z-1.7000
G01 Z0
G00 Z2.0000
G00 X23.9830 Y21.9900
G01 Z-1.7000
G01 Z0
G00 Z2.0000
G00 X23.9830 Y17.1640
G01 Z-1.7000
G01 Z0
G00 Z2.0000
G00 X50.4000 Y10.3350
G01 Z-1.7000
G01 Z0
G00 Z2.0000
G00 X50.4000 Y12.8750
G01 Z-1.7000
G01 Z0
G00 Z2.0000
G00 X51.0290 Y22.1020
G01 Z-1.7000
G01 Z0
G00 Z2.0000
G00 X51.0290 Y24.6420
G01 Z-1.7000
G01 Z0
G00 Z2.0000
G00 X51.0290 Y27.1820
G01 Z-1.7000
G01 Z0
G00 Z2.0000
G00 X51.2880 Y32.4040
G01 Z-1.7000
G01 Z0
G00 Z2.0000
G00 X48.7480 Y32.4040
G01 Z-1.7000
G01 Z0
G00 Z2.0000
G00 X46.5890 Y43.7070
G01 Z-1.7000
G01 Z0
G00 Z2.0000
G00 X46.5890 Y41.1670
G01 Z-1.7000
G01 Z0
G00 Z2.0000
G00 X46.5890 Y38.6270
G01 Z-1.7000
G01 Z0
G00 Z2.0000
G00 X46.2080 Y32.4040
G01 Z-1.7000
G01 Z0
G00 Z2.0000
G00 X48.4890 Y27.1820
G01 Z-1.7000
G01 Z0
G00 Z2.0000
G00 X48.4890 Y24.6420
G01 Z-1.7000
G01 Z0
G00 Z2.0000
G00 X48.4890 Y22.1020
G01 Z-1.7000
G01 Z0
G00 Z2.0000
G00 X47.0200 Y17.8000
G01 Z-1.7000
G01 Z0
G00 Z2.0000
G00 X44.4800 Y17.8000
G01 Z-1.7000
G01 Z0
G00 Z2.0000
G00 X41.9400 Y17.8000
G01 Z-1.7000
G01 Z0
G00 Z2.0000
G00 X39.4000 Y17.8000
G01 Z-1.7000
G01 Z0
G00 Z2.0000
M05
G00 Z0.50


