(G-CODE GENERATED BY FLATCAM v8.994 - www.flatcam.org - Version Date: 2020/11/7)

(Name: mcu_singleside-PTH.drl_cnc)
(Type: G-code from Geometry)
(Units: MM)

(Created on Monday, 04 September 2023 at 14:51)

(This preprocessor is the default preprocessor used by FlatCAM.)
(It is made to work with MACH3 compatible motion controllers.)


(TOOLS DIAMETER: )
(Tool: 1 -> Dia: 0.4)
(Tool: 2 -> Dia: 0.5)
(Tool: 3 -> Dia: 0.7)
(Tool: 4 -> Dia: 0.8)
(Tool: 5 -> Dia: 0.9)
(Tool: 6 -> Dia: 1.0)
(Tool: 7 -> Dia: 1.1)
(Tool: 8 -> Dia: 2.7)

(FEEDRATE Z: )
(Tool: 1 -> Feedrate: 300)
(Tool: 2 -> Feedrate: 300)
(Tool: 3 -> Feedrate: 300)
(Tool: 4 -> Feedrate: 300)
(Tool: 5 -> Feedrate: 300)
(Tool: 6 -> Feedrate: 300)
(Tool: 7 -> Feedrate: 300)
(Tool: 8 -> Feedrate: 300)

(FEEDRATE RAPIDS: )
(Tool: 1 -> Feedrate Rapids: 1500)
(Tool: 2 -> Feedrate Rapids: 1500)
(Tool: 3 -> Feedrate Rapids: 1500)
(Tool: 4 -> Feedrate Rapids: 1500)
(Tool: 5 -> Feedrate Rapids: 1500)
(Tool: 6 -> Feedrate Rapids: 1500)
(Tool: 7 -> Feedrate Rapids: 1500)
(Tool: 8 -> Feedrate Rapids: 1500)

(Z_CUT: )
(Tool: 1 -> Z_Cut: -1.7)
(Tool: 2 -> Z_Cut: -1.7)
(Tool: 3 -> Z_Cut: -1.7)
(Tool: 4 -> Z_Cut: -1.7)
(Tool: 5 -> Z_Cut: -1.7)
(Tool: 6 -> Z_Cut: -1.7)
(Tool: 7 -> Z_Cut: -1.7)
(Tool: 8 -> Z_Cut: -1.7)

(Tools Offset: )
(Tool: 1 -> Offset Z: 0.0)

(Z_MOVE: )
(Tool: 1 -> Z_Move: 2)
(Tool: 2 -> Z_Move: 2)
(Tool: 3 -> Z_Move: 2)
(Tool: 4 -> Z_Move: 2)
(Tool: 5 -> Z_Move: 2)
(Tool: 6 -> Z_Move: 2)
(Tool: 7 -> Z_Move: 2)
(Tool: 8 -> Z_Move: 2)

(Z Toolchange: 15 mm)
(X,Y Toolchange: 0.0000, 0.0000 mm)
(Z Start: None mm)
(Z End: 0.5 mm)
(X,Y End: None mm)
(Steps per circle: 64)
(Preprocessor Excellon: default)

(X range:   12.7670 ...   54.4000  mm)
(Y range:    9.8350 ...   46.8000  mm)

(Spindle Speed: 0 RPM)
G21
G90
G94

G01 F300.00

M5
G00 Z15.0000
T1M6
(MSG, Change to Tool Dia = 0.4000 ||| Total drills for tool T1 = 20)
M0
G00 Z15.0000

G01 F300.00
M03
G00 X27.5390 Y31.7690
G01 Z-1.7000
G01 Z0
G00 Z2.0000
G00 X28.1230 Y26.6640
G01 Z-1.7000
G01 Z0
G00 Z2.0000
G00 X33.8890 Y26.5620
G01 Z-1.7000
G01 Z0
G00 Z2.0000
G00 X31.2000 Y21.2000
G01 Z-1.7000
G01 Z0
G00 Z2.0000
G00 X35.6000 Y19.2000
G01 Z-1.7000
G01 Z0
G00 Z2.0000
G00 X39.4000 Y14.0000
G01 Z-1.7000
G01 Z0
G00 Z2.0000
G00 X41.8000 Y13.6000
G01 Z-1.7000
G01 Z0
G00 Z2.0000
G00 X44.0000 Y14.2000
G01 Z-1.7000
G01 Z0
G00 Z2.0000
G00 X48.0000 Y14.0000
G01 Z-1.7000
G01 Z0
G00 Z2.0000
G00 X45.0000 Y22.0000
G01 Z-1.7000
G01 Z0
G00 Z2.0000
G00 X44.4300 Y24.7840
G01 Z-1.7000
G01 Z0
G00 Z2.0000
G00 X38.0800 Y27.4510
G01 Z-1.7000
G01 Z0
G00 Z2.0000
G00 X40.8000 Y31.4000
G01 Z-1.7000
G01 Z0
G00 Z2.0000
G00 X42.6520 Y30.2450
G01 Z-1.7000
G01 Z0
G00 Z2.0000
G00 X49.0020 Y29.6100
G01 Z-1.7000
G01 Z0
G00 Z2.0000
G00 X47.0000 Y34.8000
G01 Z-1.7000
G01 Z0
G00 Z2.0000
G00 X54.2000 Y46.6000
G01 Z-1.7000
G01 Z0
G00 Z2.0000
G00 X34.4000 Y38.0000
G01 Z-1.7000
G01 Z0
G00 Z2.0000
G00 X31.9840 Y33.6740
G01 Z-1.7000
G01 Z0
G00 Z2.0000
G00 X31.9840 Y30.6260
G01 Z-1.7000
G01 Z0
G00 Z2.0000
M05
G00 Z0.50


