(G-CODE GENERATED BY FLATCAM v8.994 - www.flatcam.org - Version Date: 2020/11/7)

(Name: mcu_singleside-Edge_Cuts.gm1_cutout_cnc)
(Type: G-code from Geometry)
(Units: MM)

(Created on Friday, 01 September 2023 at 18:08)

(This preprocessor is the default preprocessor used by FlatCAM.)
(It is made to work with MACH3 compatible motion controllers.)

(TOOL DIAMETER: 0.7937 mm)
(Feedrate_XY: 120.0 mm/min)
(Feedrate_Z: 60.0 mm/min)
(Feedrate rapids 1500.0 mm/min)

(Z_Cut: -2.4 mm)
(Z_Move: 2.0 mm)
(Z Start: None mm)
(Z End: 15.0 mm)
(X,Y End: None mm)
(Steps per circle: 64)
(Preprocessor Geometry: default)

(X range:    1.0261 ...   59.3229  mm)
(Y range:    1.4591 ...   50.0909  mm)

(Spindle Speed: 0.0 RPM)
G21
G90
G94

G01 F120.00

M5
G00 Z15.0000
G00 X0.0000 Y0.0000
T1M6    
(MSG, Change to Tool Dia = 0.7937)
M0
G00 Z15.0000

M03
G01 F120.00
G00 X1.0261 Y27.8782
G01 F60.00
G01 Z-2.4000
G01 F120.00
G01 X1.0261 Y5.8560
G01 X1.0473 Y5.4250
G01 X1.1106 Y4.9982
G01 X1.2155 Y4.5796
G01 X1.3608 Y4.1734
G01 X1.5453 Y3.7833
G01 X1.7671 Y3.4132
G01 X2.0242 Y3.0666
G01 X2.3139 Y2.7469
G01 X2.6336 Y2.4572
G01 X2.9802 Y2.2001
G01 X3.3503 Y1.9783
G01 X3.7404 Y1.7938
G01 X4.1466 Y1.6485
G01 X4.5652 Y1.5436
G01 X4.9920 Y1.4803
G01 X5.4230 Y1.4591
G01 X32.2776 Y1.4591
G00 Z2.0000
G00 X1.0261 Y31.6719
G01 F60.00
G01 Z-2.4000
G01 F120.00
G01 X1.0261 Y45.6940
G01 X1.0473 Y46.1250
G01 X1.1106 Y46.5518
G01 X1.2155 Y46.9704
G01 X1.3608 Y47.3766
G01 X1.5453 Y47.7667
G01 X1.7671 Y48.1368
G01 X2.0242 Y48.4834
G01 X2.3139 Y48.8031
G01 X2.6336 Y49.0928
G01 X2.9802 Y49.3499
G01 X3.3503 Y49.5717
G01 X3.7404 Y49.7562
G01 X4.1466 Y49.9015
G01 X4.5652 Y50.0064
G01 X4.9920 Y50.0697
G01 X5.4230 Y50.0909
G01 X32.2776 Y50.0909
G00 Z2.0000
G00 X36.0713 Y50.0909
G01 F60.00
G01 Z-2.4000
G01 F120.00
G01 X54.9260 Y50.0909
G01 X55.3570 Y50.0697
G01 X55.7838 Y50.0064
G01 X56.2024 Y49.9015
G01 X56.6086 Y49.7562
G01 X56.9987 Y49.5717
G01 X57.3688 Y49.3499
G01 X57.7154 Y49.0928
G01 X58.0351 Y48.8031
G01 X58.3248 Y48.4834
G01 X58.5819 Y48.1368
G01 X58.8037 Y47.7667
G01 X58.9882 Y47.3766
G01 X59.1335 Y46.9704
G01 X59.2384 Y46.5518
G01 X59.3017 Y46.1250
G01 X59.3229 Y45.6940
G01 X59.3229 Y31.6719
G00 Z2.0000
G00 X59.3229 Y27.8782
G01 F60.00
G01 Z-2.4000
G01 F120.00
G01 X59.3229 Y5.8560
G01 X59.3017 Y5.4250
G01 X59.2384 Y4.9982
G01 X59.1335 Y4.5796
G01 X58.9882 Y4.1734
G01 X58.8037 Y3.7833
G01 X58.5819 Y3.4132
G01 X58.3248 Y3.0666
G01 X58.0351 Y2.7469
G01 X57.7154 Y2.4572
G01 X57.3688 Y2.2001
G01 X56.9987 Y1.9783
G01 X56.6086 Y1.7938
G01 X56.2024 Y1.6485
G01 X55.7838 Y1.5436
G01 X55.3570 Y1.4803
G01 X54.9260 Y1.4591
G01 X36.0713 Y1.4591
G00 Z2.0000
M05
G00 Z2.0000
G00 Z15.00


