(G-CODE GENERATED BY FLATCAM v8.994 - www.flatcam.org - Version Date: 2020/11/7)

(Name: mcu_singleside-PTH.drl_cnc)
(Type: G-code from Geometry)
(Units: MM)

(Created on Friday, 01 September 2023 at 18:14)

(This preprocessor is the default preprocessor used by FlatCAM.)
(It is made to work with MACH3 compatible motion controllers.)


(TOOLS DIAMETER: )
(Tool: 1 -> Dia: 0.4)
(Tool: 2 -> Dia: 0.5)
(Tool: 3 -> Dia: 0.7)
(Tool: 4 -> Dia: 0.8)
(Tool: 5 -> Dia: 0.9)
(Tool: 6 -> Dia: 1.0)
(Tool: 7 -> Dia: 1.1)
(Tool: 8 -> Dia: 2.7)

(FEEDRATE Z: )
(Tool: 1 -> Feedrate: 300.0)
(Tool: 2 -> Feedrate: 300)
(Tool: 3 -> Feedrate: 300)
(Tool: 4 -> Feedrate: 300.0)
(Tool: 5 -> Feedrate: 300)
(Tool: 6 -> Feedrate: 300.0)
(Tool: 7 -> Feedrate: 300)
(Tool: 8 -> Feedrate: 300)

(FEEDRATE RAPIDS: )
(Tool: 1 -> Feedrate Rapids: 1500.0)
(Tool: 2 -> Feedrate Rapids: 1500)
(Tool: 3 -> Feedrate Rapids: 1500)
(Tool: 4 -> Feedrate Rapids: 1500.0)
(Tool: 5 -> Feedrate Rapids: 1500)
(Tool: 6 -> Feedrate Rapids: 1500.0)
(Tool: 7 -> Feedrate Rapids: 1500)
(Tool: 8 -> Feedrate Rapids: 1500)

(Z_CUT: )
(Tool: 1 -> Z_Cut: -1.7)
(Tool: 2 -> Z_Cut: -1.7)
(Tool: 3 -> Z_Cut: -1.7)
(Tool: 4 -> Z_Cut: -1.7)
(Tool: 5 -> Z_Cut: -1.7)
(Tool: 6 -> Z_Cut: -1.7)
(Tool: 7 -> Z_Cut: -1.7)
(Tool: 8 -> Z_Cut: -1.7)

(Tools Offset: )
(Tool: 1 -> Offset Z: 0.0)
(Tool: 2 -> Offset Z: 0.0)
(Tool: 3 -> Offset Z: 0.0)
(Tool: 4 -> Offset Z: 0.0)
(Tool: 5 -> Offset Z: 0.0)
(Tool: 6 -> Offset Z: 0.0)
(Tool: 7 -> Offset Z: 0.0)
(Tool: 8 -> Offset Z: 0.0)

(Z_MOVE: )
(Tool: 1 -> Z_Move: 2.0)
(Tool: 2 -> Z_Move: 2)
(Tool: 3 -> Z_Move: 2)
(Tool: 4 -> Z_Move: 2.0)
(Tool: 5 -> Z_Move: 2)
(Tool: 6 -> Z_Move: 2.0)
(Tool: 7 -> Z_Move: 2)
(Tool: 8 -> Z_Move: 2)

(Z Toolchange: 15 mm)
(X,Y Toolchange: 0.0000, 0.0000 mm)
(Z Start: None mm)
(Z End: 0.5 mm)
(X,Y End: None mm)
(Steps per circle: 64)
(Preprocessor Excellon: default)

(X range:   10.7670 ...   52.4000  mm)
(Y range:    7.8350 ...   44.8000  mm)

(Spindle Speed: 0.0 RPM)
G21
G90
G94

G01 F300.00

M5
G00 Z15.0000
T1
G00 X0.0000 Y0.0000                
M6
(MSG, Change to Tool Dia = 0.4000 ||| Total drills for tool T1 = 22)
M0
G00 Z15.0000

G01 F300.00
M03
G00 X24.7770 Y21.2600
G01 Z-1.7000
G01 Z0
G00 Z2.0000
G00 X25.9200 Y23.8000
G01 Z-1.7000
G01 Z0
G00 Z2.0000
G00 X26.5550 Y27.6100
G01 Z-1.7000
G01 Z0
G00 Z2.0000
G00 X25.5390 Y29.7690
G01 Z-1.7000
G01 Z0
G00 Z2.0000
G00 X29.9840 Y28.6260
G01 Z-1.7000
G01 Z0
G00 Z2.0000
G00 X29.9840 Y31.6740
G01 Z-1.7000
G01 Z0
G00 Z2.0000
G00 X32.4000 Y36.0000
G01 Z-1.7000
G01 Z0
G00 Z2.0000
G00 X52.2000 Y44.6000
G01 Z-1.7000
G01 Z0
G00 Z2.0000
G00 X45.0000 Y32.8000
G01 Z-1.7000
G01 Z0
G00 Z2.0000
G00 X47.0020 Y27.6100
G01 Z-1.7000
G01 Z0
G00 Z2.0000
G00 X40.6520 Y28.2450
G01 Z-1.7000
G01 Z0
G00 Z2.0000
G00 X38.8000 Y29.4000
G01 Z-1.7000
G01 Z0
G00 Z2.0000
G00 X36.0800 Y25.4510
G01 Z-1.7000
G01 Z0
G00 Z2.0000
G00 X42.4300 Y22.7840
G01 Z-1.7000
G01 Z0
G00 Z2.0000
G00 X43.0000 Y20.0000
G01 Z-1.7000
G01 Z0
G00 Z2.0000
G00 X46.0000 Y12.0000
G01 Z-1.7000
G01 Z0
G00 Z2.0000
G00 X42.0000 Y12.2000
G01 Z-1.7000
G01 Z0
G00 Z2.0000
G00 X39.8000 Y11.6000
G01 Z-1.7000
G01 Z0
G00 Z2.0000
G00 X37.4000 Y12.0000
G01 Z-1.7000
G01 Z0
G00 Z2.0000
G00 X33.6000 Y17.2000
G01 Z-1.7000
G01 Z0
G00 Z2.0000
G00 X29.2000 Y19.2000
G01 Z-1.7000
G01 Z0
G00 Z2.0000
G00 X31.8890 Y24.5620
G01 Z-1.7000
G01 Z0
G00 Z2.0000
G01 F300.00

M5
G00 Z15.0000
T2
G00 X0.0000 Y0.0000                
M6
(MSG, Change to Tool Dia = 0.5000 ||| Total drills for tool T2 = 1)
M0
G00 Z15.0000

G01 F300.00
M03
G00 X41.4000 Y24.6000
G01 Z-1.7000
G01 Z0
G00 Z2.0000
G01 F300.00

M5
G00 Z15.0000
T3
G00 X0.0000 Y0.0000                
M6
(MSG, Change to Tool Dia = 0.7000 ||| Total drills for tool T3 = 2)
M0
G00 Z15.0000

G01 F300.00
M03
G00 X49.6690 Y42.4480
G01 Z-1.7000
G01 Z0
G00 Z2.0000
G00 X49.6690 Y40.5480
G01 Z-1.7000
G01 Z0
G00 Z2.0000
G01 F300.00

M5
G00 Z15.0000
T4
G00 X0.0000 Y0.0000                
M6
(MSG, Change to Tool Dia = 0.8000 ||| Total drills for tool T4 = 8)
M0
G00 Z15.0000

G01 F300.00
M03
G00 X26.5550 Y14.1280
G01 Z-1.7000
G01 Z0
G00 Z2.0000
G00 X26.5550 Y11.6280
G01 Z-1.7000
G01 Z0
G00 Z2.0000
G00 X32.7420 Y10.1080
G01 Z-1.7000
G01 Z0
G00 Z2.0000
G00 X37.6220 Y10.1080
G01 Z-1.7000
G01 Z0
G00 Z2.0000
G00 X43.8280 Y8.3500
G01 Z-1.7000
G01 Z0
G00 Z2.0000
G00 X43.8280 Y10.8500
G01 Z-1.7000
G01 Z0
G00 Z2.0000
G00 X29.5830 Y33.9600
G01 Z-1.7000
G01 Z0
G00 Z2.0000
G00 X27.0830 Y33.9600
G01 Z-1.7000
G01 Z0
G00 Z2.0000
G01 F300.00

M5
G00 Z15.0000
T5
G00 X0.0000 Y0.0000                
M6
(MSG, Change to Tool Dia = 0.9000 ||| Total drills for tool T5 = 2)
M0
G00 Z15.0000

G01 F300.00
M03
G00 X50.3040 Y37.1350
G01 Z-1.7000
G01 Z0
G00 Z2.0000
G00 X50.3040 Y34.5950
G01 Z-1.7000
G01 Z0
G00 Z2.0000
G01 F300.00

M5
G00 Z15.0000
T6
G00 X0.0000 Y0.0000                
M6
(MSG, Change to Tool Dia = 1.0000 ||| Total drills for tool T6 = 25)
M0
G00 Z15.0000

G01 F300.00
M03
G00 X21.9830 Y32.6900
G01 Z-1.7000
G01 Z0
G00 Z2.0000
G00 X21.9830 Y30.1500
G01 Z-1.7000
G01 Z0
G00 Z2.0000
G00 X21.9830 Y27.6100
G01 Z-1.7000
G01 Z0
G00 Z2.0000
G00 X21.9830 Y25.0700
G01 Z-1.7000
G01 Z0
G00 Z2.0000
G00 X21.9830 Y22.5300
G01 Z-1.7000
G01 Z0
G00 Z2.0000
G00 X21.9830 Y19.9900
G01 Z-1.7000
G01 Z0
G00 Z2.0000
G00 X21.9830 Y15.1640
G01 Z-1.7000
G01 Z0
G00 Z2.0000
G00 X48.4000 Y8.3350
G01 Z-1.7000
G01 Z0
G00 Z2.0000
G00 X48.4000 Y10.8750
G01 Z-1.7000
G01 Z0
G00 Z2.0000
G00 X49.0290 Y20.1020
G01 Z-1.7000
G01 Z0
G00 Z2.0000
G00 X49.0290 Y22.6420
G01 Z-1.7000
G01 Z0
G00 Z2.0000
G00 X49.0290 Y25.1820
G01 Z-1.7000
G01 Z0
G00 Z2.0000
G00 X49.2880 Y30.4040
G01 Z-1.7000
G01 Z0
G00 Z2.0000
G00 X46.7480 Y30.4040
G01 Z-1.7000
G01 Z0
G00 Z2.0000
G00 X44.5890 Y41.7070
G01 Z-1.7000
G01 Z0
G00 Z2.0000
G00 X44.5890 Y39.1670
G01 Z-1.7000
G01 Z0
G00 Z2.0000
G00 X44.5890 Y36.6270
G01 Z-1.7000
G01 Z0
G00 Z2.0000
G00 X44.2080 Y30.4040
G01 Z-1.7000
G01 Z0
G00 Z2.0000
G00 X46.4890 Y25.1820
G01 Z-1.7000
G01 Z0
G00 Z2.0000
G00 X46.4890 Y22.6420
G01 Z-1.7000
G01 Z0
G00 Z2.0000
G00 X46.4890 Y20.1020
G01 Z-1.7000
G01 Z0
G00 Z2.0000
G00 X45.0200 Y15.8000
G01 Z-1.7000
G01 Z0
G00 Z2.0000
G00 X42.4800 Y15.8000
G01 Z-1.7000
G01 Z0
G00 Z2.0000
G00 X39.9400 Y15.8000
G01 Z-1.7000
G01 Z0
G00 Z2.0000
G00 X37.4000 Y15.8000
G01 Z-1.7000
G01 Z0
G00 Z2.0000
G01 F300.00

M5
G00 Z15.0000
T7
G00 X0.0000 Y0.0000                
M6
(MSG, Change to Tool Dia = 1.1000 ||| Total drills for tool T7 = 4)
M0
G00 Z15.0000

G01 F300.00
M03
G00 X35.1000 Y39.4960
G01 Z-1.7000
G01 Z0
G00 Z2.0000
G00 X39.6000 Y39.4960
G01 Z-1.7000
G01 Z0
G00 Z2.0000
G00 X39.6000 Y32.9960
G01 Z-1.7000
G01 Z0
G00 Z2.0000
G00 X35.1000 Y32.9960
G01 Z-1.7000
G01 Z0
G00 Z2.0000
G01 F300.00

M5
G00 Z15.0000
T8
G00 X0.0000 Y0.0000                
M6
(MSG, Change to Tool Dia = 2.7000 ||| Total drills for tool T8 = 2)
M0
G00 Z15.0000

G01 F300.00
M03
G00 X12.1170 Y37.8970
G01 Z-1.7000
G01 Z0
G00 Z2.0000
G00 X17.1170 Y37.8970
G01 Z-1.7000
G01 Z0
G00 Z2.0000
M05
G00 Z0.50


