(G-CODE GENERATED BY FLATCAM v8.994 - www.flatcam.org - Version Date: 2020/11/7)

(Name: mcu_singleside-Edge_Cuts.gm1_cutout_1_cnc)
(Type: G-code from Geometry)
(Units: MM)

(Created on Monday, 04 September 2023 at 12:20)

(This preprocessor is the default preprocessor used by FlatCAM.)
(It is made to work with MACH3 compatible motion controllers.)

(TOOL DIAMETER: 0.7937 mm)
(Feedrate_XY: 120.0 mm/min)
(Feedrate_Z: 60.0 mm/min)
(Feedrate rapids 1500.0 mm/min)

(Z_Cut: -2.4 mm)
(Z_Move: 2.0 mm)
(Z Start: None mm)
(Z End: 15.0 mm)
(X,Y End: None mm)
(Steps per circle: 64)
(Preprocessor Geometry: default)

(X range:    3.0261 ...   61.3229  mm)
(Y range:    3.4591 ...   52.0909  mm)

(Spindle Speed: 0.0 RPM)
G21
G90
G94

G01 F120.00

M5
G00 Z15.0000
G00 X0.0000 Y0.0000
T1M6    
(MSG, Change to Tool Dia = 0.7937)
M0
G00 Z15.0000

M03
G01 F120.00
G00 X3.0261 Y29.8782
G01 F60.00
G01 Z-2.4000
G01 F120.00
G01 X3.0261 Y7.8560
G01 X3.0473 Y7.4250
G01 X3.1106 Y6.9982
G01 X3.2155 Y6.5796
G01 X3.3608 Y6.1734
G01 X3.5453 Y5.7833
G01 X3.7671 Y5.4132
G01 X4.0242 Y5.0666
G01 X4.3139 Y4.7469
G01 X4.6336 Y4.4572
G01 X4.9802 Y4.2001
G01 X5.3503 Y3.9783
G01 X5.7404 Y3.7938
G01 X6.1466 Y3.6485
G01 X6.5652 Y3.5436
G01 X6.9920 Y3.4803
G01 X7.4230 Y3.4591
G01 X34.2776 Y3.4591
G00 Z2.0000
G00 X3.0261 Y33.6719
G01 F60.00
G01 Z-2.4000
G01 F120.00
G01 X3.0261 Y47.6940
G01 X3.0473 Y48.1250
G01 X3.1106 Y48.5518
G01 X3.2155 Y48.9704
G01 X3.3608 Y49.3766
G01 X3.5453 Y49.7667
G01 X3.7671 Y50.1368
G01 X4.0242 Y50.4834
G01 X4.3139 Y50.8031
G01 X4.6336 Y51.0928
G01 X4.9802 Y51.3499
G01 X5.3503 Y51.5717
G01 X5.7404 Y51.7562
G01 X6.1466 Y51.9015
G01 X6.5652 Y52.0064
G01 X6.9920 Y52.0697
G01 X7.4230 Y52.0909
G01 X34.2776 Y52.0909
G00 Z2.0000
G00 X38.0713 Y52.0909
G01 F60.00
G01 Z-2.4000
G01 F120.00
G01 X56.9260 Y52.0909
G01 X57.3570 Y52.0697
G01 X57.7838 Y52.0064
G01 X58.2024 Y51.9015
G01 X58.6086 Y51.7562
G01 X58.9987 Y51.5717
G01 X59.3688 Y51.3499
G01 X59.7154 Y51.0928
G01 X60.0351 Y50.8031
G01 X60.3248 Y50.4834
G01 X60.5819 Y50.1368
G01 X60.8037 Y49.7667
G01 X60.9882 Y49.3766
G01 X61.1335 Y48.9704
G01 X61.2384 Y48.5518
G01 X61.3017 Y48.1250
G01 X61.3229 Y47.6940
G01 X61.3229 Y33.6719
G00 Z2.0000
G00 X61.3229 Y29.8782
G01 F60.00
G01 Z-2.4000
G01 F120.00
G01 X61.3229 Y7.8560
G01 X61.3017 Y7.4250
G01 X61.2384 Y6.9982
G01 X61.1335 Y6.5796
G01 X60.9882 Y6.1734
G01 X60.8037 Y5.7833
G01 X60.5819 Y5.4132
G01 X60.3248 Y5.0666
G01 X60.0351 Y4.7469
G01 X59.7154 Y4.4572
G01 X59.3688 Y4.2001
G01 X58.9987 Y3.9783
G01 X58.6086 Y3.7938
G01 X58.2024 Y3.6485
G01 X57.7838 Y3.5436
G01 X57.3570 Y3.4803
G01 X56.9260 Y3.4591
G01 X38.0713 Y3.4591
G00 Z2.0000
M05
G00 Z2.0000
G00 Z15.00


