(G-CODE GENERATED BY FLATCAM v8.994 - www.flatcam.org - Version Date: 2020/11/7)

(Name: mcu_singleside-F_Cu.gtl_iso_combined_cnc)
(Type: G-code from Geometry)
(Units: MM)

(Created on Friday, 01 September 2023 at 18:07)

(This preprocessor is the default preprocessor used by FlatCAM.)
(It is made to work with MACH3 compatible motion controllers.)

(TOOL DIAMETER: 0.1536 mm)
(Feedrate_XY: 120.0 mm/min)
(Feedrate_Z: 60.0 mm/min)
(Feedrate rapids 1500.0 mm/min)

(Z_Cut: -0.1 mm)
(Z_Move: 2.0 mm)
(Z Start: None mm)
(Z End: 15.0 mm)
(X,Y End: None mm)
(Steps per circle: 64)
(Preprocessor Geometry: default)

(X range:    5.2164 ...   55.0523  mm)
(Y range:    5.5297 ...   45.8666  mm)

(Spindle Speed: 0.0 RPM)
G21
G90
G94

G01 F120.00

M5
G00 Z15.0000
G00 X0.0000 Y0.0000
T2M6    
(MSG, Change to Tool Dia = 0.1536)
M0
G00 Z15.0000

M03
G01 F120.00
G00 X14.9882 Y14.4170
G01 F60.00
G01 Z-0.1000
G01 F120.00
G01 X14.9882 Y13.1170
G01 X14.9901 Y13.0744
G01 X14.9913 Y13.0624
G01 X14.9957 Y13.0322
G01 X14.9978 Y13.0203
G01 X15.0004 Y13.0085
G01 X15.0096 Y12.9731
G01 X15.0216 Y12.9385
G01 X15.0260 Y12.9273
G01 X15.0414 Y12.8941
G01 X15.0468 Y12.8833
G01 X15.0653 Y12.8518
G01 X15.0718 Y12.8416
G01 X15.0787 Y12.8317
G01 X15.0970 Y12.8072
G01 X15.1047 Y12.7979
G01 X15.1334 Y12.7664
G01 X15.1604 Y12.7417
G01 X15.1742 Y12.7300
G01 X15.1987 Y12.7117
G01 X15.2136 Y12.7015
G01 X15.2450 Y12.6827
G01 X15.2611 Y12.6744
G01 X15.2887 Y12.6614
G01 X15.3055 Y12.6546
G01 X15.3401 Y12.6426
G01 X15.3755 Y12.6334
G01 X15.3932 Y12.6297
G01 X15.4298 Y12.6242
G01 X15.4427 Y12.6230
G01 X15.4719 Y12.6215
G01 X15.4840 Y12.6212
G01 X16.1340 Y12.6212
G01 X16.1706 Y12.6227
G01 X16.1886 Y12.6243
G01 X16.2307 Y12.6308
G01 X16.2663 Y12.6394
G01 X16.2837 Y12.6444
G01 X16.3237 Y12.6590
G01 X16.3569 Y12.6744
G01 X16.3677 Y12.6798
G01 X16.3992 Y12.6983
G01 X16.4094 Y12.7048
G01 X16.4193 Y12.7117
G01 X16.4438 Y12.7300
G01 X16.4531 Y12.7377
G01 X16.4846 Y12.7664
G01 X16.5093 Y12.7934
G01 X16.5172 Y12.8025
G01 X16.5246 Y12.8120
G01 X16.5462 Y12.8416
G01 X16.5653 Y12.8728
G01 X16.5712 Y12.8833
G01 X16.5766 Y12.8941
G01 X16.5920 Y12.9273
G01 X16.6046 Y12.9616
G01 X16.6084 Y12.9731
G01 X16.6176 Y13.0085
G01 X16.6202 Y13.0203
G01 X16.6259 Y13.0564
G01 X16.6275 Y13.0692
G01 X16.6295 Y13.1049
G01 X16.6298 Y13.1170
G01 X16.6298 Y14.4170
G01 X16.6295 Y14.4291
G01 X16.6274 Y14.4656
G01 X16.6223 Y14.5018
G01 X16.6202 Y14.5137
G01 X16.6176 Y14.5255
G01 X16.6084 Y14.5609
G01 X16.5964 Y14.5955
G01 X16.5920 Y14.6067
G01 X16.5871 Y14.6177
G01 X16.5740 Y14.6453
G01 X16.5683 Y14.6560
G01 X16.5462 Y14.6924
G01 X16.5210 Y14.7268
G01 X16.5133 Y14.7361
G01 X16.4929 Y14.7588
G01 X16.4846 Y14.7676
G01 X16.4758 Y14.7759
G01 X16.4485 Y14.8002
G01 X16.4390 Y14.8076
G01 X16.4094 Y14.8292
G01 X16.3782 Y14.8483
G01 X16.3677 Y14.8542
G01 X16.3293 Y14.8726
G01 X16.3181 Y14.8773
G01 X16.2894 Y14.8876
G01 X16.2779 Y14.8914
G01 X16.2642 Y14.8952
G01 X16.2642 Y17.3972
G01 X16.3696 Y17.3972
G01 X16.3817 Y17.3975
G01 X16.3937 Y17.3984
G01 X16.4116 Y17.4009
G01 X16.4293 Y17.4046
G01 X16.4467 Y17.4096
G01 X16.4636 Y17.4159
G01 X16.4801 Y17.4235
G01 X16.4907 Y17.4292
G01 X16.5011 Y17.4354
G01 X16.5160 Y17.4456
G01 X16.5255 Y17.4530
G01 X16.5346 Y17.4609
G01 X16.5476 Y17.4735
G01 X16.5557 Y17.4825
G01 X16.5633 Y17.4918
G01 X16.5739 Y17.5065
G01 X16.5804 Y17.5167
G01 X16.5858 Y17.5262
G01 X19.0964 Y17.5262
G01 X20.8872 Y15.7353
G01 X20.8872 Y14.3140
G01 X20.8879 Y14.2959
G01 X20.8891 Y14.2839
G01 X20.8920 Y14.2661
G01 X20.8946 Y14.2543
G01 X20.8978 Y14.2427
G01 X20.9037 Y14.2256
G01 X20.9108 Y14.2089
G01 X20.9192 Y14.1929
G01 X20.9287 Y14.1775
G01 X20.9393 Y14.1628
G01 X20.9509 Y14.1490
G01 X20.9635 Y14.1360
G01 X20.9771 Y14.1240
G01 X20.9915 Y14.1131
G01 X21.0015 Y14.1064
G01 X21.0119 Y14.1002
G01 X21.0279 Y14.0918
G01 X21.0446 Y14.0847
G01 X21.0617 Y14.0788
G01 X21.0792 Y14.0742
G01 X21.0910 Y14.0719
G01 X21.1029 Y14.0701
G01 X21.1209 Y14.0685
G01 X21.1330 Y14.0682
G01 X22.8390 Y14.0683
G01 X22.8511 Y14.0689
G01 X22.8631 Y14.0701
G01 X22.8750 Y14.0719
G01 X22.8868 Y14.0742
G01 X22.8985 Y14.0771
G01 X22.9101 Y14.0806
G01 X22.9214 Y14.0847
G01 X22.9326 Y14.0893
G01 X22.9435 Y14.0945
G01 X22.9541 Y14.1002
G01 X22.9645 Y14.1064
G01 X22.9745 Y14.1131
G01 X22.9889 Y14.1240
G01 X22.9980 Y14.1319
G01 X23.0068 Y14.1402
G01 X23.0191 Y14.1535
G01 X23.0267 Y14.1628
G01 X23.0339 Y14.1725
G01 X23.0406 Y14.1825
G01 X23.0468 Y14.1929
G01 X23.0525 Y14.2035
G01 X23.0577 Y14.2144
G01 X23.0623 Y14.2256
G01 X23.0664 Y14.2369
G01 X23.0699 Y14.2485
G01 X23.0728 Y14.2602
G01 X23.0751 Y14.2720
G01 X23.0769 Y14.2839
G01 X23.0781 Y14.2959
G01 X23.0787 Y14.3080
G01 X23.0788 Y16.0140
G01 X23.0785 Y16.0261
G01 X23.0776 Y16.0381
G01 X23.0761 Y16.0501
G01 X23.0740 Y16.0619
G01 X23.0699 Y16.0795
G01 X23.0644 Y16.0968
G01 X23.0577 Y16.1136
G01 X23.0497 Y16.1299
G01 X23.0406 Y16.1455
G01 X23.0304 Y16.1604
G01 X23.0230 Y16.1699
G01 X23.0151 Y16.1790
G01 X23.0025 Y16.1920
G01 X22.9889 Y16.2040
G01 X22.9794 Y16.2114
G01 X22.9695 Y16.2183
G01 X22.9541 Y16.2278
G01 X22.9381 Y16.2362
G01 X22.9214 Y16.2433
G01 X22.9101 Y16.2474
G01 X22.8985 Y16.2509
G01 X22.8809 Y16.2550
G01 X22.8631 Y16.2579
G01 X22.8451 Y16.2595
G01 X22.8330 Y16.2598
G01 X21.4117 Y16.2598
G01 X19.5079 Y18.1634
G01 X19.4899 Y18.1798
G01 X19.4757 Y18.1911
G01 X19.4560 Y18.2053
G01 X19.4353 Y18.2181
G01 X19.4195 Y18.2268
G01 X19.3975 Y18.2372
G01 X19.3807 Y18.2439
G01 X19.3576 Y18.2519
G01 X19.3282 Y18.2594
G01 X19.3105 Y18.2628
G01 X19.2923 Y18.2654
G01 X19.2803 Y18.2666
G01 X19.2500 Y18.2678
G01 X16.5858 Y18.2678
G01 X16.5772 Y18.2825
G01 X16.5705 Y18.2925
G01 X16.5596 Y18.3069
G01 X16.5517 Y18.3160
G01 X16.5391 Y18.3290
G01 X16.5301 Y18.3371
G01 X16.5160 Y18.3484
G01 X16.5061 Y18.3553
G01 X16.4959 Y18.3618
G01 X16.4801 Y18.3705
G01 X16.4692 Y18.3757
G01 X16.4524 Y18.3824
G01 X16.4351 Y18.3879
G01 X16.4234 Y18.3908
G01 X16.4116 Y18.3931
G01 X16.3937 Y18.3956
G01 X16.3817 Y18.3965
G01 X16.3696 Y18.3968
G01 X15.4171 Y18.3968
G01 X15.4050 Y18.3965
G01 X15.3930 Y18.3956
G01 X15.3810 Y18.3941
G01 X15.3692 Y18.3920
G01 X15.3516 Y18.3879
G01 X15.3343 Y18.3824
G01 X15.3175 Y18.3757
G01 X15.3012 Y18.3677
G01 X15.2856 Y18.3586
G01 X15.2756 Y18.3519
G01 X15.2612 Y18.3410
G01 X15.2476 Y18.3290
G01 X15.2350 Y18.3160
G01 X15.2271 Y18.3069
G01 X15.2162 Y18.2925
G01 X15.2063 Y18.2773
G01 X15.1976 Y18.2615
G01 X15.1900 Y18.2450
G01 X15.1837 Y18.2281
G01 X15.1787 Y18.2107
G01 X15.1761 Y18.1989
G01 X15.1732 Y18.1811
G01 X15.1716 Y18.1631
G01 X15.1713 Y18.1510
G01 X15.1713 Y17.6430
G01 X15.1716 Y17.6309
G01 X15.1725 Y17.6189
G01 X15.1740 Y17.6069
G01 X15.1761 Y17.5951
G01 X15.1802 Y17.5775
G01 X15.1857 Y17.5602
G01 X15.1900 Y17.5490
G01 X15.1976 Y17.5325
G01 X15.2033 Y17.5219
G01 X15.2095 Y17.5115
G01 X15.2197 Y17.4966
G01 X15.2271 Y17.4871
G01 X15.2391 Y17.4735
G01 X15.2476 Y17.4650
G01 X15.2612 Y17.4530
G01 X15.2707 Y17.4456
G01 X15.2806 Y17.4387
G01 X15.2908 Y17.4322
G01 X15.3012 Y17.4263
G01 X15.3120 Y17.4208
G01 X15.3231 Y17.4159
G01 X15.3343 Y17.4116
G01 X15.3458 Y17.4078
G01 X15.3633 Y17.4032
G01 X15.3751 Y17.4009
G01 X15.3930 Y17.3984
G01 X15.4111 Y17.3973
G01 X15.5225 Y17.3972
G01 X15.5225 Y14.9128
G01 X15.4780 Y14.9127
G01 X15.4474 Y14.9113
G01 X15.4294 Y14.9097
G01 X15.3992 Y14.9053
G01 X15.3814 Y14.9020
G01 X15.3459 Y14.8931
G01 X15.3343 Y14.8896
G01 X15.3055 Y14.8794
G01 X15.2887 Y14.8726
G01 X15.2557 Y14.8570
G01 X15.2398 Y14.8483
G01 X15.2136 Y14.8325
G01 X15.1987 Y14.8223
G01 X15.1742 Y14.8040
G01 X15.1649 Y14.7963
G01 X15.1422 Y14.7759
G01 X15.1292 Y14.7632
G01 X15.1047 Y14.7361
G01 X15.0934 Y14.7220
G01 X15.0752 Y14.6974
G01 X15.0653 Y14.6822
G01 X15.0468 Y14.6507
G01 X15.0284 Y14.6123
G01 X15.0216 Y14.5955
G01 X15.0096 Y14.5609
G01 X15.0004 Y14.5255
G01 X14.9978 Y14.5137
G01 X14.9921 Y14.4776
G01 X14.9905 Y14.4648
G01 X14.9885 Y14.4291
G01 X14.9882 Y14.4170
G00 Z2.0000
G00 X15.0727 Y14.4170
G01 F60.00
G01 Z-0.1000
G01 F120.00
G01 X15.0727 Y13.1170
G01 X15.0741 Y13.0846
G01 X15.0751 Y13.0728
G01 X15.0793 Y13.0446
G01 X15.0824 Y13.0290
G01 X15.0904 Y12.9976
G01 X15.1040 Y12.9596
G01 X15.1177 Y12.9302
G01 X15.1252 Y12.9162
G01 X15.1420 Y12.8885
G01 X15.1661 Y12.8561
G01 X15.1932 Y12.8262
G01 X15.2231 Y12.7991
G01 X15.2555 Y12.7750
G01 X15.2832 Y12.7582
G01 X15.2972 Y12.7507
G01 X15.3230 Y12.7386
G01 X15.3340 Y12.7342
G01 X15.3646 Y12.7234
G01 X15.3960 Y12.7154
G01 X15.4077 Y12.7129
G01 X15.4400 Y12.7081
G01 X15.4485 Y12.7073
G01 X15.4761 Y12.7059
G01 X16.1340 Y12.7057
G01 X16.1743 Y12.7077
G01 X16.2064 Y12.7123
G01 X16.2220 Y12.7154
G01 X16.2534 Y12.7234
G01 X16.2914 Y12.7370
G01 X16.3208 Y12.7507
G01 X16.3348 Y12.7582
G01 X16.3625 Y12.7750
G01 X16.3949 Y12.7991
G01 X16.4248 Y12.8262
G01 X16.4519 Y12.8561
G01 X16.4760 Y12.8885
G01 X16.4967 Y12.9231
G01 X16.5140 Y12.9596
G01 X16.5276 Y12.9976
G01 X16.5374 Y13.0368
G01 X16.5434 Y13.0772
G01 X16.5453 Y13.1170
G01 X16.5451 Y14.4249
G01 X16.5433 Y14.4573
G01 X16.5374 Y14.4972
G01 X16.5276 Y14.5364
G01 X16.5140 Y14.5744
G01 X16.4967 Y14.6109
G01 X16.4760 Y14.6455
G01 X16.4519 Y14.6779
G01 X16.4303 Y14.7021
G01 X16.4220 Y14.7106
G01 X16.4009 Y14.7298
G01 X16.3887 Y14.7398
G01 X16.3690 Y14.7544
G01 X16.3592 Y14.7611
G01 X16.3348 Y14.7758
G01 X16.3244 Y14.7815
G01 X16.2914 Y14.7970
G01 X16.2534 Y14.8106
G01 X16.2142 Y14.8204
G01 X16.1797 Y14.8257
G01 X16.1797 Y17.4817
G01 X16.3775 Y17.4819
G01 X16.3893 Y17.4829
G01 X16.4011 Y17.4848
G01 X16.4126 Y17.4876
G01 X16.4239 Y17.4911
G01 X16.4313 Y17.4940
G01 X16.4421 Y17.4989
G01 X16.4525 Y17.5047
G01 X16.4625 Y17.5111
G01 X16.4719 Y17.5183
G01 X16.4779 Y17.5235
G01 X16.4864 Y17.5318
G01 X16.4917 Y17.5377
G01 X16.4967 Y17.5438
G01 X16.5037 Y17.5534
G01 X16.5079 Y17.5601
G01 X16.5137 Y17.5705
G01 X16.5170 Y17.5776
G01 X16.5215 Y17.5887
G01 X16.5250 Y17.6000
G01 X16.5276 Y17.6107
G01 X19.1314 Y17.6107
G01 X20.9717 Y15.7703
G01 X20.9717 Y14.3140
G01 X20.9722 Y14.3021
G01 X20.9741 Y14.2864
G01 X20.9766 Y14.2748
G01 X20.9799 Y14.2634
G01 X20.9840 Y14.2523
G01 X20.9889 Y14.2415
G01 X20.9947 Y14.2311
G01 X21.0011 Y14.2211
G01 X21.0083 Y14.2117
G01 X21.0190 Y14.2000
G01 X21.0277 Y14.1919
G01 X21.0369 Y14.1845
G01 X21.0467 Y14.1777
G01 X21.0570 Y14.1718
G01 X21.0713 Y14.1650
G01 X21.0824 Y14.1609
G01 X21.0938 Y14.1576
G01 X21.1015 Y14.1558
G01 X21.1133 Y14.1539
G01 X21.1211 Y14.1532
G01 X21.1330 Y14.1527
G01 X22.8370 Y14.1528
G01 X22.8488 Y14.1535
G01 X22.8645 Y14.1558
G01 X22.8798 Y14.1597
G01 X22.8947 Y14.1650
G01 X22.9090 Y14.1718
G01 X22.9226 Y14.1799
G01 X22.9353 Y14.1893
G01 X22.9470 Y14.2000
G01 X22.9577 Y14.2117
G01 X22.9671 Y14.2244
G01 X22.9752 Y14.2380
G01 X22.9820 Y14.2523
G01 X22.9873 Y14.2672
G01 X22.9912 Y14.2825
G01 X22.9935 Y14.2982
G01 X22.9942 Y14.3100
G01 X22.9943 Y16.0140
G01 X22.9935 Y16.0298
G01 X22.9912 Y16.0455
G01 X22.9884 Y16.0570
G01 X22.9849 Y16.0683
G01 X22.9804 Y16.0794
G01 X22.9733 Y16.0935
G01 X22.9671 Y16.1036
G01 X22.9577 Y16.1163
G01 X22.9470 Y16.1280
G01 X22.9383 Y16.1361
G01 X22.9259 Y16.1459
G01 X22.9159 Y16.1523
G01 X22.9055 Y16.1581
G01 X22.8947 Y16.1630
G01 X22.8836 Y16.1671
G01 X22.8683 Y16.1714
G01 X22.8567 Y16.1735
G01 X22.8449 Y16.1748
G01 X22.8330 Y16.1753
G01 X21.3767 Y16.1753
G01 X19.4525 Y18.0995
G01 X19.4376 Y18.1132
G01 X19.4286 Y18.1208
G01 X19.4091 Y18.1351
G01 X19.3919 Y18.1456
G01 X19.3815 Y18.1514
G01 X19.3632 Y18.1600
G01 X19.3522 Y18.1644
G01 X19.3331 Y18.1710
G01 X19.3097 Y18.1770
G01 X19.2981 Y18.1792
G01 X19.2781 Y18.1820
G01 X19.2500 Y18.1833
G01 X16.5276 Y18.1833
G01 X16.5239 Y18.1978
G01 X16.5201 Y18.2090
G01 X16.5154 Y18.2200
G01 X16.5099 Y18.2305
G01 X16.5037 Y18.2406
G01 X16.4967 Y18.2502
G01 X16.4891 Y18.2593
G01 X16.4779 Y18.2705
G01 X16.4688 Y18.2781
G01 X16.4592 Y18.2851
G01 X16.4491 Y18.2913
G01 X16.4350 Y18.2984
G01 X16.4202 Y18.3041
G01 X16.4088 Y18.3074
G01 X16.3972 Y18.3099
G01 X16.3854 Y18.3115
G01 X16.3696 Y18.3123
G01 X15.4171 Y18.3123
G01 X15.4013 Y18.3115
G01 X15.3856 Y18.3092
G01 X15.3741 Y18.3064
G01 X15.3628 Y18.3029
G01 X15.3517 Y18.2984
G01 X15.3411 Y18.2932
G01 X15.3308 Y18.2873
G01 X15.3210 Y18.2805
G01 X15.3118 Y18.2731
G01 X15.3031 Y18.2650
G01 X15.2950 Y18.2563
G01 X15.2876 Y18.2471
G01 X15.2808 Y18.2373
G01 X15.2749 Y18.2270
G01 X15.2697 Y18.2164
G01 X15.2652 Y18.2053
G01 X15.2617 Y18.1940
G01 X15.2589 Y18.1825
G01 X15.2566 Y18.1668
G01 X15.2558 Y18.1510
G01 X15.2558 Y17.6430
G01 X15.2563 Y17.6311
G01 X15.2576 Y17.6193
G01 X15.2597 Y17.6077
G01 X15.2628 Y17.5962
G01 X15.2666 Y17.5850
G01 X15.2697 Y17.5776
G01 X15.2749 Y17.5670
G01 X15.2808 Y17.5567
G01 X15.2876 Y17.5469
G01 X15.2950 Y17.5377
G01 X15.3003 Y17.5318
G01 X15.3088 Y17.5235
G01 X15.3179 Y17.5159
G01 X15.3275 Y17.5089
G01 X15.3376 Y17.5027
G01 X15.3481 Y17.4972
G01 X15.3554 Y17.4940
G01 X15.3665 Y17.4899
G01 X15.3818 Y17.4856
G01 X15.3974 Y17.4829
G01 X15.4092 Y17.4819
G01 X15.6070 Y17.4817
G01 X15.6070 Y14.8283
G01 X15.4761 Y14.8281
G01 X15.4516 Y14.8269
G01 X15.4398 Y14.8259
G01 X15.4077 Y14.8211
G01 X15.3960 Y14.8186
G01 X15.3684 Y14.8117
G01 X15.3571 Y14.8081
G01 X15.3266 Y14.7970
G01 X15.2972 Y14.7833
G01 X15.2867 Y14.7778
G01 X15.2588 Y14.7611
G01 X15.2490 Y14.7544
G01 X15.2262 Y14.7374
G01 X15.2171 Y14.7298
G01 X15.1932 Y14.7078
G01 X15.1661 Y14.6779
G01 X15.1420 Y14.6455
G01 X15.1252 Y14.6178
G01 X15.1177 Y14.6038
G01 X15.1056 Y14.5780
G01 X15.1012 Y14.5670
G01 X15.0904 Y14.5364
G01 X15.0824 Y14.5050
G01 X15.0799 Y14.4933
G01 X15.0751 Y14.4610
G01 X15.0741 Y14.4494
G01 X15.0727 Y14.4170
G00 Z2.0000
G00 X15.1572 Y14.4170
G01 F60.00
G01 Z-0.1000
G01 F120.00
G01 X15.1573 Y13.1132
G01 X15.1588 Y13.0850
G01 X15.1635 Y13.0532
G01 X15.1713 Y13.0221
G01 X15.1807 Y12.9955
G01 X15.1836 Y12.9885
G01 X15.1941 Y12.9663
G01 X15.1976 Y12.9597
G01 X15.2123 Y12.9354
G01 X15.2291 Y12.9127
G01 X15.2338 Y12.9068
G01 X15.2529 Y12.8859
G01 X15.2767 Y12.8644
G01 X15.3024 Y12.8453
G01 X15.3267 Y12.8306
G01 X15.3333 Y12.8271
G01 X15.3555 Y12.8166
G01 X15.3625 Y12.8137
G01 X15.3891 Y12.8043
G01 X15.4166 Y12.7973
G01 X15.4240 Y12.7958
G01 X15.4502 Y12.7920
G01 X15.4802 Y12.7903
G01 X16.1340 Y12.7902
G01 X16.1642 Y12.7916
G01 X16.1940 Y12.7958
G01 X16.2014 Y12.7973
G01 X16.2289 Y12.8043
G01 X16.2591 Y12.8151
G01 X16.2847 Y12.8271
G01 X16.2913 Y12.8306
G01 X16.3156 Y12.8453
G01 X16.3383 Y12.8621
G01 X16.3442 Y12.8668
G01 X16.3651 Y12.8859
G01 X16.3866 Y12.9097
G01 X16.4057 Y12.9354
G01 X16.4222 Y12.9629
G01 X16.4359 Y12.9919
G01 X16.4467 Y13.0221
G01 X16.4545 Y13.0532
G01 X16.4594 Y13.0872
G01 X16.4608 Y13.1170
G01 X16.4608 Y14.4170
G01 X16.4595 Y14.4453
G01 X16.4588 Y14.4528
G01 X16.4545 Y14.4808
G01 X16.4467 Y14.5119
G01 X16.4359 Y14.5421
G01 X16.4222 Y14.5711
G01 X16.4057 Y14.5986
G01 X16.3866 Y14.6243
G01 X16.3651 Y14.6481
G01 X16.3413 Y14.6696
G01 X16.3156 Y14.6887
G01 X16.2881 Y14.7052
G01 X16.2591 Y14.7189
G01 X16.2289 Y14.7297
G01 X16.1978 Y14.7375
G01 X16.1660 Y14.7422
G01 X16.1359 Y14.7438
G01 X16.0952 Y14.7438
G01 X16.0952 Y17.5662
G01 X16.3715 Y17.5662
G01 X16.3827 Y17.5673
G01 X16.3883 Y17.5685
G01 X16.3955 Y17.5707
G01 X16.4041 Y17.5744
G01 X16.4107 Y17.5781
G01 X16.4168 Y17.5825
G01 X16.4226 Y17.5874
G01 X16.4278 Y17.5928
G01 X16.4324 Y17.5988
G01 X16.4373 Y17.6068
G01 X16.4406 Y17.6136
G01 X16.4431 Y17.6207
G01 X16.4445 Y17.6262
G01 X16.4462 Y17.6373
G01 X16.4464 Y17.6951
G01 X19.1664 Y17.6951
G01 X21.0562 Y15.8053
G01 X21.0563 Y14.3102
G01 X21.0577 Y14.2990
G01 X21.0595 Y14.2917
G01 X21.0613 Y14.2864
G01 X21.0662 Y14.2761
G01 X21.0702 Y14.2698
G01 X21.0736 Y14.2653
G01 X21.0774 Y14.2610
G01 X21.0828 Y14.2558
G01 X21.0919 Y14.2491
G01 X21.0985 Y14.2454
G01 X21.1036 Y14.2430
G01 X21.1143 Y14.2395
G01 X21.1236 Y14.2378
G01 X21.1330 Y14.2372
G01 X22.8330 Y14.2372
G01 X22.8405 Y14.2376
G01 X22.8480 Y14.2387
G01 X22.8553 Y14.2405
G01 X22.8624 Y14.2430
G01 X22.8692 Y14.2463
G01 X22.8757 Y14.2501
G01 X22.8817 Y14.2546
G01 X22.8873 Y14.2597
G01 X22.8924 Y14.2653
G01 X22.8969 Y14.2713
G01 X22.9007 Y14.2778
G01 X22.9040 Y14.2846
G01 X22.9065 Y14.2917
G01 X22.9083 Y14.2990
G01 X22.9094 Y14.3065
G01 X22.9098 Y14.3140
G01 X22.9098 Y16.0140
G01 X22.9094 Y16.0215
G01 X22.9083 Y16.0290
G01 X22.9070 Y16.0345
G01 X22.9047 Y16.0416
G01 X22.9016 Y16.0485
G01 X22.8989 Y16.0535
G01 X22.8958 Y16.0582
G01 X22.8912 Y16.0642
G01 X22.8832 Y16.0722
G01 X22.8741 Y16.0789
G01 X22.8675 Y16.0826
G01 X22.8624 Y16.0850
G01 X22.8553 Y16.0875
G01 X22.8498 Y16.0889
G01 X22.8424 Y16.0902
G01 X22.8368 Y16.0907
G01 X21.3417 Y16.0908
G01 X19.3927 Y18.0397
G01 X19.3809 Y18.0506
G01 X19.3751 Y18.0554
G01 X19.3621 Y18.0648
G01 X19.3484 Y18.0732
G01 X19.3418 Y18.0767
G01 X19.3273 Y18.0835
G01 X19.3086 Y18.0902
G01 X19.2931 Y18.0942
G01 X19.2857 Y18.0956
G01 X19.2698 Y18.0979
G01 X19.2500 Y18.0989
G01 X16.4464 Y18.0989
G01 X16.4464 Y18.1510
G01 X16.4460 Y18.1585
G01 X16.4449 Y18.1660
G01 X16.4431 Y18.1733
G01 X16.4406 Y18.1804
G01 X16.4373 Y18.1872
G01 X16.4324 Y18.1952
G01 X16.4265 Y18.2026
G01 X16.4212 Y18.2079
G01 X16.4138 Y18.2138
G01 X16.4058 Y18.2187
G01 X16.3972 Y18.2227
G01 X16.3883 Y18.2255
G01 X16.3790 Y18.2272
G01 X16.3696 Y18.2278
G01 X15.4171 Y18.2278
G01 X15.4096 Y18.2274
G01 X15.4021 Y18.2263
G01 X15.3912 Y18.2233
G01 X15.3860 Y18.2212
G01 X15.3792 Y18.2178
G01 X15.3744 Y18.2149
G01 X15.3684 Y18.2104
G01 X15.3602 Y18.2026
G01 X15.3566 Y18.1982
G01 X15.3522 Y18.1921
G01 X15.3469 Y18.1821
G01 X15.3442 Y18.1751
G01 X15.3426 Y18.1697
G01 X15.3407 Y18.1585
G01 X15.3403 Y18.1510
G01 X15.3403 Y17.6430
G01 X15.3409 Y17.6336
G01 X15.3422 Y17.6262
G01 X15.3442 Y17.6189
G01 X15.3469 Y17.6119
G01 X15.3522 Y17.6019
G01 X15.3577 Y17.5943
G01 X15.3641 Y17.5874
G01 X15.3714 Y17.5813
G01 X15.3809 Y17.5753
G01 X15.3895 Y17.5713
G01 X15.3984 Y17.5685
G01 X15.4077 Y17.5668
G01 X15.4171 Y17.5662
G01 X15.6915 Y17.5662
G01 X15.6915 Y14.7438
G01 X15.4840 Y14.7438
G01 X15.4557 Y14.7425
G01 X15.4482 Y14.7418
G01 X15.4240 Y14.7382
G01 X15.4166 Y14.7367
G01 X15.3891 Y14.7297
G01 X15.3625 Y14.7203
G01 X15.3555 Y14.7174
G01 X15.3299 Y14.7052
G01 X15.3056 Y14.6907
G01 X15.2994 Y14.6866
G01 X15.2767 Y14.6696
G01 X15.2556 Y14.6507
G01 X15.2503 Y14.6454
G01 X15.2314 Y14.6243
G01 X15.2144 Y14.6016
G01 X15.2103 Y14.5954
G01 X15.1958 Y14.5711
G01 X15.1836 Y14.5455
G01 X15.1807 Y14.5385
G01 X15.1713 Y14.5119
G01 X15.1643 Y14.4844
G01 X15.1628 Y14.4770
G01 X15.1587 Y14.4488
G01 X15.1572 Y14.4170
G00 Z2.0000
G00 X14.9934 Y19.4993
G01 F60.00
G01 Z-0.1000
G01 F120.00
G01 X14.9983 Y19.4533
G01 X15.0414 Y19.3379
G01 X15.1144 Y19.2403
G01 X15.2120 Y19.1673
G01 X15.3274 Y19.1242
G01 X15.3733 Y19.1193
G01 X16.4134 Y19.1193
G01 X16.4593 Y19.1242
G01 X16.5747 Y19.1673
G01 X16.6723 Y19.2403
G01 X16.7453 Y19.3379
G01 X16.7884 Y19.4533
G01 X16.7933 Y19.4992
G01 X16.7933 Y20.0948
G01 X16.7884 Y20.1407
G01 X16.7453 Y20.2561
G01 X16.6723 Y20.3537
G01 X16.5747 Y20.4267
G01 X16.4593 Y20.4698
G01 X16.4134 Y20.4747
G01 X15.3733 Y20.4747
G01 X15.3274 Y20.4698
G01 X15.2120 Y20.4267
G01 X15.1144 Y20.3537
G01 X15.0414 Y20.2561
G01 X14.9983 Y20.1407
G01 X14.9934 Y20.0948
G01 X14.9934 Y19.4993
G00 Z2.0000
G00 X15.0779 Y19.5038
G01 F60.00
G01 Z-0.1000
G01 F120.00
G01 X15.0812 Y19.4729
G01 X15.1163 Y19.3788
G01 X15.1748 Y19.3007
G01 X15.2529 Y19.2422
G01 X15.3470 Y19.2071
G01 X15.3779 Y19.2038
G01 X16.4088 Y19.2038
G01 X16.4397 Y19.2071
G01 X16.5338 Y19.2422
G01 X16.6119 Y19.3007
G01 X16.6704 Y19.3788
G01 X16.7055 Y19.4729
G01 X16.7088 Y19.5038
G01 X16.7088 Y20.0902
G01 X16.7055 Y20.1211
G01 X16.6704 Y20.2152
G01 X16.6119 Y20.2933
G01 X16.5338 Y20.3518
G01 X16.4397 Y20.3869
G01 X16.4088 Y20.3902
G01 X15.3779 Y20.3902
G01 X15.3470 Y20.3869
G01 X15.2529 Y20.3518
G01 X15.1748 Y20.2933
G01 X15.1163 Y20.2152
G01 X15.0812 Y20.1211
G01 X15.0779 Y20.0902
G01 X15.0779 Y19.5038
G00 Z2.0000
G00 X15.1624 Y19.5083
G01 F60.00
G01 Z-0.1000
G01 F120.00
G01 X15.1641 Y19.4925
G01 X15.1912 Y19.4197
G01 X15.2351 Y19.3610
G01 X15.2938 Y19.3171
G01 X15.3666 Y19.2900
G01 X15.3824 Y19.2883
G01 X16.4043 Y19.2883
G01 X16.4201 Y19.2900
G01 X16.4929 Y19.3171
G01 X16.5516 Y19.3610
G01 X16.5955 Y19.4197
G01 X16.6226 Y19.4925
G01 X16.6243 Y19.5083
G01 X16.6243 Y20.0857
G01 X16.6226 Y20.1015
G01 X16.5955 Y20.1743
G01 X16.5516 Y20.2330
G01 X16.4929 Y20.2769
G01 X16.4201 Y20.3040
G01 X16.4043 Y20.3057
G01 X15.3824 Y20.3057
G01 X15.3666 Y20.3040
G01 X15.2938 Y20.2769
G01 X15.2351 Y20.2330
G01 X15.1912 Y20.1743
G01 X15.1641 Y20.1015
G01 X15.1624 Y20.0857
G01 X15.1624 Y19.5083
G00 Z2.0000
G00 X14.0627 Y19.5430
G01 F60.00
G01 Z-0.1000
G01 F120.00
G01 X14.0620 Y19.5249
G01 X14.0600 Y19.5069
G01 X14.0567 Y19.4892
G01 X14.0521 Y19.4717
G01 X14.0462 Y19.4546
G01 X14.0416 Y19.4434
G01 X14.0336 Y19.4272
G01 X14.0245 Y19.4115
G01 X14.0143 Y19.3966
G01 X14.0069 Y19.3871
G01 X13.9949 Y19.3735
G01 X13.9819 Y19.3609
G01 X13.9681 Y19.3493
G01 X13.9534 Y19.3387
G01 X13.9380 Y19.3292
G01 X13.9244 Y19.3220
G01 X13.9364 Y19.3157
G01 X13.9402 Y19.3171
G01 X13.9989 Y19.3610
G01 X14.0428 Y19.4197
G01 X14.0699 Y19.4925
G01 X14.0716 Y19.5083
G01 X14.0716 Y20.0857
G01 X14.0699 Y20.1015
G01 X14.0428 Y20.1743
G01 X13.9989 Y20.2330
G01 X13.9402 Y20.2769
G01 X13.8674 Y20.3040
G01 X13.8516 Y20.3057
G01 X12.8297 Y20.3057
G01 X12.8139 Y20.3040
G01 X12.7411 Y20.2769
G01 X12.6824 Y20.2330
G01 X12.6385 Y20.1743
G01 X12.6114 Y20.1015
G01 X12.6097 Y20.0857
G01 X12.6097 Y19.5083
G01 X12.6114 Y19.4925
G01 X12.6385 Y19.4197
G01 X12.6824 Y19.3610
G01 X12.7411 Y19.3171
G01 X12.7449 Y19.3157
G01 X12.7569 Y19.3220
G01 X12.7433 Y19.3292
G01 X12.7279 Y19.3387
G01 X12.7132 Y19.3493
G01 X12.6994 Y19.3609
G01 X12.6864 Y19.3735
G01 X12.6744 Y19.3871
G01 X12.6670 Y19.3966
G01 X12.6568 Y19.4115
G01 X12.6506 Y19.4219
G01 X12.6449 Y19.4325
G01 X12.6397 Y19.4434
G01 X12.6351 Y19.4546
G01 X12.6310 Y19.4659
G01 X12.6275 Y19.4775
G01 X12.6246 Y19.4892
G01 X12.6223 Y19.5010
G01 X12.6198 Y19.5189
G01 X12.6189 Y19.5309
G01 X12.6186 Y19.5430
G01 X12.6186 Y20.0510
G01 X12.6193 Y20.0691
G01 X12.6213 Y20.0871
G01 X12.6234 Y20.0989
G01 X12.6260 Y20.1107
G01 X12.6310 Y20.1281
G01 X12.6351 Y20.1394
G01 X12.6397 Y20.1506
G01 X12.6477 Y20.1669
G01 X12.6568 Y20.1825
G01 X12.6670 Y20.1974
G01 X12.6744 Y20.2069
G01 X12.6823 Y20.2160
G01 X12.6906 Y20.2248
G01 X12.6994 Y20.2331
G01 X12.7132 Y20.2447
G01 X12.7229 Y20.2519
G01 X12.7329 Y20.2586
G01 X12.7485 Y20.2677
G01 X12.7648 Y20.2757
G01 X12.7816 Y20.2824
G01 X12.7931 Y20.2862
G01 X12.8047 Y20.2894
G01 X12.8224 Y20.2931
G01 X12.8343 Y20.2949
G01 X12.8463 Y20.2961
G01 X12.8644 Y20.2968
G01 X13.8229 Y20.2967
G01 X13.8350 Y20.2961
G01 X13.8530 Y20.2941
G01 X13.8648 Y20.2920
G01 X13.8824 Y20.2879
G01 X13.8997 Y20.2824
G01 X13.9165 Y20.2757
G01 X13.9328 Y20.2677
G01 X13.9432 Y20.2618
G01 X13.9534 Y20.2553
G01 X13.9633 Y20.2484
G01 X13.9774 Y20.2371
G01 X13.9864 Y20.2290
G01 X13.9949 Y20.2205
G01 X14.0030 Y20.2115
G01 X14.0106 Y20.2022
G01 X14.0178 Y20.1925
G01 X14.0277 Y20.1773
G01 X14.0336 Y20.1669
G01 X14.0391 Y20.1561
G01 X14.0440 Y20.1450
G01 X14.0483 Y20.1338
G01 X14.0521 Y20.1223
G01 X14.0553 Y20.1107
G01 X14.0590 Y20.0930
G01 X14.0615 Y20.0751
G01 X14.0624 Y20.0631
G01 X14.0627 Y20.0510
G01 X14.0627 Y19.5430
G00 Z2.0000
G00 X13.9782 Y19.5430
G01 F60.00
G01 Z-0.1000
G01 F120.00
G01 X13.9782 Y20.0510
G01 X13.9777 Y20.0629
G01 X13.9764 Y20.0747
G01 X13.9751 Y20.0825
G01 X13.9723 Y20.0940
G01 X13.9700 Y20.1016
G01 X13.9659 Y20.1127
G01 X13.9610 Y20.1235
G01 X13.9572 Y20.1305
G01 X13.9510 Y20.1406
G01 X13.9440 Y20.1502
G01 X13.9364 Y20.1593
G01 X13.9309 Y20.1650
G01 X13.9222 Y20.1731
G01 X13.9161 Y20.1781
G01 X13.9065 Y20.1851
G01 X13.8998 Y20.1893
G01 X13.8894 Y20.1951
G01 X13.8823 Y20.1984
G01 X13.8675 Y20.2041
G01 X13.8522 Y20.2084
G01 X13.8366 Y20.2111
G01 X13.8209 Y20.2122
G01 X12.8644 Y20.2123
G01 X12.8525 Y20.2118
G01 X12.8407 Y20.2105
G01 X12.8329 Y20.2092
G01 X12.8214 Y20.2064
G01 X12.8101 Y20.2029
G01 X12.7990 Y20.1984
G01 X12.7919 Y20.1951
G01 X12.7815 Y20.1893
G01 X12.7715 Y20.1829
G01 X12.7621 Y20.1757
G01 X12.7532 Y20.1678
G01 X12.7449 Y20.1593
G01 X12.7397 Y20.1533
G01 X12.7325 Y20.1439
G01 X12.7261 Y20.1339
G01 X12.7222 Y20.1270
G01 X12.7170 Y20.1164
G01 X12.7113 Y20.1016
G01 X12.7070 Y20.0863
G01 X12.7043 Y20.0707
G01 X12.7032 Y20.0550
G01 X12.7031 Y19.5430
G01 X12.7036 Y19.5311
G01 X12.7043 Y19.5233
G01 X12.7055 Y19.5154
G01 X12.7080 Y19.5038
G01 X12.7113 Y19.4924
G01 X12.7154 Y19.4813
G01 X12.7203 Y19.4705
G01 X12.7241 Y19.4635
G01 X12.7281 Y19.4567
G01 X12.7349 Y19.4469
G01 X12.7423 Y19.4377
G01 X12.7476 Y19.4318
G01 X12.7561 Y19.4235
G01 X12.7652 Y19.4159
G01 X12.7748 Y19.4089
G01 X12.7815 Y19.4047
G01 X12.7919 Y19.3989
G01 X12.7990 Y19.3956
G01 X12.8101 Y19.3911
G01 X12.8176 Y19.3887
G01 X12.8329 Y19.3848
G01 X12.8486 Y19.3825
G01 X12.8644 Y19.3817
G01 X13.8169 Y19.3817
G01 X13.8288 Y19.3822
G01 X13.8366 Y19.3829
G01 X13.8522 Y19.3856
G01 X13.8675 Y19.3899
G01 X13.8786 Y19.3940
G01 X13.8929 Y19.4008
G01 X13.9065 Y19.4089
G01 X13.9161 Y19.4159
G01 X13.9281 Y19.4262
G01 X13.9390 Y19.4377
G01 X13.9488 Y19.4501
G01 X13.9552 Y19.4601
G01 X13.9610 Y19.4705
G01 X13.9674 Y19.4850
G01 X13.9723 Y19.5000
G01 X13.9751 Y19.5115
G01 X13.9774 Y19.5272
G01 X13.9782 Y19.5430
G00 Z2.0000
G00 X13.8937 Y19.5430
G01 F60.00
G01 Z-0.1000
G01 F120.00
G01 X13.8935 Y20.0567
G01 X13.8922 Y20.0660
G01 X13.8898 Y20.0751
G01 X13.8855 Y20.0855
G01 X13.8808 Y20.0937
G01 X13.8738 Y20.1026
G01 X13.8671 Y20.1092
G01 X13.8596 Y20.1149
G01 X13.8514 Y20.1196
G01 X13.8428 Y20.1233
G01 X13.8356 Y20.1255
G01 X13.8263 Y20.1272
G01 X13.8169 Y20.1278
G01 X12.8625 Y20.1278
G01 X12.8513 Y20.1267
G01 X12.8421 Y20.1245
G01 X12.8333 Y20.1212
G01 X12.8233 Y20.1159
G01 X12.8157 Y20.1104
G01 X12.8075 Y20.1026
G01 X12.8016 Y20.0952
G01 X12.7958 Y20.0855
G01 X12.7927 Y20.0786
G01 X12.7899 Y20.0697
G01 X12.7882 Y20.0604
G01 X12.7876 Y20.0529
G01 X12.7877 Y19.5392
G01 X12.7887 Y19.5299
G01 X12.7909 Y19.5207
G01 X12.7950 Y19.5102
G01 X12.7995 Y19.5019
G01 X12.8050 Y19.4943
G01 X12.8128 Y19.4861
G01 X12.8217 Y19.4791
G01 X12.8299 Y19.4744
G01 X12.8385 Y19.4707
G01 X12.8457 Y19.4685
G01 X12.8550 Y19.4668
G01 X12.8644 Y19.4662
G01 X13.8225 Y19.4664
G01 X13.8300 Y19.4673
G01 X13.8374 Y19.4690
G01 X13.8445 Y19.4713
G01 X13.8514 Y19.4744
G01 X13.8564 Y19.4771
G01 X13.8626 Y19.4813
G01 X13.8685 Y19.4861
G01 X13.8738 Y19.4914
G01 X13.8786 Y19.4973
G01 X13.8828 Y19.5035
G01 X13.8855 Y19.5085
G01 X13.8886 Y19.5154
G01 X13.8904 Y19.5207
G01 X13.8922 Y19.5280
G01 X13.8933 Y19.5355
G01 X13.8937 Y19.5430
G00 Z2.0000
G00 X12.5252 Y19.5038
G01 F60.00
G01 Z-0.1000
G01 F120.00
G01 X12.5285 Y19.4729
G01 X12.5636 Y19.3788
G01 X12.6221 Y19.3007
G01 X12.7002 Y19.2422
G01 X12.7568 Y19.2211
G01 X12.7683 Y19.2305
G01 X12.7815 Y19.2393
G01 X12.7954 Y19.2468
G01 X12.8064 Y19.2515
G01 X12.8176 Y19.2553
G01 X12.8329 Y19.2592
G01 X12.8447 Y19.2611
G01 X12.8604 Y19.2622
G01 X13.8248 Y19.2621
G01 X13.8406 Y19.2605
G01 X13.8522 Y19.2584
G01 X13.8675 Y19.2541
G01 X13.8786 Y19.2500
G01 X13.8894 Y19.2451
G01 X13.9032 Y19.2373
G01 X13.9130 Y19.2305
G01 X13.9245 Y19.2211
G01 X13.9811 Y19.2422
G01 X14.0592 Y19.3007
G01 X14.1177 Y19.3788
G01 X14.1528 Y19.4729
G01 X14.1561 Y19.5038
G01 X14.1561 Y20.0902
G01 X14.1528 Y20.1211
G01 X14.1177 Y20.2152
G01 X14.0592 Y20.2933
G01 X13.9811 Y20.3518
G01 X13.8870 Y20.3869
G01 X13.8561 Y20.3902
G01 X12.8252 Y20.3902
G01 X12.7943 Y20.3869
G01 X12.7002 Y20.3518
G01 X12.6221 Y20.2933
G01 X12.5636 Y20.2152
G01 X12.5285 Y20.1211
G01 X12.5252 Y20.0902
G01 X12.5252 Y19.5038
G00 Z2.0000
G00 X12.4407 Y19.4993
G01 F60.00
G01 Z-0.1000
G01 F120.00
G01 X12.4456 Y19.4533
G01 X12.4887 Y19.3379
G01 X12.5617 Y19.2403
G01 X12.6593 Y19.1673
G01 X12.7747 Y19.1242
G01 X12.7907 Y19.1225
G01 X12.7927 Y19.1286
G01 X12.7958 Y19.1355
G01 X12.7995 Y19.1421
G01 X12.8039 Y19.1482
G01 X12.8075 Y19.1526
G01 X12.8128 Y19.1579
G01 X12.8187 Y19.1627
G01 X12.8249 Y19.1669
G01 X12.8333 Y19.1712
G01 X12.8421 Y19.1745
G01 X12.8513 Y19.1767
G01 X12.8625 Y19.1778
G01 X13.8207 Y19.1777
G01 X13.8319 Y19.1763
G01 X13.8428 Y19.1733
G01 X13.8480 Y19.1712
G01 X13.8548 Y19.1678
G01 X13.8641 Y19.1615
G01 X13.8699 Y19.1566
G01 X13.8738 Y19.1526
G01 X13.8808 Y19.1437
G01 X13.8863 Y19.1338
G01 X13.8906 Y19.1225
G01 X13.9066 Y19.1242
G01 X14.0220 Y19.1673
G01 X14.1196 Y19.2403
G01 X14.1926 Y19.3379
G01 X14.2357 Y19.4533
G01 X14.2406 Y19.4992
G01 X14.2406 Y20.0948
G01 X14.2357 Y20.1407
G01 X14.1926 Y20.2561
G01 X14.1196 Y20.3537
G01 X14.0220 Y20.4267
G01 X13.9066 Y20.4698
G01 X13.8607 Y20.4747
G01 X12.8206 Y20.4747
G01 X12.7747 Y20.4698
G01 X12.6593 Y20.4267
G01 X12.5617 Y20.3537
G01 X12.4887 Y20.2561
G01 X12.4456 Y20.1407
G01 X12.4407 Y20.0948
G01 X12.4407 Y19.4993
G00 Z2.0000
G00 X16.4464 Y19.5430
G01 F60.00
G01 Z-0.1000
G01 F120.00
G01 X16.4462 Y20.0567
G01 X16.4449 Y20.0660
G01 X16.4419 Y20.0769
G01 X16.4382 Y20.0855
G01 X16.4335 Y20.0937
G01 X16.4278 Y20.1012
G01 X16.4212 Y20.1079
G01 X16.4138 Y20.1138
G01 X16.4041 Y20.1196
G01 X16.3955 Y20.1233
G01 X16.3883 Y20.1255
G01 X16.3790 Y20.1272
G01 X16.3696 Y20.1278
G01 X15.4152 Y20.1278
G01 X15.4040 Y20.1267
G01 X15.3948 Y20.1245
G01 X15.3860 Y20.1212
G01 X15.3760 Y20.1159
G01 X15.3684 Y20.1104
G01 X15.3602 Y20.1026
G01 X15.3543 Y20.0952
G01 X15.3485 Y20.0855
G01 X15.3454 Y20.0786
G01 X15.3426 Y20.0697
G01 X15.3409 Y20.0604
G01 X15.3403 Y20.0529
G01 X15.3404 Y19.5392
G01 X15.3414 Y19.5299
G01 X15.3436 Y19.5207
G01 X15.3477 Y19.5102
G01 X15.3522 Y19.5019
G01 X15.3577 Y19.4943
G01 X15.3655 Y19.4861
G01 X15.3744 Y19.4791
G01 X15.3826 Y19.4744
G01 X15.3912 Y19.4707
G01 X15.3984 Y19.4685
G01 X15.4077 Y19.4668
G01 X15.4171 Y19.4662
G01 X16.3752 Y19.4664
G01 X16.3827 Y19.4673
G01 X16.3901 Y19.4690
G01 X16.3972 Y19.4713
G01 X16.4041 Y19.4744
G01 X16.4091 Y19.4771
G01 X16.4153 Y19.4813
G01 X16.4212 Y19.4861
G01 X16.4265 Y19.4914
G01 X16.4313 Y19.4973
G01 X16.4355 Y19.5035
G01 X16.4382 Y19.5085
G01 X16.4413 Y19.5154
G01 X16.4436 Y19.5225
G01 X16.4453 Y19.5299
G01 X16.4462 Y19.5374
G01 X16.4464 Y19.5430
G00 Z2.0000
G00 X16.5309 Y19.5430
G01 F60.00
G01 Z-0.1000
G01 F120.00
G01 X16.5309 Y20.0510
G01 X16.5304 Y20.0629
G01 X16.5291 Y20.0747
G01 X16.5278 Y20.0825
G01 X16.5250 Y20.0940
G01 X16.5227 Y20.1016
G01 X16.5186 Y20.1127
G01 X16.5137 Y20.1235
G01 X16.5099 Y20.1305
G01 X16.5037 Y20.1406
G01 X16.4967 Y20.1502
G01 X16.4917 Y20.1563
G01 X16.4836 Y20.1650
G01 X16.4749 Y20.1731
G01 X16.4688 Y20.1781
G01 X16.4625 Y20.1829
G01 X16.4525 Y20.1893
G01 X16.4421 Y20.1951
G01 X16.4350 Y20.1984
G01 X16.4202 Y20.2041
G01 X16.4049 Y20.2084
G01 X16.3893 Y20.2111
G01 X16.3736 Y20.2122
G01 X15.4171 Y20.2123
G01 X15.4052 Y20.2118
G01 X15.3934 Y20.2105
G01 X15.3856 Y20.2092
G01 X15.3741 Y20.2064
G01 X15.3628 Y20.2029
G01 X15.3517 Y20.1984
G01 X15.3446 Y20.1951
G01 X15.3342 Y20.1893
G01 X15.3242 Y20.1829
G01 X15.3148 Y20.1757
G01 X15.3059 Y20.1678
G01 X15.2976 Y20.1593
G01 X15.2924 Y20.1533
G01 X15.2852 Y20.1439
G01 X15.2788 Y20.1339
G01 X15.2749 Y20.1270
G01 X15.2697 Y20.1164
G01 X15.2640 Y20.1016
G01 X15.2597 Y20.0863
G01 X15.2570 Y20.0707
G01 X15.2559 Y20.0550
G01 X15.2558 Y19.5430
G01 X15.2563 Y19.5311
G01 X15.2570 Y19.5233
G01 X15.2582 Y19.5154
G01 X15.2607 Y19.5038
G01 X15.2640 Y19.4924
G01 X15.2681 Y19.4813
G01 X15.2730 Y19.4705
G01 X15.2768 Y19.4635
G01 X15.2808 Y19.4567
G01 X15.2876 Y19.4469
G01 X15.2950 Y19.4377
G01 X15.3003 Y19.4318
G01 X15.3088 Y19.4235
G01 X15.3179 Y19.4159
G01 X15.3275 Y19.4089
G01 X15.3342 Y19.4047
G01 X15.3446 Y19.3989
G01 X15.3517 Y19.3956
G01 X15.3628 Y19.3911
G01 X15.3703 Y19.3887
G01 X15.3856 Y19.3848
G01 X15.4013 Y19.3825
G01 X15.4171 Y19.3817
G01 X16.3696 Y19.3817
G01 X16.3815 Y19.3822
G01 X16.3893 Y19.3829
G01 X16.4049 Y19.3856
G01 X16.4202 Y19.3899
G01 X16.4313 Y19.3940
G01 X16.4456 Y19.4008
G01 X16.4592 Y19.4089
G01 X16.4688 Y19.4159
G01 X16.4808 Y19.4262
G01 X16.4917 Y19.4377
G01 X16.5015 Y19.4501
G01 X16.5099 Y19.4635
G01 X16.5170 Y19.4776
G01 X16.5215 Y19.4887
G01 X16.5260 Y19.5038
G01 X16.5285 Y19.5154
G01 X16.5304 Y19.5311
G01 X16.5309 Y19.5430
G00 Z2.0000
G00 X16.6154 Y19.5430
G01 F60.00
G01 Z-0.1000
G01 F120.00
G01 X16.6154 Y20.0510
G01 X16.6151 Y20.0631
G01 X16.6142 Y20.0751
G01 X16.6127 Y20.0871
G01 X16.6106 Y20.0989
G01 X16.6080 Y20.1107
G01 X16.6030 Y20.1281
G01 X16.5989 Y20.1394
G01 X16.5918 Y20.1561
G01 X16.5863 Y20.1669
G01 X16.5772 Y20.1825
G01 X16.5705 Y20.1925
G01 X16.5596 Y20.2069
G01 X16.5517 Y20.2160
G01 X16.5391 Y20.2290
G01 X16.5255 Y20.2410
G01 X16.5160 Y20.2484
G01 X16.5011 Y20.2586
G01 X16.4907 Y20.2648
G01 X16.4801 Y20.2705
G01 X16.4636 Y20.2781
G01 X16.4524 Y20.2824
G01 X16.4409 Y20.2862
G01 X16.4293 Y20.2894
G01 X16.4175 Y20.2920
G01 X16.3997 Y20.2949
G01 X16.3877 Y20.2961
G01 X16.3756 Y20.2967
G01 X15.4171 Y20.2968
G01 X15.4050 Y20.2965
G01 X15.3930 Y20.2956
G01 X15.3751 Y20.2931
G01 X15.3574 Y20.2894
G01 X15.3400 Y20.2844
G01 X15.3287 Y20.2803
G01 X15.3175 Y20.2757
G01 X15.3012 Y20.2677
G01 X15.2856 Y20.2586
G01 X15.2707 Y20.2484
G01 X15.2566 Y20.2371
G01 X15.2433 Y20.2248
G01 X15.2350 Y20.2160
G01 X15.2234 Y20.2022
G01 X15.2162 Y20.1925
G01 X15.2063 Y20.1773
G01 X15.1976 Y20.1615
G01 X15.1900 Y20.1450
G01 X15.1857 Y20.1338
G01 X15.1819 Y20.1223
G01 X15.1787 Y20.1107
G01 X15.1761 Y20.0989
G01 X15.1740 Y20.0871
G01 X15.1725 Y20.0751
G01 X15.1714 Y20.0570
G01 X15.1713 Y19.5430
G01 X15.1720 Y19.5249
G01 X15.1740 Y19.5069
G01 X15.1773 Y19.4892
G01 X15.1819 Y19.4717
G01 X15.1857 Y19.4602
G01 X15.1924 Y19.4434
G01 X15.1976 Y19.4325
G01 X15.2063 Y19.4167
G01 X15.2128 Y19.4065
G01 X15.2234 Y19.3918
G01 X15.2350 Y19.3780
G01 X15.2433 Y19.3692
G01 X15.2566 Y19.3569
G01 X15.2707 Y19.3456
G01 X15.2806 Y19.3387
G01 X15.2960 Y19.3292
G01 X15.3066 Y19.3235
G01 X15.3231 Y19.3159
G01 X15.3343 Y19.3116
G01 X15.3458 Y19.3078
G01 X15.3574 Y19.3046
G01 X15.3692 Y19.3020
G01 X15.3870 Y19.2991
G01 X15.3990 Y19.2979
G01 X15.4111 Y19.2973
G01 X16.3696 Y19.2972
G01 X16.3877 Y19.2979
G01 X16.3997 Y19.2991
G01 X16.4116 Y19.3009
G01 X16.4293 Y19.3046
G01 X16.4409 Y19.3078
G01 X16.4524 Y19.3116
G01 X16.4636 Y19.3159
G01 X16.4747 Y19.3208
G01 X16.4855 Y19.3263
G01 X16.4959 Y19.3322
G01 X16.5111 Y19.3421
G01 X16.5208 Y19.3493
G01 X16.5301 Y19.3569
G01 X16.5391 Y19.3650
G01 X16.5476 Y19.3735
G01 X16.5596 Y19.3871
G01 X16.5705 Y19.4015
G01 X16.5772 Y19.4115
G01 X16.5834 Y19.4219
G01 X16.5891 Y19.4325
G01 X16.5943 Y19.4434
G01 X16.6010 Y19.4602
G01 X16.6048 Y19.4717
G01 X16.6080 Y19.4833
G01 X16.6117 Y19.5010
G01 X16.6135 Y19.5129
G01 X16.6147 Y19.5249
G01 X16.6154 Y19.5430
G00 Z2.0000
G00 X19.5031 Y18.2754
G01 F60.00
G01 Z-0.1000
G01 F120.00
G01 X19.5261 Y18.2589
G01 X19.5388 Y18.2490
G01 X19.5511 Y18.2384
G01 X19.5719 Y18.2189
G01 X20.3084 Y17.4825
G01 X20.3116 Y17.5256
G01 X20.3135 Y17.5418
G01 X20.3163 Y17.5580
G01 X20.3199 Y17.5740
G01 X20.3243 Y17.5898
G01 X20.3294 Y17.6054
G01 X20.3354 Y17.6207
G01 X20.3420 Y17.6357
G01 X20.3495 Y17.6503
G01 X20.3619 Y17.6715
G01 X20.3759 Y17.6917
G01 X20.4155 Y17.7447
G01 X20.3919 Y17.7448
G01 X20.3715 Y17.7457
G01 X20.3554 Y17.7469
G01 X20.3393 Y17.7489
G01 X20.3191 Y17.7520
G01 X20.3032 Y17.7551
G01 X20.2756 Y17.7620
G01 X20.2601 Y17.7668
G01 X20.2409 Y17.7735
G01 X20.2258 Y17.7794
G01 X20.1999 Y17.7912
G01 X20.1854 Y17.7985
G01 X20.1713 Y17.8064
G01 X20.1472 Y17.8214
G01 X20.1338 Y17.8308
G01 X20.1175 Y17.8430
G01 X20.0989 Y17.8586
G01 X20.0781 Y17.8781
G01 X19.6724 Y18.2839
G01 X19.6533 Y18.3050
G01 X19.6381 Y18.3239
G01 X19.6214 Y18.3470
G01 X19.6062 Y18.3717
G01 X19.5907 Y18.3547
G01 X19.5789 Y18.3433
G01 X19.5215 Y18.2905
G01 X19.5031 Y18.2754
G00 Z2.0000
G00 X20.9062 Y20.1919
G01 F60.00
G01 Z-0.1000
G01 F120.00
G01 X20.8940 Y20.1094
G01 X20.8925 Y20.0974
G01 X20.8916 Y20.0854
G01 X20.8875 Y20.0021
G01 X20.8872 Y19.9900
G01 X20.8875 Y19.9779
G01 X20.8916 Y19.8946
G01 X20.8925 Y19.8826
G01 X20.8940 Y19.8706
G01 X20.9062 Y19.7881
G01 X20.9084 Y19.7756
G01 X20.9312 Y19.6835
G01 X20.9344 Y19.6719
G01 X20.9382 Y19.6605
G01 X20.9663 Y19.5819
G01 X20.9706 Y19.5707
G01 X20.9755 Y19.5596
G01 X21.0112 Y19.4842
G01 X21.0166 Y19.4735
G01 X21.0226 Y19.4630
G01 X21.0655 Y19.3914
G01 X21.0719 Y19.3812
G01 X21.0789 Y19.3714
G01 X21.1285 Y19.3044
G01 X21.1360 Y19.2949
G01 X21.1438 Y19.2857
G01 X21.1999 Y19.2239
G01 X21.2082 Y19.2152
G01 X21.2169 Y19.2069
G01 X21.2787 Y19.1508
G01 X21.2879 Y19.1430
G01 X21.2974 Y19.1355
G01 X21.3644 Y19.0859
G01 X21.3742 Y19.0789
G01 X21.3844 Y19.0725
G01 X21.4560 Y19.0296
G01 X21.4665 Y19.0236
G01 X21.4772 Y19.0182
G01 X21.5526 Y18.9825
G01 X21.5637 Y18.9776
G01 X21.5749 Y18.9733
G01 X21.6535 Y18.9452
G01 X21.6649 Y18.9414
G01 X21.6765 Y18.9382
G01 X21.7686 Y18.9154
G01 X21.7811 Y18.9132
G01 X21.8636 Y18.9010
G01 X21.8756 Y18.8995
G01 X21.8876 Y18.8986
G01 X21.9709 Y18.8945
G01 X21.9830 Y18.8942
G01 X21.9951 Y18.8945
G01 X22.0784 Y18.8986
G01 X22.0904 Y18.8995
G01 X22.1024 Y18.9010
G01 X22.1849 Y18.9132
G01 X22.1968 Y18.9153
G01 X22.2085 Y18.9179
G01 X22.2895 Y18.9382
G01 X22.3011 Y18.9414
G01 X22.3125 Y18.9452
G01 X22.3911 Y18.9733
G01 X22.4023 Y18.9776
G01 X22.4134 Y18.9825
G01 X22.4888 Y19.0182
G01 X22.4995 Y19.0236
G01 X22.5100 Y19.0296
G01 X22.5816 Y19.0725
G01 X22.5918 Y19.0789
G01 X22.6016 Y19.0859
G01 X22.6686 Y19.1355
G01 X22.6781 Y19.1430
G01 X22.6873 Y19.1508
G01 X22.7491 Y19.2069
G01 X22.7578 Y19.2152
G01 X22.7661 Y19.2239
G01 X22.8222 Y19.2857
G01 X22.8300 Y19.2949
G01 X22.8375 Y19.3044
G01 X22.8871 Y19.3714
G01 X22.8941 Y19.3812
G01 X22.9005 Y19.3914
G01 X22.9434 Y19.4630
G01 X22.9494 Y19.4735
G01 X22.9548 Y19.4842
G01 X22.9905 Y19.5596
G01 X22.9954 Y19.5707
G01 X22.9997 Y19.5819
G01 X23.0278 Y19.6605
G01 X23.0316 Y19.6719
G01 X23.0348 Y19.6835
G01 X23.0576 Y19.7756
G01 X23.0598 Y19.7881
G01 X23.0720 Y19.8706
G01 X23.0735 Y19.8826
G01 X23.0744 Y19.8946
G01 X23.0785 Y19.9779
G01 X23.0788 Y19.9900
G01 X23.0785 Y20.0021
G01 X23.0744 Y20.0854
G01 X23.0735 Y20.0974
G01 X23.0720 Y20.1094
G01 X23.0598 Y20.1919
G01 X23.0577 Y20.2038
G01 X23.0551 Y20.2155
G01 X23.0317 Y20.3076
G01 X23.0278 Y20.3195
G01 X22.9997 Y20.3981
G01 X22.9954 Y20.4093
G01 X22.9905 Y20.4204
G01 X22.9548 Y20.4958
G01 X22.9494 Y20.5065
G01 X22.9434 Y20.5170
G01 X22.9005 Y20.5886
G01 X22.8941 Y20.5988
G01 X22.8871 Y20.6086
G01 X22.8375 Y20.6756
G01 X22.8300 Y20.6851
G01 X22.8222 Y20.6943
G01 X22.7661 Y20.7561
G01 X22.7578 Y20.7648
G01 X22.7491 Y20.7731
G01 X22.6873 Y20.8292
G01 X22.6781 Y20.8370
G01 X22.6686 Y20.8445
G01 X22.6016 Y20.8941
G01 X22.5918 Y20.9011
G01 X22.5816 Y20.9075
G01 X22.5100 Y20.9504
G01 X22.4995 Y20.9564
G01 X22.4888 Y20.9618
G01 X22.4134 Y20.9975
G01 X22.4023 Y21.0024
G01 X22.3911 Y21.0067
G01 X22.3125 Y21.0348
G01 X22.3011 Y21.0386
G01 X22.2895 Y21.0418
G01 X22.2085 Y21.0621
G01 X22.1968 Y21.0647
G01 X22.1849 Y21.0668
G01 X22.1024 Y21.0790
G01 X22.0904 Y21.0805
G01 X22.0784 Y21.0814
G01 X21.9951 Y21.0855
G01 X21.9830 Y21.0858
G01 X21.9709 Y21.0855
G01 X21.8876 Y21.0814
G01 X21.8756 Y21.0805
G01 X21.8636 Y21.0790
G01 X21.7811 Y21.0668
G01 X21.7692 Y21.0647
G01 X21.7575 Y21.0621
G01 X21.6654 Y21.0387
G01 X21.6535 Y21.0348
G01 X21.5749 Y21.0067
G01 X21.5637 Y21.0024
G01 X21.5526 Y20.9975
G01 X21.4772 Y20.9618
G01 X21.4665 Y20.9564
G01 X21.4560 Y20.9504
G01 X21.3844 Y20.9075
G01 X21.3742 Y20.9011
G01 X21.3644 Y20.8941
G01 X21.2974 Y20.8445
G01 X21.2879 Y20.8370
G01 X21.2787 Y20.8292
G01 X21.2169 Y20.7731
G01 X21.2082 Y20.7648
G01 X21.1999 Y20.7561
G01 X21.1438 Y20.6943
G01 X21.1360 Y20.6851
G01 X21.1285 Y20.6756
G01 X21.0789 Y20.6086
G01 X21.0719 Y20.5988
G01 X21.0655 Y20.5886
G01 X21.0226 Y20.5170
G01 X21.0166 Y20.5065
G01 X21.0112 Y20.4958
G01 X20.9755 Y20.4204
G01 X20.9706 Y20.4093
G01 X20.9663 Y20.3981
G01 X20.9382 Y20.3195
G01 X20.9344 Y20.3081
G01 X20.9312 Y20.2965
G01 X20.9109 Y20.2155
G01 X20.9084 Y20.2044
G01 X20.9062 Y20.1919
G00 Z2.0000
G00 X20.9898 Y20.1795
G01 F60.00
G01 Z-0.1000
G01 F120.00
G01 X20.9766 Y20.0891
G01 X20.9717 Y19.9900
G01 X20.9766 Y19.8909
G01 X20.9912 Y19.7923
G01 X21.0153 Y19.6964
G01 X21.0487 Y19.6030
G01 X21.0911 Y19.5133
G01 X21.1422 Y19.4282
G01 X21.2013 Y19.3485
G01 X21.2679 Y19.2749
G01 X21.3415 Y19.2083
G01 X21.4212 Y19.1492
G01 X21.5063 Y19.0981
G01 X21.5960 Y19.0557
G01 X21.6894 Y19.0223
G01 X21.7853 Y18.9982
G01 X21.8839 Y18.9836
G01 X21.9830 Y18.9787
G01 X22.0821 Y18.9836
G01 X22.1803 Y18.9982
G01 X22.2766 Y19.0223
G01 X22.3700 Y19.0557
G01 X22.4597 Y19.0981
G01 X22.5448 Y19.1492
G01 X22.6245 Y19.2083
G01 X22.6981 Y19.2749
G01 X22.7647 Y19.3485
G01 X22.8238 Y19.4282
G01 X22.8749 Y19.5133
G01 X22.9173 Y19.6030
G01 X22.9507 Y19.6964
G01 X22.9748 Y19.7923
G01 X22.9894 Y19.8909
G01 X22.9943 Y19.9900
G01 X22.9894 Y20.0891
G01 X22.9748 Y20.1873
G01 X22.9508 Y20.2832
G01 X22.9173 Y20.3770
G01 X22.8749 Y20.4667
G01 X22.8238 Y20.5518
G01 X22.7647 Y20.6315
G01 X22.6981 Y20.7051
G01 X22.6245 Y20.7717
G01 X22.5448 Y20.8308
G01 X22.4597 Y20.8819
G01 X22.3700 Y20.9243
G01 X22.2766 Y20.9577
G01 X22.1803 Y20.9818
G01 X22.0821 Y20.9964
G01 X21.9830 Y21.0013
G01 X21.8839 Y20.9964
G01 X21.7857 Y20.9818
G01 X21.6898 Y20.9578
G01 X21.5960 Y20.9243
G01 X21.5063 Y20.8819
G01 X21.4212 Y20.8308
G01 X21.3415 Y20.7717
G01 X21.2679 Y20.7051
G01 X21.2013 Y20.6315
G01 X21.1422 Y20.5518
G01 X21.0911 Y20.4667
G01 X21.0487 Y20.3770
G01 X21.0153 Y20.2836
G01 X20.9929 Y20.1950
G01 X20.9898 Y20.1795
G00 Z2.0000
G00 X21.0734 Y20.1671
G01 F60.00
G01 Z-0.1000
G01 F120.00
G01 X21.0607 Y20.0808
G01 X21.0562 Y19.9900
G01 X21.0607 Y19.8992
G01 X21.0740 Y19.8090
G01 X21.0961 Y19.7210
G01 X21.1267 Y19.6353
G01 X21.1656 Y19.5531
G01 X21.2124 Y19.4751
G01 X21.2666 Y19.4020
G01 X21.3277 Y19.3347
G01 X21.3950 Y19.2736
G01 X21.4681 Y19.2194
G01 X21.5461 Y19.1726
G01 X21.6283 Y19.1337
G01 X21.7140 Y19.1031
G01 X21.8020 Y19.0810
G01 X21.8922 Y19.0677
G01 X21.9830 Y19.0632
G01 X22.0738 Y19.0677
G01 X22.1638 Y19.0810
G01 X22.2520 Y19.1031
G01 X22.3377 Y19.1337
G01 X22.4199 Y19.1726
G01 X22.4979 Y19.2194
G01 X22.5710 Y19.2736
G01 X22.6383 Y19.3347
G01 X22.6994 Y19.4020
G01 X22.7536 Y19.4751
G01 X22.8004 Y19.5531
G01 X22.8393 Y19.6353
G01 X22.8699 Y19.7210
G01 X22.8920 Y19.8090
G01 X22.9053 Y19.8992
G01 X22.9098 Y19.9900
G01 X22.9053 Y20.0808
G01 X22.8920 Y20.1708
G01 X22.8699 Y20.2589
G01 X22.8393 Y20.3447
G01 X22.8004 Y20.4269
G01 X22.7536 Y20.5049
G01 X22.6994 Y20.5780
G01 X22.6383 Y20.6453
G01 X22.5710 Y20.7064
G01 X22.4979 Y20.7606
G01 X22.4199 Y20.8074
G01 X22.3377 Y20.8463
G01 X22.2520 Y20.8769
G01 X22.1638 Y20.8990
G01 X22.0738 Y20.9123
G01 X21.9830 Y20.9168
G01 X21.8922 Y20.9123
G01 X21.8022 Y20.8990
G01 X21.7141 Y20.8769
G01 X21.6283 Y20.8463
G01 X21.5461 Y20.8074
G01 X21.4681 Y20.7606
G01 X21.3950 Y20.7064
G01 X21.3277 Y20.6453
G01 X21.2666 Y20.5780
G01 X21.2124 Y20.5049
G01 X21.1656 Y20.4269
G01 X21.1267 Y20.3447
G01 X21.0961 Y20.2590
G01 X21.0748 Y20.1745
G01 X21.0734 Y20.1671
G00 Z2.0000
G00 X22.5416 Y21.2746
G01 F60.00
G01 Z-0.1000
G01 F120.00
G01 X22.5490 Y21.2032
G01 X22.5508 Y21.1938
G01 X22.5545 Y21.1830
G01 X22.5588 Y21.1745
G01 X22.5641 Y21.1666
G01 X22.6100 Y21.1091
G01 X22.6163 Y21.1024
G01 X22.6248 Y21.0955
G01 X22.8048 Y20.9694
G01 X22.9624 Y20.8118
G01 X23.0903 Y20.6293
G01 X23.1845 Y20.4273
G01 X23.2421 Y20.2120
G01 X23.2616 Y19.9900
G01 X23.2421 Y19.7680
G01 X23.1845 Y19.5527
G01 X23.0903 Y19.3507
G01 X22.9624 Y19.1682
G01 X22.8839 Y19.0895
G01 X22.8729 Y19.0772
G01 X22.8686 Y19.0708
G01 X22.8649 Y19.0641
G01 X22.8337 Y18.9955
G01 X22.8302 Y18.9846
G01 X22.8285 Y18.9733
G01 X22.8282 Y18.9657
G01 X22.8288 Y18.9581
G01 X22.8392 Y18.8852
G01 X22.8409 Y18.8777
G01 X22.8426 Y18.8723
G01 X22.8472 Y18.8618
G01 X22.8511 Y18.8553
G01 X22.8557 Y18.8492
G01 X22.9027 Y18.7949
G01 X22.9094 Y18.7881
G01 X22.9184 Y18.7811
G01 X22.9284 Y18.7755
G01 X22.9373 Y18.7721
G01 X23.0079 Y18.7513
G01 X23.0150 Y18.7498
G01 X23.0205 Y18.7490
G01 X23.0278 Y18.7487
G01 X23.8035 Y18.7487
G01 X23.8118 Y18.7491
G01 X23.8437 Y18.7528
G01 X23.8546 Y18.7556
G01 X23.8650 Y18.7600
G01 X23.9296 Y18.7953
G01 X23.9387 Y18.8015
G01 X23.9455 Y18.8075
G01 X28.3445 Y23.2065
G01 X28.3500 Y23.2126
G01 X28.3666 Y23.2332
G01 X28.3710 Y23.2393
G01 X28.3765 Y23.2492
G01 X28.3805 Y23.2598
G01 X28.4007 Y23.3286
G01 X28.4025 Y23.3375
G01 X28.4033 Y23.3466
G01 X28.4033 Y24.4683
G01 X28.4026 Y24.4854
G01 X28.3992 Y24.5210
G01 X28.4014 Y24.5352
G01 X28.4031 Y24.5566
G01 X28.4033 Y24.5729
G01 X28.4122 Y24.6076
G01 X28.4149 Y24.6208
G01 X28.4209 Y24.6579
G01 X28.4265 Y24.6711
G01 X28.4335 Y24.6914
G01 X28.4378 Y24.7072
G01 X28.4550 Y24.7386
G01 X28.4609 Y24.7507
G01 X28.4760 Y24.7851
G01 X28.4858 Y24.7982
G01 X28.4976 Y24.8162
G01 X28.5046 Y24.8287
G01 X28.5290 Y24.8548
G01 X28.5395 Y24.8671
G01 X28.5593 Y24.8869
G01 X28.6044 Y24.9350
G01 X28.6194 Y24.9472
G01 X28.6297 Y24.9573
G01 X28.6400 Y24.9686
G01 X28.6628 Y24.9962
G01 X28.6759 Y25.0060
G01 X28.6922 Y25.0199
G01 X28.7024 Y25.0300
G01 X28.7332 Y25.0482
G01 X28.7445 Y25.0556
G01 X28.7749 Y25.0777
G01 X28.7901 Y25.0839
G01 X28.8093 Y25.0934
G01 X28.8217 Y25.1006
G01 X28.8561 Y25.1106
G01 X28.8689 Y25.1149
G01 X28.9113 Y25.1317
G01 X28.9186 Y25.1353
G01 X28.9490 Y25.1523
G01 X28.9558 Y25.1568
G01 X29.0566 Y25.2323
G01 X29.0782 Y25.2510
G01 X29.0843 Y25.2579
G01 X29.0896 Y25.2655
G01 X29.1265 Y25.3332
G01 X29.1295 Y25.3403
G01 X29.1313 Y25.3457
G01 X29.1336 Y25.3569
G01 X29.1341 Y25.3626
G01 X29.1341 Y25.3702
G01 X29.1286 Y25.4456
G01 X29.1274 Y25.4531
G01 X29.1253 Y25.4605
G01 X29.1226 Y25.4676
G01 X29.1191 Y25.4744
G01 X29.1139 Y25.4824
G01 X29.0720 Y25.5383
G01 X29.0674 Y25.5439
G01 X29.0635 Y25.5479
G01 X29.0566 Y25.5538
G01 X28.9743 Y25.6153
G01 X28.9013 Y25.7129
G01 X28.8582 Y25.8283
G01 X28.8533 Y25.8743
G01 X28.8533 Y26.5118
G01 X28.8597 Y26.5715
G01 X28.8602 Y26.5797
G01 X28.8599 Y26.6124
G01 X28.8533 Y26.6743
G01 X28.8533 Y27.3118
G01 X28.8582 Y27.3577
G01 X28.9013 Y27.4731
G01 X28.9743 Y27.5707
G01 X29.0719 Y27.6437
G01 X29.1873 Y27.6868
G01 X29.2332 Y27.6917
G01 X30.6312 Y27.6918
G01 X30.6420 Y27.6931
G01 X30.6972 Y27.7051
G01 X30.7046 Y27.7073
G01 X30.7134 Y27.7110
G01 X30.7201 Y27.7148
G01 X30.7278 Y27.7204
G01 X30.7863 Y27.7713
G01 X30.7914 Y27.7770
G01 X30.7969 Y27.7847
G01 X30.8007 Y27.7914
G01 X30.8043 Y27.8002
G01 X30.8257 Y27.8726
G01 X30.8275 Y27.8816
G01 X30.8283 Y27.8907
G01 X30.8283 Y29.1483
G01 X30.8278 Y29.1556
G01 X30.8269 Y29.1610
G01 X30.8153 Y29.2143
G01 X30.8127 Y29.2236
G01 X30.8090 Y29.2324
G01 X30.8042 Y29.2407
G01 X30.7996 Y29.2468
G01 X30.7500 Y29.3039
G01 X30.7430 Y29.3104
G01 X30.7353 Y29.3159
G01 X30.7269 Y29.3205
G01 X30.7198 Y29.3233
G01 X30.6474 Y29.3447
G01 X30.6384 Y29.3465
G01 X30.6293 Y29.3473
G01 X27.1195 Y29.3473
G01 X27.1112 Y29.3469
G01 X27.0811 Y29.3435
G01 X27.0720 Y29.3415
G01 X27.0631 Y29.3384
G01 X27.0563 Y29.3351
G01 X26.9934 Y29.3007
G01 X26.9857 Y29.2957
G01 X26.9775 Y29.2885
G01 X23.2689 Y25.5800
G01 X23.2629 Y25.5731
G01 X23.2586 Y25.5672
G01 X23.2253 Y25.5124
G01 X23.2220 Y25.5055
G01 X23.2194 Y25.4983
G01 X23.2175 Y25.4909
G01 X23.2164 Y25.4833
G01 X23.2144 Y25.4077
G01 X23.2145 Y25.4004
G01 X23.2154 Y25.3931
G01 X23.2165 Y25.3878
G01 X23.2421 Y25.2920
G01 X23.2616 Y25.0700
G01 X23.2421 Y24.8480
G01 X23.1845 Y24.6327
G01 X23.0903 Y24.4307
G01 X22.9624 Y24.2482
G01 X22.8048 Y24.0906
G01 X22.6232 Y23.9633
G01 X22.5952 Y23.9391
G01 X22.5890 Y23.9321
G01 X22.5828 Y23.9228
G01 X22.5486 Y23.8554
G01 X22.5457 Y23.8484
G01 X22.5431 Y23.8392
G01 X22.5418 Y23.8317
G01 X22.5412 Y23.8222
G01 X22.5416 Y23.8146
G01 X22.5490 Y23.7432
G01 X22.5508 Y23.7338
G01 X22.5538 Y23.7248
G01 X22.5588 Y23.7145
G01 X22.5641 Y23.7066
G01 X22.6112 Y23.6477
G01 X22.6176 Y23.6412
G01 X22.6248 Y23.6355
G01 X22.8048 Y23.5094
G01 X22.9624 Y23.3518
G01 X23.0903 Y23.1693
G01 X23.1845 Y22.9673
G01 X23.2421 Y22.7520
G01 X23.2616 Y22.5300
G01 X23.2421 Y22.3080
G01 X23.1845 Y22.0927
G01 X23.0903 Y21.8907
G01 X22.9624 Y21.7082
G01 X22.8048 Y21.5506
G01 X22.6232 Y21.4233
G01 X22.5993 Y21.4029
G01 X22.5926 Y21.3964
G01 X22.5868 Y21.3891
G01 X22.5819 Y21.3812
G01 X22.5471 Y21.3120
G01 X22.5440 Y21.3029
G01 X22.5420 Y21.2936
G01 X22.5412 Y21.2841
G01 X22.5416 Y21.2746
G00 Z2.0000
G00 X22.3071 Y23.6645
G01 F60.00
G01 Z-0.1000
G01 F120.00
G01 X22.3017 Y23.6866
G01 X22.2977 Y23.7109
G01 X22.2888 Y23.7967
G01 X22.2878 Y23.8212
G01 X22.2886 Y23.8458
G01 X22.2902 Y23.8622
G01 X22.2925 Y23.8784
G01 X22.2957 Y23.8945
G01 X22.2997 Y23.9104
G01 X22.3045 Y23.9261
G01 X22.3078 Y23.9357
G01 X22.2291 Y23.9160
G01 X22.2133 Y23.9124
G01 X22.1973 Y23.9097
G01 X22.1148 Y23.8974
G01 X22.0906 Y23.8947
G01 X21.9992 Y23.8902
G01 X21.9830 Y23.8898
G01 X21.9668 Y23.8902
G01 X21.8835 Y23.8943
G01 X21.8673 Y23.8954
G01 X21.8512 Y23.8974
G01 X21.7687 Y23.9097
G01 X21.7520 Y23.9126
G01 X21.7369 Y23.9160
G01 X21.6560 Y23.9363
G01 X21.6404 Y23.9406
G01 X21.6250 Y23.9457
G01 X21.5465 Y23.9738
G01 X21.5239 Y23.9828
G01 X21.4411 Y24.0218
G01 X21.4266 Y24.0291
G01 X21.4125 Y24.0371
G01 X21.3410 Y24.0800
G01 X21.3273 Y24.0887
G01 X21.3140 Y24.0980
G01 X21.2633 Y24.1356
G01 X21.2633 Y23.8936
G01 X21.5350 Y23.6219
G01 X21.6250 Y23.6543
G01 X21.6410 Y23.6596
G01 X21.6560 Y23.6637
G01 X21.7369 Y23.6840
G01 X21.7607 Y23.6890
G01 X21.8512 Y23.7026
G01 X21.8673 Y23.7046
G01 X21.8835 Y23.7057
G01 X21.9668 Y23.7098
G01 X21.9830 Y23.7102
G01 X21.9992 Y23.7098
G01 X22.0825 Y23.7057
G01 X22.0987 Y23.7046
G01 X22.1148 Y23.7026
G01 X22.1973 Y23.6903
G01 X22.2133 Y23.6876
G01 X22.2291 Y23.6840
G01 X22.3071 Y23.6645
G00 Z2.0000
G00 X20.6062 Y23.7012
G01 F60.00
G01 Z-0.1000
G01 F120.00
G01 X20.6071 Y23.6852
G01 X20.6100 Y23.6656
G01 X20.6148 Y23.6464
G01 X20.6208 Y23.6295
G01 X20.6291 Y23.6115
G01 X20.6381 Y23.5960
G01 X20.6423 Y23.5898
G01 X20.6532 Y23.5755
G01 X20.6653 Y23.5623
G01 X21.2012 Y23.0264
G01 X21.1656 Y22.9669
G01 X21.1267 Y22.8847
G01 X21.0961 Y22.7990
G01 X21.0740 Y22.7108
G01 X21.0607 Y22.6208
G01 X21.0562 Y22.5300
G01 X21.0607 Y22.4392
G01 X21.0734 Y22.3529
G01 X21.0748 Y22.3455
G01 X21.0961 Y22.2610
G01 X21.1254 Y22.1788
G01 X21.1283 Y22.1719
G01 X21.1639 Y22.0965
G01 X21.1675 Y22.0898
G01 X21.2124 Y22.0151
G01 X21.2666 Y21.9420
G01 X21.3277 Y21.8747
G01 X21.3950 Y21.8136
G01 X21.4681 Y21.7594
G01 X21.5461 Y21.7126
G01 X21.6283 Y21.6737
G01 X21.7140 Y21.6431
G01 X21.8020 Y21.6210
G01 X21.8922 Y21.6077
G01 X21.9830 Y21.6032
G01 X22.0738 Y21.6077
G01 X22.1638 Y21.6210
G01 X22.2520 Y21.6431
G01 X22.3377 Y21.6737
G01 X22.4199 Y21.7126
G01 X22.4979 Y21.7594
G01 X22.5710 Y21.8136
G01 X22.6383 Y21.8747
G01 X22.6994 Y21.9420
G01 X22.7536 Y22.0151
G01 X22.8004 Y22.0931
G01 X22.8393 Y22.1753
G01 X22.8687 Y22.2574
G01 X22.8709 Y22.2646
G01 X22.8920 Y22.3490
G01 X22.9049 Y22.4354
G01 X22.9056 Y22.4429
G01 X22.9097 Y22.5262
G01 X22.9097 Y22.5338
G01 X22.9053 Y22.6208
G01 X22.8920 Y22.7108
G01 X22.8699 Y22.7989
G01 X22.8393 Y22.8847
G01 X22.8004 Y22.9669
G01 X22.7536 Y23.0449
G01 X22.6994 Y23.1180
G01 X22.6409 Y23.1826
G01 X22.6356 Y23.1879
G01 X22.5738 Y23.2440
G01 X22.5680 Y23.2487
G01 X22.4979 Y23.3006
G01 X22.4232 Y23.3455
G01 X22.4165 Y23.3491
G01 X22.3377 Y23.3863
G01 X22.2520 Y23.4169
G01 X22.1638 Y23.4390
G01 X22.0757 Y23.4521
G01 X21.9830 Y23.4568
G01 X21.8959 Y23.4526
G01 X21.8884 Y23.4519
G01 X21.8059 Y23.4396
G01 X21.7985 Y23.4382
G01 X21.7141 Y23.4169
G01 X21.6283 Y23.3863
G01 X21.5461 Y23.3474
G01 X21.4866 Y23.3118
G01 X21.0099 Y23.7886
G01 X21.0099 Y28.0131
G01 X21.5799 Y28.5831
G01 X22.4716 Y28.5832
G01 X22.4895 Y28.5841
G01 X22.5054 Y28.5864
G01 X22.5128 Y28.5878
G01 X22.5283 Y28.5918
G01 X22.5470 Y28.5985
G01 X22.5615 Y28.6053
G01 X22.5681 Y28.6088
G01 X22.5818 Y28.6172
G01 X22.5978 Y28.6290
G01 X22.6124 Y28.6423
G01 X24.0677 Y30.0976
G01 X24.0798 Y30.1108
G01 X24.0918 Y30.1266
G01 X24.1012 Y30.1419
G01 X24.1047 Y30.1485
G01 X24.1129 Y30.1666
G01 X24.1182 Y30.1817
G01 X24.1230 Y30.2009
G01 X24.1259 Y30.2205
G01 X24.1268 Y30.2384
G01 X24.1269 Y32.0177
G01 X25.8673 Y33.7581
G01 X26.2307 Y33.7581
G01 X26.2440 Y33.7055
G01 X26.2722 Y33.6262
G01 X26.3106 Y33.5450
G01 X26.3540 Y33.4729
G01 X26.4029 Y33.4067
G01 X26.4077 Y33.4009
G01 X26.4644 Y33.3387
G01 X26.5268 Y33.2822
G01 X26.5928 Y33.2331
G01 X26.5991 Y33.2290
G01 X26.6697 Y33.1867
G01 X26.7440 Y33.1515
G01 X26.7510 Y33.1486
G01 X26.8285 Y33.1210
G01 X26.9101 Y33.1004
G01 X26.9971 Y33.0874
G01 X27.0792 Y33.0833
G01 X27.0868 Y33.0833
G01 X27.1689 Y33.0874
G01 X27.2503 Y33.0994
G01 X27.2577 Y33.1009
G01 X27.3375 Y33.1210
G01 X27.4150 Y33.1486
G01 X27.4220 Y33.1515
G01 X27.4963 Y33.1867
G01 X27.5669 Y33.2290
G01 X27.5732 Y33.2331
G01 X27.6392 Y33.2822
G01 X27.7030 Y33.3400
G01 X27.7608 Y33.4038
G01 X27.8120 Y33.4729
G01 X27.8563 Y33.5467
G01 X27.8915 Y33.6210
G01 X27.8944 Y33.6280
G01 X27.9209 Y33.7019
G01 X27.9231 Y33.7091
G01 X27.9430 Y33.7889
G01 X27.9551 Y33.8703
G01 X27.9559 Y33.8778
G01 X27.9598 Y33.9600
G01 X27.9556 Y34.0459
G01 X27.9430 Y34.1311
G01 X27.9231 Y34.2109
G01 X27.9209 Y34.2181
G01 X27.8944 Y34.2920
G01 X27.8915 Y34.2990
G01 X27.8563 Y34.3733
G01 X27.8140 Y34.4439
G01 X27.8099 Y34.4502
G01 X27.7608 Y34.5162
G01 X27.7030 Y34.5800
G01 X27.6392 Y34.6378
G01 X27.5685 Y34.6901
G01 X27.4963 Y34.7333
G01 X27.4220 Y34.7685
G01 X27.4150 Y34.7714
G01 X27.3411 Y34.7979
G01 X27.3339 Y34.8001
G01 X27.2541 Y34.8200
G01 X27.1727 Y34.8321
G01 X27.1652 Y34.8329
G01 X27.0830 Y34.8368
G01 X26.9971 Y34.8326
G01 X26.9119 Y34.8200
G01 X26.8285 Y34.7990
G01 X26.7510 Y34.7714
G01 X26.7440 Y34.7685
G01 X26.6697 Y34.7333
G01 X26.5991 Y34.6910
G01 X26.5928 Y34.6869
G01 X26.5268 Y34.6378
G01 X26.4617 Y34.5786
G01 X26.4052 Y34.5162
G01 X26.3561 Y34.4502
G01 X26.3520 Y34.4439
G01 X26.3106 Y34.3750
G01 X26.2722 Y34.2938
G01 X26.2445 Y34.2162
G01 X26.2307 Y34.1619
G01 X25.7837 Y34.1619
G01 X25.7639 Y34.1609
G01 X25.7443 Y34.1580
G01 X25.7287 Y34.1542
G01 X25.7215 Y34.1520
G01 X25.7030 Y34.1450
G01 X25.6885 Y34.1380
G01 X25.6715 Y34.1278
G01 X25.6556 Y34.1160
G01 X25.6423 Y34.1041
G01 X23.7823 Y32.2440
G01 X23.7690 Y32.2294
G01 X23.7593 Y32.2165
G01 X23.7551 Y32.2103
G01 X23.7461 Y32.1948
G01 X23.7378 Y32.1768
G01 X23.7324 Y32.1617
G01 X23.7308 Y32.1563
G01 X23.7270 Y32.1407
G01 X23.7246 Y32.1248
G01 X23.7239 Y32.1192
G01 X23.7232 Y32.1032
G01 X23.7231 Y30.3239
G01 X22.3861 Y28.9869
G01 X21.4944 Y28.9868
G01 X21.4765 Y28.9859
G01 X21.4569 Y28.9830
G01 X21.4377 Y28.9782
G01 X21.4173 Y28.9708
G01 X21.4011 Y28.9630
G01 X21.3842 Y28.9528
G01 X21.3682 Y28.9410
G01 X21.3536 Y28.9277
G01 X20.6653 Y28.2394
G01 X20.6520 Y28.2248
G01 X20.6391 Y28.2073
G01 X20.6300 Y28.1919
G01 X20.6230 Y28.1774
G01 X20.6201 Y28.1704
G01 X20.6148 Y28.1553
G01 X20.6108 Y28.1398
G01 X20.6094 Y28.1324
G01 X20.6071 Y28.1165
G01 X20.6061 Y28.0967
G01 X20.6062 Y23.7012
G00 Z2.0000
G00 X21.7104 Y25.9557
G01 F60.00
G01 Z-0.1000
G01 F120.00
G01 X21.6283 Y25.9263
G01 X21.5461 Y25.8874
G01 X21.4681 Y25.8406
G01 X21.3950 Y25.7864
G01 X21.3277 Y25.7253
G01 X21.2666 Y25.6580
G01 X21.2124 Y25.5849
G01 X21.1656 Y25.5069
G01 X21.1267 Y25.4247
G01 X21.0961 Y25.3390
G01 X21.0740 Y25.2508
G01 X21.0607 Y25.1608
G01 X21.0562 Y25.0700
G01 X21.0607 Y24.9792
G01 X21.0740 Y24.8892
G01 X21.0961 Y24.8010
G01 X21.1267 Y24.7153
G01 X21.1656 Y24.6331
G01 X21.2124 Y24.5551
G01 X21.2666 Y24.4820
G01 X21.3277 Y24.4147
G01 X21.3950 Y24.3536
G01 X21.4681 Y24.2994
G01 X21.5461 Y24.2526
G01 X21.6283 Y24.2137
G01 X21.7140 Y24.1831
G01 X21.8020 Y24.1610
G01 X21.8922 Y24.1477
G01 X21.9830 Y24.1432
G01 X22.0738 Y24.1477
G01 X22.1638 Y24.1610
G01 X22.2520 Y24.1831
G01 X22.3377 Y24.2137
G01 X22.4165 Y24.2509
G01 X22.4232 Y24.2545
G01 X22.4979 Y24.2994
G01 X22.5680 Y24.3513
G01 X22.5738 Y24.3560
G01 X22.6356 Y24.4121
G01 X22.6409 Y24.4174
G01 X22.6994 Y24.4820
G01 X22.7536 Y24.5551
G01 X22.8004 Y24.6331
G01 X22.8377 Y24.7119
G01 X22.8406 Y24.7188
G01 X22.8687 Y24.7974
G01 X22.8709 Y24.8046
G01 X22.8920 Y24.8892
G01 X22.9049 Y24.9754
G01 X22.9056 Y24.9829
G01 X22.9098 Y25.0700
G01 X22.9053 Y25.1608
G01 X22.8920 Y25.2508
G01 X22.8709 Y25.3354
G01 X22.8688 Y25.3423
G01 X22.8406 Y25.4212
G01 X22.8377 Y25.4281
G01 X22.8004 Y25.5069
G01 X22.7648 Y25.5664
G01 X26.8926 Y29.6941
G01 X31.7154 Y29.6941
G01 X32.0897 Y29.3198
G01 X32.0501 Y29.3198
G01 X32.0389 Y29.3187
G01 X32.0315 Y29.3170
G01 X32.0244 Y29.3147
G01 X32.0175 Y29.3116
G01 X32.0093 Y29.3069
G01 X32.0018 Y29.3012
G01 X31.9951 Y29.2946
G01 X31.9903 Y29.2887
G01 X31.9852 Y29.2809
G01 X31.9810 Y29.2724
G01 X31.9780 Y29.2635
G01 X31.9760 Y29.2543
G01 X31.9752 Y29.2449
G01 X31.9753 Y27.6392
G01 X31.9760 Y27.6317
G01 X31.9775 Y27.6243
G01 X31.9797 Y27.6171
G01 X31.9818 Y27.6119
G01 X31.9852 Y27.6051
G01 X31.9892 Y27.5988
G01 X31.9926 Y27.5943
G01 X31.9977 Y27.5887
G01 X32.0033 Y27.5836
G01 X32.0093 Y27.5791
G01 X32.0158 Y27.5753
G01 X32.0209 Y27.5728
G01 X32.0261 Y27.5707
G01 X32.0333 Y27.5685
G01 X32.0389 Y27.5673
G01 X32.0464 Y27.5664
G01 X32.6076 Y27.5664
G01 X32.6170 Y27.5677
G01 X32.6279 Y27.5707
G01 X32.6382 Y27.5753
G01 X32.6477 Y27.5813
G01 X32.6563 Y27.5887
G01 X32.6637 Y27.5973
G01 X32.6697 Y27.6068
G01 X32.6743 Y27.6171
G01 X32.6760 Y27.6225
G01 X32.6777 Y27.6299
G01 X32.6784 Y27.6355
G01 X32.6788 Y27.6430
G01 X32.6788 Y29.2430
G01 X32.6780 Y29.2543
G01 X32.6755 Y29.2653
G01 X32.6722 Y29.2741
G01 X32.6679 Y29.2825
G01 X32.6637 Y29.2887
G01 X32.6576 Y29.2960
G01 X32.6522 Y29.3012
G01 X32.6447 Y29.3069
G01 X32.6365 Y29.3116
G01 X32.6296 Y29.3147
G01 X32.6188 Y29.3179
G01 X32.6114 Y29.3192
G01 X32.6058 Y29.3197
G01 X32.5289 Y29.3198
G01 X32.5289 Y29.3680
G01 X32.5281 Y29.3859
G01 X32.5250 Y29.4074
G01 X32.5202 Y29.4266
G01 X32.5135 Y29.4452
G01 X32.5067 Y29.4598
G01 X32.5032 Y29.4664
G01 X32.4948 Y29.4801
G01 X32.4854 Y29.4931
G01 X32.4723 Y29.5080
G01 X31.9417 Y30.0387
G01 X31.9299 Y30.0496
G01 X31.9241 Y30.0544
G01 X31.9096 Y30.0649
G01 X31.8942 Y30.0740
G01 X31.8780 Y30.0818
G01 X31.8558 Y30.0897
G01 X31.8384 Y30.0940
G01 X31.8225 Y30.0964
G01 X31.8150 Y30.0972
G01 X31.7990 Y30.0979
G01 X26.8090 Y30.0979
G01 X26.7892 Y30.0969
G01 X26.7733 Y30.0946
G01 X26.7659 Y30.0932
G01 X26.7504 Y30.0892
G01 X26.7318 Y30.0825
G01 X26.7172 Y30.0757
G01 X26.7106 Y30.0722
G01 X26.6969 Y30.0638
G01 X26.6839 Y30.0544
G01 X26.6781 Y30.0496
G01 X26.6663 Y30.0387
G01 X22.4794 Y25.8518
G01 X22.4199 Y25.8874
G01 X22.3411 Y25.9247
G01 X22.3342 Y25.9276
G01 X22.2556 Y25.9557
G01 X22.2484 Y25.9579
G01 X22.1638 Y25.9790
G01 X22.0757 Y25.9921
G01 X21.9830 Y25.9968
G01 X21.8922 Y25.9923
G01 X21.8022 Y25.9790
G01 X21.7176 Y25.9579
G01 X21.7104 Y25.9557
G00 Z2.0000
G00 X21.6819 Y26.0353
G01 F60.00
G01 Z-0.1000
G01 F120.00
G01 X21.6971 Y26.0398
G01 X21.7857 Y26.0618
G01 X21.8839 Y26.0764
G01 X21.9830 Y26.0813
G01 X22.0821 Y26.0764
G01 X22.1803 Y26.0618
G01 X22.2766 Y26.0377
G01 X22.3700 Y26.0043
G01 X22.4526 Y25.9654
G01 X22.4662 Y25.9582
G01 X25.7623 Y29.2543
G01 X25.7464 Y29.2476
G01 X25.7094 Y29.2344
G01 X25.6981 Y29.2308
G01 X25.6485 Y29.2185
G01 X25.6019 Y29.2114
G01 X25.5861 Y29.2098
G01 X25.5390 Y29.2077
G01 X25.4879 Y29.2101
G01 X25.4689 Y29.2125
G01 X23.6648 Y27.4084
G01 X23.6564 Y27.4005
G01 X23.6444 Y27.3910
G01 X23.6347 Y27.3847
G01 X23.6281 Y27.3808
G01 X23.5632 Y27.3455
G01 X23.5560 Y27.3420
G01 X23.5449 Y27.3375
G01 X23.5373 Y27.3349
G01 X23.5257 Y27.3318
G01 X23.5139 Y27.3295
G01 X23.5060 Y27.3285
G01 X23.4980 Y27.3279
G01 X23.4860 Y27.3277
G01 X23.4003 Y27.3338
G01 X23.3845 Y27.3365
G01 X23.3768 Y27.3385
G01 X23.3653 Y27.3421
G01 X23.3505 Y27.3483
G01 X23.3434 Y27.3519
G01 X23.3330 Y27.3580
G01 X23.3231 Y27.3648
G01 X23.2610 Y27.4115
G01 X23.2522 Y27.4194
G01 X23.2466 Y27.4250
G01 X23.2388 Y27.4339
G01 X23.2317 Y27.4434
G01 X23.2233 Y27.4568
G01 X23.2196 Y27.4638
G01 X23.2147 Y27.4745
G01 X23.1875 Y27.5455
G01 X23.1839 Y27.5572
G01 X23.1820 Y27.5651
G01 X23.1798 Y27.5771
G01 X23.1789 Y27.5852
G01 X23.1586 Y27.8173
G01 X23.1344 Y27.9079
G01 X23.1315 Y27.9229
G01 X23.1300 Y27.9382
G01 X23.1299 Y27.9497
G01 X23.1320 Y28.0276
G01 X23.1339 Y28.0435
G01 X23.1375 Y28.0592
G01 X23.1412 Y28.0707
G01 X23.1441 Y28.0782
G01 X23.1511 Y28.0927
G01 X23.1855 Y28.1496
G01 X23.1941 Y28.1623
G01 X23.2013 Y28.1713
G01 X23.2092 Y28.1797
G01 X25.0265 Y29.9969
G01 X25.0440 Y30.0336
G01 X25.0723 Y30.0808
G01 X25.1051 Y30.1251
G01 X25.1421 Y30.1659
G01 X25.1829 Y30.2029
G01 X25.2272 Y30.2357
G01 X25.2744 Y30.2640
G01 X25.3111 Y30.2815
G01 X25.3965 Y30.3669
G01 X25.4051 Y30.3745
G01 X25.4142 Y30.3816
G01 X25.4238 Y30.3879
G01 X25.4305 Y30.3917
G01 X25.4953 Y30.4271
G01 X25.5097 Y30.4336
G01 X25.5209 Y30.4376
G01 X25.5324 Y30.4407
G01 X25.5479 Y30.4436
G01 X25.5782 Y30.4469
G01 X25.5911 Y30.4477
G01 X26.0155 Y30.4478
G01 X26.0309 Y30.4470
G01 X26.0461 Y30.4449
G01 X26.0610 Y30.4412
G01 X26.1357 Y30.4191
G01 X26.1431 Y30.4163
G01 X26.1541 Y30.4114
G01 X26.1612 Y30.4076
G01 X26.1715 Y30.4014
G01 X26.1780 Y30.3968
G01 X26.1874 Y30.3894
G01 X26.1963 Y30.3812
G01 X26.2018 Y30.3754
G01 X26.2528 Y30.3166
G01 X26.2601 Y30.3070
G01 X26.2667 Y30.2970
G01 X26.2725 Y30.2864
G01 X26.2774 Y30.2755
G01 X26.2816 Y30.2642
G01 X26.2849 Y30.2527
G01 X26.2880 Y30.2370
G01 X26.2979 Y30.1678
G01 X26.2994 Y30.1519
G01 X26.2996 Y30.1439
G01 X26.2990 Y30.1319
G01 X26.2970 Y30.1160
G01 X26.2933 Y30.1004
G01 X26.2896 Y30.0890
G01 X26.2866 Y30.0815
G01 X26.2545 Y30.0112
G01 X26.2468 Y29.9970
G01 X26.2377 Y29.9837
G01 X26.2300 Y29.9744
G01 X26.2173 Y29.9608
G01 X26.0955 Y29.8391
G01 X26.0979 Y29.8201
G01 X26.1003 Y29.7690
G01 X26.0982 Y29.7219
G01 X26.0966 Y29.7061
G01 X26.0895 Y29.6595
G01 X26.0772 Y29.6099
G01 X26.0736 Y29.5986
G01 X26.0604 Y29.5616
G01 X26.0537 Y29.5457
G01 X26.6065 Y30.0985
G01 X26.6243 Y30.1148
G01 X26.6434 Y30.1295
G01 X26.6566 Y30.1383
G01 X26.6740 Y30.1485
G01 X26.6994 Y30.1605
G01 X26.7259 Y30.1700
G01 X26.7454 Y30.1751
G01 X26.7570 Y30.1776
G01 X26.7809 Y30.1810
G01 X26.8090 Y30.1823
G01 X31.8030 Y30.1823
G01 X31.8271 Y30.1810
G01 X31.8549 Y30.1768
G01 X31.8821 Y30.1700
G01 X31.9086 Y30.1605
G01 X31.9340 Y30.1485
G01 X31.9581 Y30.1341
G01 X31.9807 Y30.1173
G01 X31.9986 Y30.1012
G01 X32.5295 Y29.5705
G01 X32.5458 Y29.5527
G01 X32.5532 Y29.5434
G01 X32.5672 Y29.5238
G01 X32.5795 Y29.5030
G01 X32.5900 Y29.4812
G01 X32.5985 Y29.4586
G01 X32.6021 Y29.4473
G01 X32.6078 Y29.4239
G01 X32.6110 Y29.4040
G01 X32.6217 Y29.4031
G01 X32.6296 Y29.4019
G01 X32.6450 Y29.3984
G01 X32.6600 Y29.3935
G01 X32.6745 Y29.3871
G01 X32.6883 Y29.3793
G01 X32.6981 Y29.3725
G01 X32.7043 Y29.3677
G01 X32.7160 Y29.3570
G01 X32.7270 Y29.3449
G01 X32.7352 Y29.3542
G01 X32.7437 Y29.3625
G01 X32.7559 Y29.3725
G01 X32.7657 Y29.3793
G01 X32.7795 Y29.3871
G01 X32.7903 Y29.3920
G01 X32.8014 Y29.3961
G01 X32.8151 Y29.4000
G01 X31.5894 Y30.6257
G01 X25.4036 Y30.6257
G01 X22.8712 Y28.0932
G01 X22.8784 Y28.0796
G01 X22.9173 Y27.9970
G01 X22.9483 Y27.9111
G01 X22.9528 Y27.8959
G01 X22.9731 Y27.8150
G01 X22.9762 Y27.7995
G01 X22.9894 Y27.7091
G01 X22.9943 Y27.6100
G01 X22.9894 Y27.5109
G01 X22.9748 Y27.4123
G01 X22.9507 Y27.3164
G01 X22.9173 Y27.2230
G01 X22.8749 Y27.1333
G01 X22.8281 Y27.0549
G01 X22.8193 Y27.0417
G01 X22.7696 Y26.9747
G01 X22.7596 Y26.9625
G01 X22.6981 Y26.8949
G01 X22.6245 Y26.8283
G01 X22.5448 Y26.7692
G01 X22.4666 Y26.7220
G01 X22.4526 Y26.7146
G01 X22.3772 Y26.6789
G01 X22.3626 Y26.6729
G01 X22.2766 Y26.6423
G01 X22.1880 Y26.6199
G01 X22.1725 Y26.6168
G01 X22.0821 Y26.6036
G01 X21.9830 Y26.5987
G01 X21.8839 Y26.6036
G01 X21.7853 Y26.6182
G01 X21.6894 Y26.6423
G01 X21.5960 Y26.6757
G01 X21.5063 Y26.7181
G01 X21.4279 Y26.7649
G01 X21.4147 Y26.7737
G01 X21.3477 Y26.8234
G01 X21.3355 Y26.8334
G01 X21.2679 Y26.8949
G01 X21.2064 Y26.9625
G01 X21.1964 Y26.9747
G01 X21.1422 Y27.0482
G01 X21.0943 Y27.1276
G01 X21.0943 Y25.5524
G01 X21.1422 Y25.6318
G01 X21.2013 Y25.7115
G01 X21.2679 Y25.7851
G01 X21.3415 Y25.8517
G01 X21.4212 Y25.9108
G01 X21.5063 Y25.9619
G01 X21.5960 Y26.0043
G01 X21.6819 Y26.0353
G00 Z2.0000
G00 X21.6535 Y26.1148
G01 F60.00
G01 Z-0.1000
G01 F120.00
G01 X21.6649 Y26.1186
G01 X21.6765 Y26.1218
G01 X21.7575 Y26.1421
G01 X21.7692 Y26.1447
G01 X21.7811 Y26.1468
G01 X21.8636 Y26.1590
G01 X21.8756 Y26.1605
G01 X21.8876 Y26.1614
G01 X21.9709 Y26.1655
G01 X21.9830 Y26.1658
G01 X21.9951 Y26.1655
G01 X22.0844 Y26.1610
G01 X22.1024 Y26.1590
G01 X22.1849 Y26.1468
G01 X22.1968 Y26.1447
G01 X22.2085 Y26.1421
G01 X22.2953 Y26.1203
G01 X22.3125 Y26.1148
G01 X22.3967 Y26.0846
G01 X22.4134 Y26.0775
G01 X22.4491 Y26.0605
G01 X25.5128 Y29.1242
G01 X25.5008 Y29.1248
G01 X23.7246 Y27.3486
G01 X23.7117 Y27.3367
G01 X23.6981 Y27.3257
G01 X23.6886 Y27.3189
G01 X23.6737 Y27.3096
G01 X23.6019 Y27.2704
G01 X23.5909 Y27.2650
G01 X23.5796 Y27.2603
G01 X23.5682 Y27.2561
G01 X23.5506 Y27.2509
G01 X23.5387 Y27.2481
G01 X23.5207 Y27.2451
G01 X23.5024 Y27.2435
G01 X23.4902 Y27.2432
G01 X23.4720 Y27.2438
G01 X23.4023 Y27.2488
G01 X23.3901 Y27.2499
G01 X23.3780 Y27.2517
G01 X23.3661 Y27.2541
G01 X23.3484 Y27.2587
G01 X23.3368 Y27.2626
G01 X23.3198 Y27.2694
G01 X23.3088 Y27.2746
G01 X23.2980 Y27.2804
G01 X23.2876 Y27.2867
G01 X23.2725 Y27.2972
G01 X23.2166 Y27.3390
G01 X23.2025 Y27.3504
G01 X23.1937 Y27.3585
G01 X23.1852 Y27.3670
G01 X23.1733 Y27.3806
G01 X23.1659 Y27.3901
G01 X23.1557 Y27.4050
G01 X23.1496 Y27.4154
G01 X23.1413 Y27.4314
G01 X23.1365 Y27.4425
G01 X23.1079 Y27.5174
G01 X23.1040 Y27.5292
G01 X23.0994 Y27.5472
G01 X23.0962 Y27.5655
G01 X23.0948 Y27.5779
G01 X23.0751 Y27.8026
G01 X23.0510 Y27.8936
G01 X23.0479 Y27.9109
G01 X23.0465 Y27.9225
G01 X23.0457 Y27.9342
G01 X23.0455 Y27.9517
G01 X23.0471 Y28.0216
G01 X23.0477 Y28.0338
G01 X23.0489 Y28.0460
G01 X23.0507 Y28.0581
G01 X23.0531 Y28.0701
G01 X23.0562 Y28.0820
G01 X23.0598 Y28.0937
G01 X23.0639 Y28.1052
G01 X23.0687 Y28.1165
G01 X23.0740 Y28.1276
G01 X23.0830 Y28.1436
G01 X23.1197 Y28.2034
G01 X23.1265 Y28.2129
G01 X23.1337 Y28.2221
G01 X23.1414 Y28.2310
G01 X23.1495 Y28.2394
G01 X24.9563 Y30.0463
G01 X24.9680 Y30.0706
G01 X22.9735 Y28.0761
G01 X22.9905 Y28.0404
G01 X22.9976 Y28.0237
G01 X23.0281 Y27.9386
G01 X23.0333 Y27.9220
G01 X23.0551 Y27.8355
G01 X23.0577 Y27.8238
G01 X23.0598 Y27.8119
G01 X23.0728 Y27.7234
G01 X23.0744 Y27.7054
G01 X23.0785 Y27.6221
G01 X23.0788 Y27.6100
G01 X23.0785 Y27.5979
G01 X23.0744 Y27.5146
G01 X23.0735 Y27.5026
G01 X23.0720 Y27.4906
G01 X23.0596 Y27.4069
G01 X23.0564 Y27.3900
G01 X23.0348 Y27.3035
G01 X23.0316 Y27.2919
G01 X23.0278 Y27.2805
G01 X22.9997 Y27.2019
G01 X22.9954 Y27.1907
G01 X22.9905 Y27.1796
G01 X22.9548 Y27.1042
G01 X22.9494 Y27.0935
G01 X22.9434 Y27.0830
G01 X22.9005 Y27.0114
G01 X22.8941 Y27.0012
G01 X22.8871 Y26.9914
G01 X22.8375 Y26.9244
G01 X22.8300 Y26.9149
G01 X22.8222 Y26.9057
G01 X22.7661 Y26.8439
G01 X22.7578 Y26.8352
G01 X22.7491 Y26.8269
G01 X22.6828 Y26.7668
G01 X22.6686 Y26.7555
G01 X22.6016 Y26.7059
G01 X22.5918 Y26.6989
G01 X22.5816 Y26.6925
G01 X22.5100 Y26.6496
G01 X22.4995 Y26.6436
G01 X22.4888 Y26.6382
G01 X22.4134 Y26.6025
G01 X22.4023 Y26.5976
G01 X22.3911 Y26.5933
G01 X22.3125 Y26.5652
G01 X22.3011 Y26.5614
G01 X22.2895 Y26.5582
G01 X22.2085 Y26.5379
G01 X22.1968 Y26.5353
G01 X22.1849 Y26.5332
G01 X22.1024 Y26.5210
G01 X22.0904 Y26.5195
G01 X22.0784 Y26.5186
G01 X21.9951 Y26.5145
G01 X21.9830 Y26.5142
G01 X21.9709 Y26.5145
G01 X21.8816 Y26.5190
G01 X21.8636 Y26.5210
G01 X21.7799 Y26.5334
G01 X21.7686 Y26.5354
G01 X21.6765 Y26.5582
G01 X21.6649 Y26.5614
G01 X21.6535 Y26.5652
G01 X21.5749 Y26.5933
G01 X21.5637 Y26.5976
G01 X21.5526 Y26.6025
G01 X21.4718 Y26.6408
G01 X21.4560 Y26.6496
G01 X21.3844 Y26.6925
G01 X21.3742 Y26.6989
G01 X21.3644 Y26.7059
G01 X21.2926 Y26.7592
G01 X21.2787 Y26.7708
G01 X21.2125 Y26.8310
G01 X21.2040 Y26.8395
G01 X21.1788 Y26.8671
G01 X21.1788 Y25.8129
G01 X21.2040 Y25.8405
G01 X21.2125 Y25.8490
G01 X21.2832 Y25.9132
G01 X21.2974 Y25.9245
G01 X21.3644 Y25.9741
G01 X21.3793 Y25.9844
G01 X21.4560 Y26.0304
G01 X21.4665 Y26.0364
G01 X21.4772 Y26.0418
G01 X21.5526 Y26.0775
G01 X21.5637 Y26.0824
G01 X21.5749 Y26.0867
G01 X21.6535 Y26.1148
G00 Z2.0000
G00 X21.2633 Y26.6756
G01 F60.00
G01 Z-0.1000
G01 F120.00
G01 X21.2633 Y26.0044
G01 X21.3140 Y26.0420
G01 X21.3273 Y26.0513
G01 X21.3410 Y26.0600
G01 X21.4195 Y26.1070
G01 X21.4411 Y26.1182
G01 X21.5165 Y26.1538
G01 X21.5313 Y26.1604
G01 X21.5465 Y26.1662
G01 X21.6250 Y26.1943
G01 X21.6404 Y26.1994
G01 X21.6560 Y26.2037
G01 X21.7369 Y26.2240
G01 X21.7527 Y26.2276
G01 X21.7687 Y26.2303
G01 X21.8593 Y26.2437
G01 X21.8835 Y26.2457
G01 X21.9668 Y26.2498
G01 X21.9830 Y26.2502
G01 X21.9992 Y26.2498
G01 X22.0825 Y26.2457
G01 X22.0987 Y26.2446
G01 X22.1148 Y26.2426
G01 X22.1973 Y26.2303
G01 X22.2133 Y26.2276
G01 X22.2291 Y26.2240
G01 X22.3100 Y26.2037
G01 X22.3256 Y26.1994
G01 X22.3410 Y26.1943
G01 X22.4310 Y26.1619
G01 X23.4311 Y27.1620
G01 X23.3962 Y27.1645
G01 X23.3799 Y27.1661
G01 X23.3637 Y27.1685
G01 X23.3476 Y27.1716
G01 X23.3317 Y27.1756
G01 X23.3160 Y27.1804
G01 X23.3006 Y27.1859
G01 X23.2780 Y27.1957
G01 X23.2633 Y27.2031
G01 X23.2491 Y27.2112
G01 X23.2353 Y27.2200
G01 X23.2219 Y27.2295
G01 X23.1660 Y27.2714
G01 X23.1532 Y27.2814
G01 X23.1351 Y27.2976
G01 X23.1234 Y27.3095
G01 X23.1147 Y27.2752
G01 X23.1100 Y27.2597
G01 X23.0764 Y27.1659
G01 X23.0668 Y27.1435
G01 X23.0312 Y27.0681
G01 X23.0200 Y27.0465
G01 X22.9730 Y26.9680
G01 X22.9643 Y26.9543
G01 X22.9550 Y26.9410
G01 X22.9053 Y26.8740
G01 X22.8953 Y26.8613
G01 X22.8848 Y26.8490
G01 X22.8287 Y26.7872
G01 X22.8118 Y26.7698
G01 X22.7440 Y26.7082
G01 X22.7317 Y26.6977
G01 X22.7190 Y26.6877
G01 X22.6520 Y26.6380
G01 X22.6387 Y26.6287
G01 X22.6250 Y26.6200
G01 X22.5535 Y26.5771
G01 X22.5394 Y26.5691
G01 X22.5249 Y26.5618
G01 X22.4495 Y26.5262
G01 X22.4347 Y26.5196
G01 X22.4195 Y26.5138
G01 X22.3410 Y26.4857
G01 X22.3256 Y26.4806
G01 X22.3100 Y26.4763
G01 X22.2212 Y26.4541
G01 X22.1973 Y26.4497
G01 X22.1148 Y26.4374
G01 X22.0987 Y26.4354
G01 X22.0825 Y26.4343
G01 X21.9992 Y26.4302
G01 X21.9830 Y26.4298
G01 X21.9668 Y26.4302
G01 X21.8835 Y26.4343
G01 X21.8673 Y26.4354
G01 X21.8512 Y26.4374
G01 X21.7671 Y26.4499
G01 X21.7444 Y26.4542
G01 X21.6560 Y26.4763
G01 X21.6404 Y26.4806
G01 X21.6250 Y26.4857
G01 X21.5465 Y26.5138
G01 X21.5313 Y26.5196
G01 X21.5165 Y26.5262
G01 X21.4338 Y26.5654
G01 X21.4125 Y26.5771
G01 X21.3410 Y26.6200
G01 X21.3273 Y26.6287
G01 X21.3140 Y26.6380
G01 X21.2633 Y26.6756
G00 Z2.0000
G00 X21.0734 Y27.4329
G01 F60.00
G01 Z-0.1000
G01 F120.00
G01 X21.0748 Y27.4255
G01 X21.0961 Y27.3410
G01 X21.1254 Y27.2588
G01 X21.1283 Y27.2519
G01 X21.1656 Y27.1731
G01 X21.2104 Y27.0983
G01 X21.2146 Y27.0920
G01 X21.2666 Y27.0220
G01 X21.3251 Y26.9574
G01 X21.3304 Y26.9521
G01 X21.3950 Y26.8936
G01 X21.4650 Y26.8416
G01 X21.4713 Y26.8374
G01 X21.5461 Y26.7926
G01 X21.6249 Y26.7553
G01 X21.6318 Y26.7524
G01 X21.7140 Y26.7231
G01 X21.7985 Y26.7018
G01 X21.8055 Y26.7004
G01 X21.8922 Y26.6877
G01 X21.9792 Y26.6833
G01 X21.9868 Y26.6833
G01 X22.0738 Y26.6877
G01 X22.1601 Y26.7004
G01 X22.1675 Y26.7018
G01 X22.2520 Y26.7231
G01 X22.3342 Y26.7524
G01 X22.3411 Y26.7553
G01 X22.4199 Y26.7926
G01 X22.4947 Y26.8374
G01 X22.5010 Y26.8416
G01 X22.5695 Y26.8924
G01 X22.6383 Y26.9547
G01 X22.6994 Y27.0220
G01 X22.7536 Y27.0951
G01 X22.7985 Y27.1698
G01 X22.8021 Y27.1765
G01 X22.8377 Y27.2519
G01 X22.8406 Y27.2588
G01 X22.8699 Y27.3410
G01 X22.8912 Y27.4255
G01 X22.8926 Y27.4325
G01 X22.9053 Y27.5192
G01 X22.9098 Y27.6100
G01 X22.9053 Y27.7008
G01 X22.8920 Y27.7908
G01 X22.8699 Y27.8789
G01 X22.8393 Y27.9647
G01 X22.8004 Y28.0469
G01 X22.7648 Y28.1064
G01 X25.3686 Y30.7101
G01 X31.6244 Y30.7101
G01 X32.9251 Y29.4094
G01 X32.9251 Y29.3198
G01 X32.8464 Y29.3196
G01 X32.8389 Y29.3187
G01 X32.8333 Y29.3175
G01 X32.8261 Y29.3153
G01 X32.8192 Y29.3124
G01 X32.8093 Y29.3069
G01 X32.8018 Y29.3012
G01 X32.7938 Y29.2932
G01 X32.7881 Y29.2857
G01 X32.7826 Y29.2758
G01 X32.7791 Y29.2671
G01 X32.7763 Y29.2561
G01 X32.7753 Y29.2468
G01 X32.7753 Y27.6392
G01 X32.7760 Y27.6317
G01 X32.7771 Y27.6262
G01 X32.7785 Y27.6207
G01 X32.7810 Y27.6136
G01 X32.7834 Y27.6085
G01 X32.7871 Y27.6019
G01 X32.7938 Y27.5928
G01 X32.7990 Y27.5874
G01 X32.8033 Y27.5836
G01 X32.8093 Y27.5791
G01 X32.8141 Y27.5762
G01 X32.8192 Y27.5736
G01 X32.8261 Y27.5707
G01 X32.8333 Y27.5685
G01 X32.8389 Y27.5673
G01 X32.8464 Y27.5664
G01 X32.8520 Y27.5662
G01 X33.4076 Y27.5664
G01 X33.4170 Y27.5677
G01 X33.4279 Y27.5707
G01 X33.4382 Y27.5753
G01 X33.4477 Y27.5813
G01 X33.4550 Y27.5874
G01 X33.4625 Y27.5958
G01 X33.4688 Y27.6051
G01 X33.4737 Y27.6154
G01 X33.4760 Y27.6225
G01 X33.4777 Y27.6299
G01 X33.4784 Y27.6355
G01 X33.4788 Y27.6430
G01 X33.4788 Y29.2430
G01 X33.4780 Y29.2543
G01 X33.4760 Y29.2635
G01 X33.4730 Y29.2724
G01 X33.4688 Y29.2809
G01 X33.4637 Y29.2887
G01 X33.4576 Y29.2960
G01 X33.4492 Y29.3035
G01 X33.4415 Y29.3089
G01 X33.4331 Y29.3132
G01 X33.4279 Y29.3153
G01 X33.4207 Y29.3175
G01 X33.4151 Y29.3187
G01 X33.4076 Y29.3196
G01 X33.3289 Y29.3198
G01 X33.3288 Y29.4949
G01 X33.3279 Y29.5128
G01 X33.3253 Y29.5305
G01 X33.3212 Y29.5480
G01 X33.3190 Y29.5552
G01 X33.3135 Y29.5702
G01 X33.3050 Y29.5882
G01 X33.2969 Y29.6020
G01 X33.2927 Y29.6082
G01 X33.2830 Y29.6211
G01 X33.2711 Y29.6344
G01 X31.8494 Y31.0561
G01 X31.8361 Y31.0680
G01 X31.8232 Y31.0777
G01 X31.8170 Y31.0819
G01 X31.8032 Y31.0900
G01 X31.7887 Y31.0970
G01 X31.7817 Y31.0999
G01 X31.7666 Y31.1052
G01 X31.7492 Y31.1096
G01 X31.7278 Y31.1129
G01 X31.7080 Y31.1139
G01 X25.2850 Y31.1139
G01 X25.2690 Y31.1132
G01 X25.2615 Y31.1124
G01 X25.2456 Y31.1100
G01 X25.2264 Y31.1052
G01 X25.2078 Y31.0985
G01 X25.1932 Y31.0917
G01 X25.1760 Y31.0819
G01 X25.1698 Y31.0777
G01 X25.1569 Y31.0680
G01 X25.1423 Y31.0547
G01 X22.4794 Y28.3918
G01 X22.4199 Y28.4274
G01 X22.3377 Y28.4663
G01 X22.2520 Y28.4969
G01 X22.1675 Y28.5182
G01 X22.1601 Y28.5196
G01 X22.0776 Y28.5319
G01 X22.0701 Y28.5326
G01 X21.9830 Y28.5368
G01 X21.8959 Y28.5326
G01 X21.8884 Y28.5319
G01 X21.8059 Y28.5196
G01 X21.7985 Y28.5182
G01 X21.7141 Y28.4969
G01 X21.6283 Y28.4663
G01 X21.5461 Y28.4274
G01 X21.4713 Y28.3826
G01 X21.4650 Y28.3784
G01 X21.3936 Y28.3252
G01 X21.3304 Y28.2679
G01 X21.3251 Y28.2626
G01 X21.2666 Y28.1980
G01 X21.2146 Y28.1280
G01 X21.2104 Y28.1217
G01 X21.1656 Y28.0469
G01 X21.1283 Y27.9681
G01 X21.1254 Y27.9612
G01 X21.0961 Y27.8790
G01 X21.0748 Y27.7945
G01 X21.0734 Y27.7871
G01 X21.0607 Y27.7008
G01 X21.0563 Y27.6138
G01 X21.0563 Y27.6062
G01 X21.0607 Y27.5192
G01 X21.0734 Y27.4329
G00 Z2.0000
G00 X20.4553 Y28.3846
G01 F60.00
G01 Z-0.1000
G01 F120.00
G01 X20.4666 Y28.3978
G01 X20.4861 Y28.4186
G01 X20.7175 Y28.6501
G01 X20.6744 Y28.6533
G01 X20.6582 Y28.6552
G01 X20.6420 Y28.6580
G01 X20.6260 Y28.6616
G01 X20.6102 Y28.6660
G01 X20.5946 Y28.6711
G01 X20.5793 Y28.6771
G01 X20.5643 Y28.6837
G01 X20.5497 Y28.6912
G01 X20.5285 Y28.7036
G01 X20.5083 Y28.7176
G01 X20.4553 Y28.7572
G01 X20.4553 Y28.3846
G00 Z2.0000
G00 X22.4667 Y28.4987
G01 F60.00
G01 Z-0.1000
G01 F120.00
G01 X22.4654 Y28.4987
G01 X22.4662 Y28.4982
G01 X22.4667 Y28.4987
G00 Z2.0000
G00 X23.2160 Y28.0176
G01 F60.00
G01 Z-0.1000
G01 F120.00
G01 X23.2144 Y27.9477
G01 X23.2149 Y27.9368
G01 X23.2170 Y27.9260
G01 X23.2421 Y27.8320
G01 X23.2638 Y27.5868
G01 X23.2655 Y27.5792
G01 X23.2672 Y27.5737
G01 X23.2921 Y27.5084
G01 X23.2960 Y27.4998
G01 X23.2998 Y27.4933
G01 X23.3067 Y27.4844
G01 X23.3149 Y27.4766
G01 X23.3769 Y27.4302
G01 X23.3851 Y27.4254
G01 X23.3938 Y27.4216
G01 X23.4030 Y27.4190
G01 X23.4105 Y27.4177
G01 X23.4859 Y27.4122
G01 X23.4954 Y27.4123
G01 X23.5067 Y27.4141
G01 X23.5159 Y27.4168
G01 X23.5246 Y27.4206
G01 X23.5876 Y27.4550
G01 X23.5939 Y27.4588
G01 X23.5997 Y27.4632
G01 X23.6051 Y27.4681
G01 X25.4398 Y29.3028
G01 X25.4497 Y29.3007
G01 X25.4923 Y29.2945
G01 X25.5352 Y29.2923
G01 X25.5428 Y29.2923
G01 X25.5857 Y29.2945
G01 X25.6283 Y29.3007
G01 X25.6357 Y29.3022
G01 X25.6774 Y29.3127
G01 X25.7179 Y29.3271
G01 X25.7249 Y29.3300
G01 X25.7638 Y29.3485
G01 X25.8007 Y29.3705
G01 X25.8070 Y29.3747
G01 X25.8415 Y29.4004
G01 X25.8734 Y29.4293
G01 X25.8787 Y29.4346
G01 X25.9051 Y29.4637
G01 X25.9099 Y29.4695
G01 X25.9354 Y29.5041
G01 X25.9576 Y29.5410
G01 X25.9612 Y29.5476
G01 X25.9795 Y29.5865
G01 X25.9953 Y29.6306
G01 X26.0058 Y29.6723
G01 X26.0073 Y29.6797
G01 X26.0135 Y29.7223
G01 X26.0157 Y29.7652
G01 X26.0157 Y29.7728
G01 X26.0135 Y29.8157
G01 X26.0073 Y29.8583
G01 X26.0052 Y29.8682
G01 X26.1575 Y30.0205
G01 X26.1692 Y30.0333
G01 X26.1737 Y30.0395
G01 X26.1784 Y30.0479
G01 X26.2103 Y30.1182
G01 X26.2131 Y30.1274
G01 X26.2147 Y30.1368
G01 X26.2151 Y30.1463
G01 X26.2143 Y30.1558
G01 X26.2044 Y30.2249
G01 X26.2029 Y30.2324
G01 X26.2007 Y30.2397
G01 X26.1978 Y30.2468
G01 X26.1942 Y30.2535
G01 X26.1900 Y30.2598
G01 X26.1394 Y30.3185
G01 X26.1311 Y30.3264
G01 X26.1233 Y30.3319
G01 X26.1132 Y30.3373
G01 X26.1042 Y30.3405
G01 X26.0354 Y30.3607
G01 X26.0283 Y30.3622
G01 X26.0210 Y30.3631
G01 X25.5893 Y30.3631
G01 X25.5571 Y30.3595
G01 X25.5498 Y30.3580
G01 X25.5408 Y30.3551
G01 X25.5323 Y30.3511
G01 X25.4710 Y30.3176
G01 X25.4617 Y30.3117
G01 X25.4535 Y30.3045
G01 X25.3597 Y30.2107
G01 X25.3531 Y30.2080
G01 X25.3142 Y30.1895
G01 X25.2741 Y30.1654
G01 X25.2365 Y30.1376
G01 X25.2019 Y30.1061
G01 X25.1704 Y30.0715
G01 X25.1426 Y30.0339
G01 X25.1185 Y29.9938
G01 X25.1000 Y29.9549
G01 X25.0973 Y29.9483
G01 X23.2677 Y28.1186
G01 X23.2629 Y28.1131
G01 X23.2586 Y28.1072
G01 X23.2244 Y28.0507
G01 X23.2206 Y28.0419
G01 X23.2184 Y28.0346
G01 X23.2169 Y28.0271
G01 X23.2160 Y28.0176
G00 Z2.0000
G00 X24.3803 Y31.0205
G01 F60.00
G01 Z-0.1000
G01 F120.00
G01 X24.3803 Y30.6512
G01 X24.6425 Y30.9134
G01 X24.5994 Y30.9166
G01 X24.5832 Y30.9185
G01 X24.5670 Y30.9213
G01 X24.5510 Y30.9249
G01 X24.5352 Y30.9293
G01 X24.5196 Y30.9344
G01 X24.5043 Y30.9404
G01 X24.4893 Y30.9470
G01 X24.4747 Y30.9545
G01 X24.4535 Y30.9669
G01 X24.4333 Y30.9809
G01 X24.3803 Y31.0205
G00 Z2.0000
G00 X24.4965 Y31.8795
G01 F60.00
G01 Z-0.1000
G01 F120.00
G01 X24.4763 Y31.8107
G01 X24.4745 Y31.8018
G01 X24.4737 Y31.7927
G01 X24.4737 Y31.3615
G01 X24.4745 Y31.3442
G01 X24.4757 Y31.3367
G01 X24.4771 Y31.3312
G01 X24.5033 Y31.2603
G01 X24.5063 Y31.2533
G01 X24.5100 Y31.2466
G01 X24.5155 Y31.2389
G01 X24.5219 Y31.2318
G01 X24.5292 Y31.2257
G01 X24.5867 Y31.1827
G01 X24.5948 Y31.1776
G01 X24.6052 Y31.1730
G01 X24.6144 Y31.1703
G01 X24.6238 Y31.1688
G01 X24.6992 Y31.1635
G01 X24.7068 Y31.1637
G01 X24.7163 Y31.1650
G01 X24.7236 Y31.1669
G01 X24.7325 Y31.1703
G01 X24.7990 Y31.2064
G01 X24.8067 Y31.2112
G01 X24.8125 Y31.2157
G01 X24.8165 Y31.2195
G01 X24.8733 Y31.2763
G01 X24.8836 Y31.2876
G01 X24.9064 Y31.3152
G01 X24.9180 Y31.3237
G01 X24.9343 Y31.3376
G01 X24.9460 Y31.3490
G01 X24.9783 Y31.3682
G01 X24.9896 Y31.3756
G01 X25.0186 Y31.3967
G01 X25.0337 Y31.4029
G01 X25.0530 Y31.4124
G01 X25.0654 Y31.4196
G01 X25.0997 Y31.4296
G01 X25.1125 Y31.4339
G01 X25.1475 Y31.4477
G01 X25.1637 Y31.4500
G01 X25.1847 Y31.4543
G01 X25.1985 Y31.4583
G01 X25.2342 Y31.4594
G01 X25.2504 Y31.4607
G01 X25.2783 Y31.4608
G01 X25.3442 Y31.4628
G01 X25.3614 Y31.4610
G01 X25.3677 Y31.4607
G01 X29.5580 Y31.4607
G01 X29.5644 Y31.4476
G01 X29.5886 Y31.4075
G01 X29.6154 Y31.3715
G01 X29.6455 Y31.3382
G01 X29.6787 Y31.3079
G01 X29.6845 Y31.3031
G01 X29.7191 Y31.2776
G01 X29.7576 Y31.2544
G01 X29.7981 Y31.2350
G01 X29.8051 Y31.2321
G01 X29.8456 Y31.2177
G01 X29.8910 Y31.2064
G01 X29.9335 Y31.2000
G01 X29.9410 Y31.1992
G01 X29.9840 Y31.1972
G01 X30.0289 Y31.1993
G01 X30.0770 Y31.2064
G01 X30.1188 Y31.2167
G01 X30.1260 Y31.2189
G01 X30.1665 Y31.2335
G01 X30.2054 Y31.2518
G01 X30.2120 Y31.2554
G01 X30.2489 Y31.2776
G01 X30.2835 Y31.3031
G01 X30.2893 Y31.3079
G01 X30.3211 Y31.3369
G01 X30.3514 Y31.3701
G01 X30.3815 Y31.4107
G01 X30.4036 Y31.4476
G01 X30.4100 Y31.4607
G01 X30.8215 Y31.4607
G01 X30.8350 Y31.4612
G01 X30.8463 Y31.4627
G01 X30.8554 Y31.4652
G01 X30.9227 Y31.4903
G01 X30.9297 Y31.4933
G01 X30.9380 Y31.4980
G01 X30.9441 Y31.5025
G01 X30.9498 Y31.5076
G01 X30.9550 Y31.5132
G01 X31.0003 Y31.5737
G01 X31.0044 Y31.5801
G01 X31.0071 Y31.5852
G01 X31.0112 Y31.5958
G01 X31.0127 Y31.6014
G01 X31.0140 Y31.6089
G01 X31.0195 Y31.6862
G01 X31.0191 Y31.6957
G01 X31.0175 Y31.7051
G01 X31.0155 Y31.7125
G01 X31.0119 Y31.7213
G01 X30.9757 Y31.7876
G01 X30.9707 Y31.7952
G01 X30.9648 Y31.8022
G01 X30.0521 Y32.7149
G01 X30.0467 Y32.7198
G01 X30.0409 Y32.7242
G01 X29.9879 Y32.7566
G01 X29.9811 Y32.7602
G01 X29.9741 Y32.7632
G01 X29.9668 Y32.7655
G01 X29.9593 Y32.7670
G01 X29.9516 Y32.7677
G01 X29.8799 Y32.7695
G01 X29.8707 Y32.7691
G01 X29.8599 Y32.7673
G01 X29.7963 Y32.7503
G01 X29.5830 Y32.7316
G01 X29.3697 Y32.7503
G01 X29.1629 Y32.8057
G01 X28.9688 Y32.8962
G01 X28.7934 Y33.0190
G01 X28.6420 Y33.1704
G01 X28.5192 Y33.3458
G01 X28.5133 Y33.3583
G01 X28.5071 Y33.3681
G01 X28.4551 Y33.4282
G01 X28.4495 Y33.4332
G01 X28.4418 Y33.4387
G01 X28.4353 Y33.4424
G01 X28.4267 Y33.4461
G01 X28.3544 Y33.4680
G01 X28.3450 Y33.4700
G01 X28.3355 Y33.4708
G01 X28.3241 Y33.4701
G01 X28.3148 Y33.4683
G01 X28.2439 Y33.4481
G01 X28.2350 Y33.4447
G01 X28.2282 Y33.4412
G01 X28.2218 Y33.4371
G01 X28.2159 Y33.4323
G01 X28.2091 Y33.4256
G01 X28.1630 Y33.3731
G01 X28.1583 Y33.3673
G01 X28.1533 Y33.3594
G01 X28.1468 Y33.3458
G01 X28.0240 Y33.1704
G01 X27.8726 Y33.0190
G01 X27.6972 Y32.8962
G01 X27.5031 Y32.8057
G01 X27.2963 Y32.7503
G01 X27.0830 Y32.7316
G01 X26.8697 Y32.7503
G01 X26.6629 Y32.8057
G01 X26.4688 Y32.8962
G01 X26.2934 Y33.0190
G01 X26.1420 Y33.1704
G01 X26.1219 Y33.1989
G01 X26.1142 Y33.2075
G01 X26.1069 Y33.2138
G01 X26.0510 Y33.2556
G01 X26.0446 Y33.2599
G01 X26.0362 Y33.2643
G01 X26.0273 Y33.2676
G01 X26.0180 Y33.2698
G01 X26.0104 Y33.2708
G01 X25.9350 Y33.2759
G01 X25.9274 Y33.2755
G01 X25.9199 Y33.2744
G01 X25.9125 Y33.2725
G01 X25.9053 Y33.2699
G01 X25.8984 Y33.2665
G01 X25.8355 Y33.2322
G01 X25.8279 Y33.2271
G01 X25.8196 Y33.2200
G01 X24.5325 Y31.9328
G01 X24.5270 Y31.9267
G01 X24.5070 Y31.9016
G01 X24.5013 Y31.8918
G01 X24.4990 Y31.8866
G01 X24.4965 Y31.8795
G00 Z2.0000
G00 X23.4697 Y31.6574
G01 F60.00
G01 Z-0.1000
G01 F120.00
G01 X23.4697 Y32.1013
G01 X23.4707 Y32.1298
G01 X23.4728 Y32.1540
G01 X23.4757 Y32.1742
G01 X23.4784 Y32.1901
G01 X23.4850 Y32.2179
G01 X23.4918 Y32.2412
G01 X23.4985 Y32.2604
G01 X23.5044 Y32.2755
G01 X23.5162 Y32.3015
G01 X23.5274 Y32.3230
G01 X23.5378 Y32.3406
G01 X23.5464 Y32.3543
G01 X23.5631 Y32.3774
G01 X23.5783 Y32.3963
G01 X23.5919 Y32.4115
G01 X23.6031 Y32.4233
G01 X25.3491 Y34.1693
G01 X25.2756 Y34.1863
G01 X25.2518 Y34.1928
G01 X25.2363 Y34.1981
G01 X25.2211 Y34.2041
G01 X25.2061 Y34.2109
G01 X25.1844 Y34.2225
G01 X25.1705 Y34.2311
G01 X25.1569 Y34.2403
G01 X25.1439 Y34.2503
G01 X25.1313 Y34.2608
G01 X25.1136 Y34.2778
G01 X25.0592 Y34.3339
G01 X25.0484 Y34.3462
G01 X25.0382 Y34.3590
G01 X25.0241 Y34.3792
G01 X25.0156 Y34.3932
G01 X25.0077 Y34.4076
G01 X25.0006 Y34.4224
G01 X24.9943 Y34.4375
G01 X24.9861 Y34.4607
G01 X24.9798 Y34.4845
G01 X24.9642 Y34.5610
G01 X24.9608 Y34.5812
G01 X23.1632 Y32.7838
G01 X23.1632 Y31.8400
G01 X23.1628 Y31.8238
G01 X23.1616 Y31.8076
G01 X23.1597 Y31.7915
G01 X23.1557 Y31.7700
G01 X23.1718 Y31.7702
G01 X23.1882 Y31.7695
G01 X23.2045 Y31.7680
G01 X23.2207 Y31.7658
G01 X23.2369 Y31.7627
G01 X23.3131 Y31.7460
G01 X23.3289 Y31.7417
G01 X23.3445 Y31.7366
G01 X23.3674 Y31.7276
G01 X23.3823 Y31.7207
G01 X23.3968 Y31.7130
G01 X23.4109 Y31.7046
G01 X23.4245 Y31.6955
G01 X23.4441 Y31.6807
G01 X23.4566 Y31.6699
G01 X23.4697 Y31.6574
G00 Z2.0000
G00 X20.5715 Y30.4852
G01 F60.00
G01 Z-0.1000
G01 F120.00
G01 X20.5513 Y30.4164
G01 X20.5495 Y30.4075
G01 X20.5487 Y30.3984
G01 X20.5487 Y29.0981
G01 X20.5492 Y29.0847
G01 X20.5507 Y29.0734
G01 X20.5539 Y29.0625
G01 X20.5790 Y28.9952
G01 X20.5822 Y28.9883
G01 X20.5871 Y28.9801
G01 X20.5943 Y28.9713
G01 X20.6012 Y28.9647
G01 X20.6617 Y28.9194
G01 X20.6681 Y28.9153
G01 X20.6767 Y28.9111
G01 X20.6857 Y28.9080
G01 X20.6950 Y28.9060
G01 X20.7704 Y28.9004
G01 X20.7780 Y28.9002
G01 X20.7837 Y28.9006
G01 X20.7894 Y28.9014
G01 X20.7968 Y28.9031
G01 X20.8040 Y28.9055
G01 X20.8093 Y28.9078
G01 X20.8756 Y28.9440
G01 X20.8832 Y28.9490
G01 X20.8915 Y28.9562
G01 X21.0833 Y29.1480
G01 X21.0949 Y29.1606
G01 X21.1177 Y29.1882
G01 X21.1293 Y29.1967
G01 X21.1456 Y29.2106
G01 X21.1573 Y29.2220
G01 X21.1896 Y29.2412
G01 X21.2009 Y29.2486
G01 X21.2299 Y29.2697
G01 X21.2450 Y29.2759
G01 X21.2642 Y29.2854
G01 X21.2767 Y29.2926
G01 X21.3110 Y29.3026
G01 X21.3238 Y29.3069
G01 X21.3588 Y29.3207
G01 X21.3750 Y29.3230
G01 X21.3960 Y29.3273
G01 X21.4098 Y29.3313
G01 X21.4456 Y29.3324
G01 X21.4617 Y29.3337
G01 X21.4896 Y29.3338
G01 X21.5413 Y29.3354
G01 X21.5495 Y29.3309
G01 X21.6283 Y29.2937
G01 X21.7140 Y29.2631
G01 X21.8020 Y29.2410
G01 X21.8940 Y29.2275
G01 X21.9830 Y29.2232
G01 X22.0738 Y29.2277
G01 X22.1638 Y29.2410
G01 X22.2536 Y29.2636
G01 X22.3342 Y29.2924
G01 X22.3411 Y29.2953
G01 X22.4199 Y29.3326
G01 X22.4947 Y29.3774
G01 X22.5010 Y29.3816
G01 X22.5710 Y29.4336
G01 X22.6356 Y29.4921
G01 X22.6409 Y29.4974
G01 X22.6994 Y29.5620
G01 X22.7514 Y29.6320
G01 X22.7556 Y29.6383
G01 X22.8004 Y29.7131
G01 X22.8393 Y29.7953
G01 X22.8687 Y29.8774
G01 X22.8709 Y29.8846
G01 X22.8912 Y29.9655
G01 X22.8946 Y29.9858
G01 X23.3175 Y30.4088
G01 X23.3230 Y30.4149
G01 X23.3408 Y30.4370
G01 X23.3451 Y30.4432
G01 X23.3479 Y30.4481
G01 X23.3503 Y30.4532
G01 X23.3530 Y30.4603
G01 X23.3737 Y30.5309
G01 X23.3758 Y30.5416
G01 X23.3763 Y30.5508
G01 X23.3763 Y31.3182
G01 X23.3757 Y31.3259
G01 X23.3744 Y31.3334
G01 X23.3572 Y31.4001
G01 X23.3544 Y31.4071
G01 X23.3511 Y31.4137
G01 X23.3471 Y31.4200
G01 X23.3412 Y31.4273
G01 X23.2879 Y31.4808
G01 X23.2821 Y31.4857
G01 X23.2758 Y31.4901
G01 X23.2692 Y31.4939
G01 X23.2640 Y31.4962
G01 X23.2531 Y31.4997
G01 X23.1811 Y31.5154
G01 X23.1755 Y31.5163
G01 X23.1678 Y31.5168
G01 X23.1564 Y31.5161
G01 X23.1489 Y31.5147
G01 X23.1434 Y31.5132
G01 X23.0726 Y31.4869
G01 X23.0660 Y31.4838
G01 X23.0597 Y31.4802
G01 X23.0381 Y31.4643
G01 X22.9227 Y31.4212
G01 X22.8768 Y31.4163
G01 X21.5685 Y31.4163
G01 X21.5602 Y31.4159
G01 X21.5320 Y31.4128
G01 X21.5246 Y31.4114
G01 X21.5174 Y31.4094
G01 X21.5070 Y31.4050
G01 X21.4424 Y31.3697
G01 X21.4347 Y31.3647
G01 X21.4265 Y31.3575
G01 X20.6075 Y30.5385
G01 X20.6020 Y30.5324
G01 X20.5820 Y30.5072
G01 X20.5780 Y30.5008
G01 X20.5755 Y30.4958
G01 X20.5715 Y30.4852
G00 Z2.0000
G00 X20.4904 Y30.5090
G01 F60.00
G01 Z-0.1000
G01 F120.00
G01 X20.4688 Y30.4346
G01 X20.4671 Y30.4271
G01 X20.4654 Y30.4157
G01 X20.4643 Y30.4004
G01 X20.4642 Y29.0981
G01 X20.4648 Y29.0796
G01 X20.4655 Y29.0716
G01 X20.4673 Y29.0598
G01 X20.4699 Y29.0481
G01 X20.4734 Y29.0367
G01 X20.5006 Y28.9637
G01 X20.5073 Y28.9492
G01 X20.5132 Y28.9388
G01 X20.5199 Y28.9288
G01 X20.5274 Y28.9194
G01 X20.5355 Y28.9105
G01 X20.5442 Y28.9023
G01 X20.5536 Y28.8947
G01 X20.6095 Y28.8529
G01 X20.6160 Y28.8482
G01 X20.6262 Y28.8419
G01 X20.6369 Y28.8363
G01 X20.6479 Y28.8316
G01 X20.6555 Y28.8289
G01 X20.6670 Y28.8255
G01 X20.6788 Y28.8230
G01 X20.6907 Y28.8214
G01 X20.7684 Y28.8159
G01 X20.7764 Y28.8157
G01 X20.7884 Y28.8162
G01 X20.8042 Y28.8182
G01 X20.8199 Y28.8218
G01 X20.8313 Y28.8255
G01 X20.8460 Y28.8318
G01 X20.9211 Y28.8728
G01 X20.9338 Y28.8814
G01 X20.9457 Y28.8911
G01 X21.1431 Y29.0883
G01 X21.1587 Y29.1052
G01 X21.1760 Y29.1261
G01 X21.1824 Y29.1310
G01 X21.2005 Y29.1464
G01 X21.2095 Y29.1547
G01 X21.2360 Y29.1706
G01 X21.2489 Y29.1791
G01 X21.2709 Y29.1950
G01 X21.2822 Y29.2000
G01 X21.3034 Y29.2105
G01 X21.3105 Y29.2144
G01 X21.3365 Y29.2220
G01 X21.3511 Y29.2270
G01 X21.3800 Y29.2382
G01 X21.3921 Y29.2402
G01 X21.4153 Y29.2451
G01 X21.4231 Y29.2471
G01 X21.4502 Y29.2480
G01 X21.4657 Y29.2492
G01 X21.4910 Y29.2493
G01 X21.5224 Y29.2503
G01 X21.5960 Y29.2157
G01 X21.6894 Y29.1823
G01 X21.7853 Y29.1582
G01 X21.8760 Y29.1446
G01 X21.8878 Y29.1433
G01 X21.9830 Y29.1387
G01 X22.0821 Y29.1436
G01 X22.1803 Y29.1582
G01 X22.2762 Y29.1822
G01 X22.3626 Y29.2129
G01 X22.3772 Y29.2189
G01 X22.4597 Y29.2581
G01 X22.5381 Y29.3049
G01 X22.5513 Y29.3137
G01 X22.6245 Y29.3683
G01 X22.6923 Y29.4295
G01 X22.7008 Y29.4378
G01 X22.7647 Y29.5085
G01 X22.8193 Y29.5817
G01 X22.8281 Y29.5949
G01 X22.8749 Y29.6733
G01 X22.9141 Y29.7558
G01 X22.9201 Y29.7704
G01 X22.9507 Y29.8564
G01 X22.9731 Y29.9449
G01 X23.3802 Y30.3521
G01 X23.3888 Y30.3619
G01 X23.4078 Y30.3856
G01 X23.4168 Y30.3986
G01 X23.4227 Y30.4090
G01 X23.4294 Y30.4233
G01 X23.4334 Y30.4345
G01 X23.4553 Y30.5090
G01 X23.4579 Y30.5202
G01 X23.4591 Y30.5278
G01 X23.4604 Y30.5392
G01 X23.4607 Y30.5469
G01 X23.4607 Y31.3203
G01 X23.4595 Y31.3364
G01 X23.4567 Y31.3523
G01 X23.4385 Y31.4232
G01 X23.4331 Y31.4379
G01 X23.4264 Y31.4521
G01 X23.4183 Y31.4655
G01 X23.4089 Y31.4781
G01 X23.3984 Y31.4898
G01 X23.3461 Y31.5420
G01 X23.3371 Y31.5499
G01 X23.3242 Y31.5594
G01 X23.3140 Y31.5657
G01 X23.2996 Y31.5729
G01 X23.2885 Y31.5773
G01 X23.2770 Y31.5808
G01 X23.1970 Y31.5984
G01 X23.1851 Y31.6002
G01 X23.1732 Y31.6011
G01 X23.1611 Y31.6012
G01 X23.1452 Y31.5998
G01 X23.1294 Y31.5969
G01 X23.1141 Y31.5924
G01 X23.0448 Y31.5667
G01 X23.0342 Y31.5623
G01 X23.0273 Y31.5589
G01 X23.0172 Y31.5533
G01 X23.0076 Y31.5469
G01 X22.9972 Y31.5392
G01 X22.9031 Y31.5041
G01 X22.8722 Y31.5008
G01 X21.5685 Y31.5008
G01 X21.5555 Y31.5003
G01 X21.5209 Y31.4966
G01 X21.5054 Y31.4937
G01 X21.4939 Y31.4906
G01 X21.4790 Y31.4851
G01 X21.4683 Y31.4801
G01 X21.4001 Y31.4429
G01 X21.3904 Y31.4367
G01 X21.3811 Y31.4300
G01 X21.3752 Y31.4251
G01 X21.3667 Y31.4172
G01 X20.5448 Y30.5952
G01 X20.5362 Y30.5854
G01 X20.5196 Y30.5648
G01 X20.5125 Y30.5553
G01 X20.5082 Y30.5486
G01 X20.5023 Y30.5383
G01 X20.4972 Y30.5276
G01 X20.4942 Y30.5203
G01 X20.4904 Y30.5090
G00 Z2.0000
G00 X26.1838 Y29.7952
G01 F60.00
G01 Z-0.1000
G01 F120.00
G01 X26.5468 Y30.1582
G01 X26.5646 Y30.1748
G01 X26.5785 Y30.1864
G01 X26.6030 Y30.2043
G01 X26.6289 Y30.2201
G01 X26.6450 Y30.2285
G01 X26.6615 Y30.2362
G01 X26.6727 Y30.2408
G01 X26.7014 Y30.2509
G01 X26.7308 Y30.2584
G01 X26.7485 Y30.2618
G01 X26.7667 Y30.2644
G01 X26.7787 Y30.2656
G01 X26.8090 Y30.2668
G01 X31.7990 Y30.2668
G01 X31.8301 Y30.2655
G01 X31.5544 Y30.5412
G01 X25.4386 Y30.5412
G01 X25.2374 Y30.3400
G01 X25.2617 Y30.3517
G01 X25.3425 Y30.4320
G01 X25.3513 Y30.4397
G01 X25.3605 Y30.4469
G01 X25.3700 Y30.4537
G01 X25.3799 Y30.4600
G01 X25.4513 Y30.4994
G01 X25.4620 Y30.5049
G01 X25.4730 Y30.5099
G01 X25.4899 Y30.5163
G01 X25.5073 Y30.5215
G01 X25.5249 Y30.5254
G01 X25.5368 Y30.5273
G01 X25.5757 Y30.5315
G01 X25.5955 Y30.5323
G01 X26.0155 Y30.5323
G01 X26.0331 Y30.5316
G01 X26.0505 Y30.5298
G01 X26.0621 Y30.5278
G01 X26.0735 Y30.5253
G01 X26.1518 Y30.5026
G01 X26.1692 Y30.4968
G01 X26.1805 Y30.4922
G01 X26.1916 Y30.4871
G01 X26.2077 Y30.4784
G01 X26.2231 Y30.4685
G01 X26.2377 Y30.4575
G01 X26.2514 Y30.4454
G01 X26.2643 Y30.4323
G01 X26.3141 Y30.3749
G01 X26.3218 Y30.3655
G01 X26.3291 Y30.3557
G01 X26.3359 Y30.3456
G01 X26.3422 Y30.3351
G01 X26.3479 Y30.3244
G01 X26.3555 Y30.3077
G01 X26.3619 Y30.2905
G01 X26.3654 Y30.2788
G01 X26.3696 Y30.2610
G01 X26.3716 Y30.2490
G01 X26.3823 Y30.1738
G01 X26.3838 Y30.1555
G01 X26.3839 Y30.1372
G01 X26.3827 Y30.1190
G01 X26.3801 Y30.1008
G01 X26.3761 Y30.0830
G01 X26.3709 Y30.0654
G01 X26.3666 Y30.0540
G01 X26.3618 Y30.0428
G01 X26.3306 Y29.9744
G01 X26.3219 Y29.9581
G01 X26.3155 Y29.9477
G01 X26.3049 Y29.9326
G01 X26.2972 Y29.9230
G01 X26.2891 Y29.9138
G01 X26.2770 Y29.9010
G01 X26.1832 Y29.8072
G01 X26.1838 Y29.7952
G00 Z2.0000
G00 X26.4646 Y30.1955
G01 F60.00
G01 Z-0.1000
G01 F120.00
G01 X26.4929 Y30.2236
G01 X26.5079 Y30.2374
G01 X26.5265 Y30.2530
G01 X26.5428 Y30.2652
G01 X26.5628 Y30.2790
G01 X26.5873 Y30.2936
G01 X26.6016 Y30.3013
G01 X26.6199 Y30.3101
G01 X26.6423 Y30.3197
G01 X26.6691 Y30.3292
G01 X26.6846 Y30.3340
G01 X26.7122 Y30.3409
G01 X26.7281 Y30.3440
G01 X26.7563 Y30.3482
G01 X26.7724 Y30.3498
G01 X26.8009 Y30.3512
G01 X31.6248 Y30.3513
G01 X31.5194 Y30.4567
G01 X26.3550 Y30.4567
G01 X26.3832 Y30.4240
G01 X26.3933 Y30.4111
G01 X26.4028 Y30.3977
G01 X26.4116 Y30.3838
G01 X26.4196 Y30.3696
G01 X26.4270 Y30.3549
G01 X26.4336 Y30.3399
G01 X26.4422 Y30.3168
G01 X26.4469 Y30.3011
G01 X26.4508 Y30.2852
G01 X26.4552 Y30.2610
G01 X26.4646 Y30.1955
G00 Z2.0000
G00 X28.4856 Y34.2264
G01 F60.00
G01 Z-0.1000
G01 F120.00
G01 X28.4225 Y34.2084
G01 X28.3986 Y34.2026
G01 X28.3825 Y34.1997
G01 X28.3662 Y34.1976
G01 X28.3499 Y34.1963
G01 X28.3335 Y34.1958
G01 X28.3171 Y34.1961
G01 X28.3007 Y34.1973
G01 X28.2845 Y34.1992
G01 X28.2683 Y34.2020
G01 X28.2443 Y34.2076
G01 X28.1803 Y34.2269
G01 X28.1898 Y34.1884
G01 X28.1930 Y34.1725
G01 X28.2069 Y34.0788
G01 X28.2090 Y34.0546
G01 X28.2128 Y33.9762
G01 X28.2132 Y33.9600
G01 X28.2128 Y33.9438
G01 X28.2090 Y33.8654
G01 X28.2069 Y33.8412
G01 X28.1930 Y33.7475
G01 X28.1898 Y33.7316
G01 X28.1804 Y33.6936
G01 X28.2435 Y33.7116
G01 X28.2673 Y33.7174
G01 X28.2835 Y33.7203
G01 X28.2998 Y33.7224
G01 X28.3161 Y33.7237
G01 X28.3325 Y33.7242
G01 X28.3489 Y33.7239
G01 X28.3653 Y33.7227
G01 X28.3815 Y33.7208
G01 X28.3977 Y33.7180
G01 X28.4216 Y33.7124
G01 X28.4857 Y33.6931
G01 X28.4762 Y33.7316
G01 X28.4730 Y33.7475
G01 X28.4591 Y33.8412
G01 X28.4570 Y33.8654
G01 X28.4532 Y33.9438
G01 X28.4528 Y33.9600
G01 X28.4532 Y33.9762
G01 X28.4570 Y34.0546
G01 X28.4591 Y34.0788
G01 X28.4730 Y34.1725
G01 X28.4762 Y34.1884
G01 X28.4856 Y34.2264
G00 Z2.0000
G00 X28.7430 Y34.2109
G01 F60.00
G01 Z-0.1000
G01 F120.00
G01 X28.7230 Y34.1311
G01 X28.7109 Y34.0497
G01 X28.7101 Y34.0422
G01 X28.7062 Y33.9600
G01 X28.7101 Y33.8778
G01 X28.7109 Y33.8703
G01 X28.7230 Y33.7889
G01 X28.7429 Y33.7091
G01 X28.7451 Y33.7019
G01 X28.7729 Y33.6245
G01 X28.8080 Y33.5500
G01 X28.8116 Y33.5434
G01 X28.8540 Y33.4729
G01 X28.9029 Y33.4067
G01 X28.9077 Y33.4009
G01 X28.9604 Y33.3427
G01 X28.9657 Y33.3374
G01 X29.0268 Y33.2822
G01 X29.0959 Y33.2310
G01 X29.1697 Y33.1867
G01 X29.2440 Y33.1515
G01 X29.2510 Y33.1486
G01 X29.3249 Y33.1221
G01 X29.3321 Y33.1199
G01 X29.4119 Y33.1000
G01 X29.4952 Y33.0876
G01 X29.5792 Y33.0833
G01 X29.5868 Y33.0833
G01 X29.6689 Y33.0874
G01 X29.7559 Y33.1004
G01 X29.8375 Y33.1210
G01 X29.9168 Y33.1492
G01 X29.9946 Y33.1859
G01 X30.0430 Y33.2146
G01 X32.8634 Y30.3941
G01 X32.8753 Y30.3833
G01 X32.8811 Y30.3785
G01 X32.8940 Y30.3690
G01 X32.9110 Y30.3588
G01 X32.9289 Y30.3503
G01 X32.9440 Y30.3448
G01 X32.9512 Y30.3427
G01 X32.9686 Y30.3385
G01 X32.9864 Y30.3359
G01 X33.0024 Y30.3351
G01 X33.8949 Y30.3350
G01 X33.7843 Y30.2244
G01 X33.7698 Y30.2082
G01 X33.7602 Y30.1953
G01 X33.7571 Y30.1906
G01 X33.7490 Y30.1768
G01 X33.7420 Y30.1623
G01 X33.7391 Y30.1554
G01 X33.7338 Y30.1402
G01 X33.7287 Y30.1191
G01 X33.7261 Y30.1014
G01 X33.7251 Y30.0816
G01 X33.7251 Y29.3198
G01 X33.6464 Y29.3196
G01 X33.6389 Y29.3187
G01 X33.6333 Y29.3175
G01 X33.6261 Y29.3153
G01 X33.6209 Y29.3132
G01 X33.6109 Y29.3079
G01 X33.6033 Y29.3024
G01 X33.5964 Y29.2960
G01 X33.5903 Y29.2887
G01 X33.5852 Y29.2809
G01 X33.5810 Y29.2724
G01 X33.5780 Y29.2635
G01 X33.5758 Y29.2524
G01 X33.5752 Y29.2430
G01 X33.5752 Y27.6430
G01 X33.5758 Y27.6336
G01 X33.5767 Y27.6280
G01 X33.5785 Y27.6207
G01 X33.5810 Y27.6136
G01 X33.5834 Y27.6085
G01 X33.5871 Y27.6019
G01 X33.5903 Y27.5973
G01 X33.5938 Y27.5928
G01 X33.5990 Y27.5874
G01 X33.6033 Y27.5836
G01 X33.6093 Y27.5791
G01 X33.6158 Y27.5753
G01 X33.6209 Y27.5728
G01 X33.6261 Y27.5707
G01 X33.6333 Y27.5685
G01 X33.6445 Y27.5666
G01 X33.6520 Y27.5662
G01 X34.2020 Y27.5662
G01 X34.2095 Y27.5666
G01 X34.2170 Y27.5677
G01 X34.2243 Y27.5695
G01 X34.2314 Y27.5720
G01 X34.2415 Y27.5771
G01 X34.2507 Y27.5836
G01 X34.2589 Y27.5914
G01 X34.2648 Y27.5988
G01 X34.2706 Y27.6085
G01 X34.2749 Y27.6189
G01 X34.2777 Y27.6299
G01 X34.2788 Y27.6411
G01 X34.2787 Y29.2468
G01 X34.2773 Y29.2580
G01 X34.2749 Y29.2671
G01 X34.2706 Y29.2775
G01 X34.2659 Y29.2857
G01 X34.2602 Y29.2932
G01 X34.2522 Y29.3012
G01 X34.2447 Y29.3069
G01 X34.2348 Y29.3124
G01 X34.2279 Y29.3153
G01 X34.2207 Y29.3175
G01 X34.2151 Y29.3187
G01 X34.2076 Y29.3196
G01 X34.1289 Y29.3198
G01 X34.1289 Y29.9980
G01 X35.2427 Y31.1119
G01 X35.2560 Y31.1266
G01 X35.2668 Y31.1409
G01 X35.2762 Y31.1562
G01 X35.2797 Y31.1628
G01 X35.2865 Y31.1774
G01 X35.2926 Y31.1942
G01 X35.2983 Y31.2171
G01 X35.3009 Y31.2348
G01 X35.3018 Y31.2509
G01 X35.3019 Y31.9386
G01 X35.3138 Y31.9407
G01 X35.4089 Y31.9646
G01 X35.4159 Y31.9666
G01 X35.5121 Y32.0012
G01 X35.6076 Y32.0463
G01 X35.6982 Y32.1007
G01 X35.7801 Y32.1613
G01 X35.7860 Y32.1661
G01 X35.8587 Y32.2320
G01 X35.8640 Y32.2373
G01 X35.9324 Y32.3129
G01 X35.9953 Y32.3978
G01 X36.0497 Y32.4884
G01 X36.0933 Y32.5805
G01 X36.0962 Y32.5874
G01 X36.1293 Y32.6798
G01 X36.1314 Y32.6871
G01 X36.1561 Y32.7859
G01 X36.1714 Y32.8886
G01 X36.1768 Y32.9960
G01 X36.1716 Y33.1015
G01 X36.1561 Y33.2061
G01 X36.1305 Y33.3084
G01 X36.0948 Y33.4081
G01 X36.0497 Y33.5036
G01 X35.9953 Y33.5942
G01 X35.9347 Y33.6761
G01 X35.9299 Y33.6820
G01 X35.8614 Y33.7574
G01 X35.7831 Y33.8284
G01 X35.6982 Y33.8913
G01 X35.6109 Y33.9438
G01 X35.6042 Y33.9473
G01 X35.5121 Y33.9908
G01 X35.4162 Y34.0253
G01 X35.4089 Y34.0274
G01 X35.3138 Y34.0513
G01 X35.3019 Y34.0534
G01 X35.3019 Y36.8164
G01 X42.2836 Y43.7981
G01 X51.3164 Y43.7981
G01 X53.5981 Y41.5164
G01 X53.5981 Y26.0836
G01 X51.2573 Y23.7427
G01 X51.2440 Y23.7281
G01 X51.2343 Y23.7152
G01 X51.2301 Y23.7090
G01 X51.2220 Y23.6952
G01 X51.2150 Y23.6807
G01 X51.2121 Y23.6737
G01 X51.2068 Y23.6586
G01 X51.2028 Y23.6431
G01 X51.2014 Y23.6357
G01 X51.1991 Y23.6198
G01 X51.1981 Y23.6000
G01 X51.1981 Y18.4836
G01 X50.9164 Y18.2019
G01 X48.0836 Y18.2019
G01 X48.0559 Y18.2296
G01 X48.0559 Y21.2770
G01 X48.0549 Y21.2968
G01 X48.0526 Y21.3127
G01 X48.0512 Y21.3201
G01 X48.0466 Y21.3374
G01 X48.0405 Y21.3542
G01 X48.0329 Y21.3705
G01 X48.0239 Y21.3860
G01 X48.0197 Y21.3922
G01 X48.0100 Y21.4051
G01 X47.9981 Y21.4184
G01 X47.2708 Y22.1456
G01 X47.3064 Y22.2051
G01 X47.3437 Y22.2839
G01 X47.3466 Y22.2908
G01 X47.3759 Y22.3730
G01 X47.3972 Y22.4575
G01 X47.3986 Y22.4649
G01 X47.4113 Y22.5512
G01 X47.4157 Y22.6382
G01 X47.4157 Y22.6458
G01 X47.4113 Y22.7328
G01 X47.3986 Y22.8191
G01 X47.3972 Y22.8265
G01 X47.3759 Y22.9110
G01 X47.3466 Y22.9932
G01 X47.3437 Y23.0001
G01 X47.3055 Y23.0805
G01 X47.2596 Y23.1569
G01 X47.2054 Y23.2300
G01 X47.1443 Y23.2973
G01 X47.0798 Y23.3560
G01 X47.0740 Y23.3607
G01 X47.0070 Y23.4104
G01 X47.0007 Y23.4146
G01 X46.9259 Y23.4594
G01 X46.8437 Y23.4983
G01 X46.7580 Y23.5289
G01 X46.6735 Y23.5502
G01 X46.6661 Y23.5516
G01 X46.5836 Y23.5639
G01 X46.5761 Y23.5646
G01 X46.4890 Y23.5688
G01 X46.3982 Y23.5643
G01 X46.3082 Y23.5510
G01 X46.2236 Y23.5299
G01 X46.2167 Y23.5278
G01 X46.1378 Y23.4996
G01 X46.1309 Y23.4967
G01 X46.0521 Y23.4594
G01 X45.9741 Y23.4126
G01 X45.9010 Y23.3584
G01 X45.8364 Y23.2999
G01 X45.8311 Y23.2946
G01 X45.7750 Y23.2328
G01 X45.7703 Y23.2270
G01 X45.7184 Y23.1569
G01 X45.6716 Y23.0789
G01 X45.6327 Y22.9967
G01 X45.6033 Y22.9146
G01 X45.6011 Y22.9074
G01 X45.5808 Y22.8265
G01 X45.5794 Y22.8191
G01 X45.5667 Y22.7328
G01 X45.5622 Y22.6420
G01 X45.5667 Y22.5512
G01 X45.5794 Y22.4649
G01 X45.5808 Y22.4575
G01 X45.6021 Y22.3730
G01 X45.6314 Y22.2908
G01 X45.6343 Y22.2839
G01 X45.6716 Y22.2051
G01 X45.7184 Y22.1271
G01 X45.7703 Y22.0570
G01 X45.7750 Y22.0512
G01 X45.8337 Y21.9867
G01 X45.8982 Y21.9280
G01 X45.9040 Y21.9233
G01 X45.9725 Y21.8725
G01 X46.0488 Y21.8265
G01 X46.0555 Y21.8229
G01 X46.1343 Y21.7857
G01 X46.2200 Y21.7551
G01 X46.3045 Y21.7338
G01 X46.3119 Y21.7324
G01 X46.3982 Y21.7197
G01 X46.4890 Y21.7152
G01 X46.5798 Y21.7197
G01 X46.6661 Y21.7324
G01 X46.6735 Y21.7338
G01 X46.7580 Y21.7551
G01 X46.8402 Y21.7844
G01 X46.8471 Y21.7873
G01 X46.9259 Y21.8246
G01 X46.9854 Y21.8602
G01 X47.6521 Y21.1934
G01 X47.6521 Y18.1460
G01 X47.6529 Y18.1281
G01 X47.6554 Y18.1103
G01 X47.6568 Y18.1029
G01 X47.6608 Y18.0874
G01 X47.6675 Y18.0688
G01 X47.6743 Y18.0542
G01 X47.6778 Y18.0476
G01 X47.6862 Y18.0339
G01 X47.6968 Y18.0194
G01 X47.7113 Y18.0033
G01 X47.8573 Y17.8573
G01 X47.8719 Y17.8440
G01 X47.8848 Y17.8343
G01 X47.9016 Y17.8238
G01 X47.9082 Y17.8203
G01 X47.9228 Y17.8135
G01 X47.9414 Y17.8068
G01 X47.9569 Y17.8028
G01 X47.9643 Y17.8014
G01 X47.9802 Y17.7991
G01 X48.0000 Y17.7981
G01 X51.0000 Y17.7981
G01 X51.0217 Y17.7993
G01 X51.0394 Y17.8020
G01 X51.0550 Y17.8058
G01 X51.0622 Y17.8080
G01 X51.0790 Y17.8142
G01 X51.0952 Y17.8220
G01 X51.1106 Y17.8311
G01 X51.1251 Y17.8416
G01 X51.1309 Y17.8464
G01 X51.1427 Y17.8573
G01 X51.5427 Y18.2573
G01 X51.5560 Y18.2719
G01 X51.5668 Y18.2863
G01 X51.5762 Y18.3016
G01 X51.5797 Y18.3082
G01 X51.5865 Y18.3228
G01 X51.5932 Y18.3414
G01 X51.5972 Y18.3569
G01 X51.5986 Y18.3643
G01 X51.6009 Y18.3802
G01 X51.6019 Y18.4000
G01 X51.6019 Y23.5164
G01 X53.9441 Y25.8586
G01 X53.9560 Y25.8719
G01 X53.9679 Y25.8879
G01 X53.9780 Y25.9048
G01 X53.9850 Y25.9193
G01 X53.9920 Y25.9378
G01 X53.9942 Y25.9450
G01 X53.9980 Y25.9606
G01 X54.0009 Y25.9802
G01 X54.0019 Y26.0000
G01 X54.0019 Y41.6000
G01 X54.0009 Y41.6198
G01 X53.9980 Y41.6394
G01 X53.9932 Y41.6586
G01 X53.9865 Y41.6772
G01 X53.9780 Y41.6952
