(G-CODE GENERATED BY FLATCAM v8.994 - www.flatcam.org - Version Date: 2020/11/7)

(Name: mcu_singleside-F_Cu.gtl_iso_combined_1_cnc)
(Type: G-code from Geometry)
(Units: MM)

(Created on Monday, 04 September 2023 at 12:20)

(This preprocessor is the default preprocessor used by FlatCAM.)
(It is made to work with MACH3 compatible motion controllers.)

(TOOL DIAMETER: 0.1536 mm)
(Feedrate_XY: 120.0 mm/min)
(Feedrate_Z: 60.0 mm/min)
(Feedrate rapids 1500.0 mm/min)

(Z_Cut: -0.1 mm)
(Z_Move: 2.0 mm)
(Z Start: None mm)
(Z End: 15.0 mm)
(X,Y End: None mm)
(Steps per circle: 64)
(Preprocessor Geometry: default)

(X range:    7.3122 ...   56.9864  mm)
(Y range:    7.8082 ...   47.8048  mm)

(Spindle Speed: 0.0 RPM)
G21
G90
G94

G01 F120.00

M5
G00 Z15.0000
G00 X0.0000 Y0.0000
T2M6    
(MSG, Change to Tool Dia = 0.1536)
M0
G00 Z15.0000

M03
G01 F120.00
G00 X14.7887 Y14.8306
G01 F60.00
G01 Z-0.1000
G01 F120.00
G01 X14.8713 Y14.6966
G01 X14.9826 Y14.5853
G01 X15.1166 Y14.5027
G01 X15.2665 Y14.4530
G01 X15.3557 Y14.4439
G01 X15.4012 Y14.4438
G01 X15.4012 Y14.7902
G01 X15.3712 Y14.7917
G01 X15.3430 Y14.7958
G01 X15.3356 Y14.7973
G01 X15.3081 Y14.8043
G01 X15.2779 Y14.8151
G01 X15.2523 Y14.8271
G01 X15.2457 Y14.8306
G01 X15.2246 Y14.8433
G01 X15.2184 Y14.8474
G01 X15.1957 Y14.8644
G01 X15.1719 Y14.8859
G01 X15.1504 Y14.9097
G01 X15.1334 Y14.9324
G01 X15.1293 Y14.9386
G01 X15.1166 Y14.9597
G01 X15.1131 Y14.9663
G01 X15.1011 Y14.9919
G01 X15.0908 Y15.0203
G01 X15.0833 Y15.0496
G01 X15.0818 Y15.0570
G01 X15.0778 Y15.0850
G01 X15.0762 Y15.1151
G01 X15.0762 Y15.4402
G01 X14.7298 Y15.4402
G01 X14.7299 Y15.0697
G01 X14.7390 Y14.9805
G01 X14.7887 Y14.8306
G00 Z2.0000
G00 X14.8143 Y15.0752
G01 F60.00
G01 Z-0.1000
G01 F120.00
G01 X14.8221 Y14.9983
G01 X14.8658 Y14.8665
G01 X14.9381 Y14.7494
G01 X15.0354 Y14.6521
G01 X15.1525 Y14.5798
G01 X15.2843 Y14.5361
G01 X15.3167 Y14.5328
G01 X15.3167 Y14.7150
G01 X15.2874 Y14.7223
G01 X15.2761 Y14.7259
G01 X15.2456 Y14.7370
G01 X15.2162 Y14.7507
G01 X15.2022 Y14.7582
G01 X15.1745 Y14.7750
G01 X15.1421 Y14.7991
G01 X15.1179 Y14.8207
G01 X15.1067 Y14.8319
G01 X15.0851 Y14.8561
G01 X15.0656 Y14.8820
G01 X15.0568 Y14.8952
G01 X15.0403 Y14.9231
G01 X15.0262 Y14.9524
G01 X15.0216 Y14.9633
G01 X15.0094 Y14.9976
G01 X15.0014 Y15.0290
G01 X14.9983 Y15.0446
G01 X14.9947 Y15.0688
G01 X14.9934 Y15.0806
G01 X14.9917 Y15.1170
G01 X14.9917 Y15.3557
G01 X14.8143 Y15.3557
G01 X14.8143 Y15.0752
G00 Z2.0000
G00 X17.0727 Y16.4170
G01 F60.00
G01 Z-0.1000
G01 F120.00
G01 X17.0727 Y15.1170
G01 X17.0741 Y15.0846
G01 X17.0751 Y15.0728
G01 X17.0793 Y15.0446
G01 X17.0824 Y15.0290
G01 X17.0904 Y14.9976
G01 X17.1040 Y14.9596
G01 X17.1177 Y14.9302
G01 X17.1252 Y14.9162
G01 X17.1420 Y14.8885
G01 X17.1661 Y14.8561
G01 X17.1932 Y14.8262
G01 X17.2231 Y14.7991
G01 X17.2555 Y14.7750
G01 X17.2832 Y14.7582
G01 X17.2972 Y14.7507
G01 X17.3230 Y14.7386
G01 X17.3340 Y14.7342
G01 X17.3646 Y14.7234
G01 X17.3960 Y14.7154
G01 X17.4077 Y14.7129
G01 X17.4400 Y14.7081
G01 X17.4485 Y14.7073
G01 X17.4761 Y14.7059
G01 X18.1340 Y14.7057
G01 X18.1743 Y14.7077
G01 X18.2064 Y14.7123
G01 X18.2220 Y14.7154
G01 X18.2534 Y14.7234
G01 X18.2914 Y14.7370
G01 X18.3208 Y14.7507
G01 X18.3348 Y14.7582
G01 X18.3625 Y14.7750
G01 X18.3949 Y14.7991
G01 X18.4248 Y14.8262
G01 X18.4519 Y14.8561
G01 X18.4760 Y14.8885
G01 X18.4967 Y14.9231
G01 X18.5140 Y14.9596
G01 X18.5276 Y14.9976
G01 X18.5374 Y15.0368
G01 X18.5434 Y15.0772
G01 X18.5453 Y15.1170
G01 X18.5451 Y16.4249
G01 X18.5433 Y16.4573
G01 X18.5374 Y16.4972
G01 X18.5276 Y16.5364
G01 X18.5140 Y16.5744
G01 X18.4967 Y16.6109
G01 X18.4760 Y16.6455
G01 X18.4519 Y16.6779
G01 X18.4303 Y16.7021
G01 X18.4220 Y16.7106
G01 X18.4009 Y16.7298
G01 X18.3887 Y16.7398
G01 X18.3690 Y16.7544
G01 X18.3592 Y16.7611
G01 X18.3348 Y16.7758
G01 X18.3244 Y16.7815
G01 X18.2914 Y16.7970
G01 X18.2534 Y16.8106
G01 X18.2142 Y16.8204
G01 X18.1797 Y16.8257
G01 X18.1797 Y19.4817
G01 X18.3775 Y19.4819
G01 X18.3893 Y19.4829
G01 X18.4011 Y19.4848
G01 X18.4126 Y19.4876
G01 X18.4239 Y19.4911
G01 X18.4313 Y19.4940
G01 X18.4421 Y19.4989
G01 X18.4525 Y19.5047
G01 X18.4592 Y19.5089
G01 X18.4657 Y19.5135
G01 X18.4749 Y19.5209
G01 X18.4836 Y19.5290
G01 X18.4917 Y19.5377
G01 X18.4991 Y19.5469
G01 X18.5037 Y19.5534
G01 X18.5079 Y19.5601
G01 X18.5137 Y19.5705
G01 X18.5186 Y19.5813
G01 X18.5215 Y19.5887
G01 X18.5250 Y19.6000
G01 X18.5276 Y19.6107
G01 X21.1314 Y19.6107
G01 X22.9717 Y17.7703
G01 X22.9717 Y16.3140
G01 X22.9722 Y16.3021
G01 X22.9741 Y16.2864
G01 X22.9766 Y16.2748
G01 X22.9799 Y16.2634
G01 X22.9840 Y16.2523
G01 X22.9889 Y16.2415
G01 X22.9967 Y16.2277
G01 X23.0035 Y16.2179
G01 X23.0109 Y16.2087
G01 X23.0190 Y16.2000
G01 X23.0277 Y16.1919
G01 X23.0401 Y16.1821
G01 X23.0501 Y16.1757
G01 X23.0605 Y16.1699
G01 X23.0713 Y16.1650
G01 X23.0824 Y16.1609
G01 X23.0938 Y16.1576
G01 X23.1054 Y16.1551
G01 X23.1133 Y16.1539
G01 X23.1211 Y16.1532
G01 X23.1330 Y16.1527
G01 X24.8370 Y16.1528
G01 X24.8527 Y16.1539
G01 X24.8645 Y16.1558
G01 X24.8798 Y16.1597
G01 X24.8947 Y16.1650
G01 X24.9090 Y16.1718
G01 X24.9226 Y16.1799
G01 X24.9353 Y16.1893
G01 X24.9470 Y16.2000
G01 X24.9577 Y16.2117
G01 X24.9671 Y16.2244
G01 X24.9752 Y16.2380
G01 X24.9820 Y16.2523
G01 X24.9873 Y16.2672
G01 X24.9912 Y16.2825
G01 X24.9935 Y16.2982
G01 X24.9942 Y16.3100
G01 X24.9943 Y18.0140
G01 X24.9935 Y18.0298
G01 X24.9912 Y18.0455
G01 X24.9884 Y18.0570
G01 X24.9849 Y18.0683
G01 X24.9788 Y18.0830
G01 X24.9733 Y18.0935
G01 X24.9671 Y18.1036
G01 X24.9601 Y18.1132
G01 X24.9498 Y18.1252
G01 X24.9413 Y18.1335
G01 X24.9322 Y18.1411
G01 X24.9226 Y18.1481
G01 X24.9125 Y18.1543
G01 X24.8984 Y18.1614
G01 X24.8836 Y18.1671
G01 X24.8722 Y18.1704
G01 X24.8606 Y18.1729
G01 X24.8449 Y18.1748
G01 X24.8330 Y18.1753
G01 X23.3767 Y18.1753
G01 X21.4525 Y20.0995
G01 X21.4376 Y20.1132
G01 X21.4286 Y20.1208
G01 X21.4091 Y20.1351
G01 X21.3919 Y20.1456
G01 X21.3815 Y20.1514
G01 X21.3632 Y20.1600
G01 X21.3522 Y20.1644
G01 X21.3331 Y20.1710
G01 X21.3097 Y20.1770
G01 X21.2981 Y20.1792
G01 X21.2781 Y20.1820
G01 X21.2500 Y20.1833
G01 X18.5276 Y20.1833
G01 X18.5239 Y20.1978
G01 X18.5201 Y20.2090
G01 X18.5154 Y20.2200
G01 X18.5099 Y20.2305
G01 X18.5037 Y20.2406
G01 X18.4943 Y20.2533
G01 X18.4864 Y20.2622
G01 X18.4779 Y20.2705
G01 X18.4688 Y20.2781
G01 X18.4592 Y20.2851
G01 X18.4491 Y20.2913
G01 X18.4350 Y20.2984
G01 X18.4202 Y20.3041
G01 X18.4088 Y20.3074
G01 X18.3972 Y20.3099
G01 X18.3854 Y20.3115
G01 X18.3696 Y20.3123
G01 X17.4171 Y20.3123
G01 X17.4013 Y20.3115
G01 X17.3856 Y20.3092
G01 X17.3741 Y20.3064
G01 X17.3628 Y20.3029
G01 X17.3517 Y20.2984
G01 X17.3411 Y20.2932
G01 X17.3308 Y20.2873
G01 X17.3210 Y20.2805
G01 X17.3118 Y20.2731
G01 X17.3031 Y20.2650
G01 X17.2950 Y20.2563
G01 X17.2876 Y20.2471
G01 X17.2808 Y20.2373
G01 X17.2749 Y20.2270
G01 X17.2697 Y20.2164
G01 X17.2652 Y20.2053
G01 X17.2617 Y20.1940
G01 X17.2589 Y20.1825
G01 X17.2566 Y20.1668
G01 X17.2558 Y20.1510
G01 X17.2558 Y19.6430
G01 X17.2563 Y19.6311
G01 X17.2576 Y19.6193
G01 X17.2597 Y19.6077
G01 X17.2617 Y19.6000
G01 X17.2652 Y19.5887
G01 X17.2697 Y19.5776
G01 X17.2730 Y19.5705
G01 X17.2788 Y19.5601
G01 X17.2852 Y19.5501
G01 X17.2924 Y19.5407
G01 X17.3003 Y19.5318
G01 X17.3088 Y19.5235
G01 X17.3179 Y19.5159
G01 X17.3242 Y19.5111
G01 X17.3342 Y19.5047
G01 X17.3446 Y19.4989
G01 X17.3554 Y19.4940
G01 X17.3703 Y19.4887
G01 X17.3818 Y19.4856
G01 X17.3974 Y19.4829
G01 X17.4092 Y19.4819
G01 X17.6070 Y19.4817
G01 X17.6070 Y16.8283
G01 X17.4761 Y16.8281
G01 X17.4516 Y16.8269
G01 X17.4398 Y16.8259
G01 X17.4077 Y16.8211
G01 X17.3960 Y16.8186
G01 X17.3684 Y16.8117
G01 X17.3571 Y16.8081
G01 X17.3266 Y16.7970
G01 X17.2972 Y16.7833
G01 X17.2867 Y16.7778
G01 X17.2588 Y16.7611
G01 X17.2490 Y16.7544
G01 X17.2262 Y16.7374
G01 X17.2171 Y16.7298
G01 X17.1932 Y16.7078
G01 X17.1661 Y16.6779
G01 X17.1420 Y16.6455
G01 X17.1252 Y16.6178
G01 X17.1177 Y16.6038
G01 X17.1056 Y16.5780
G01 X17.1012 Y16.5670
G01 X17.0904 Y16.5364
G01 X17.0824 Y16.5050
G01 X17.0799 Y16.4933
G01 X17.0751 Y16.4610
G01 X17.0741 Y16.4494
G01 X17.0727 Y16.4170
G00 Z2.0000
G00 X17.1572 Y16.4170
G01 F60.00
G01 Z-0.1000
G01 F120.00
G01 X17.1573 Y15.1132
G01 X17.1588 Y15.0850
G01 X17.1635 Y15.0532
G01 X17.1713 Y15.0221
G01 X17.1807 Y14.9955
G01 X17.1836 Y14.9885
G01 X17.1941 Y14.9663
G01 X17.1976 Y14.9597
G01 X17.2123 Y14.9354
G01 X17.2291 Y14.9127
G01 X17.2338 Y14.9068
G01 X17.2529 Y14.8859
G01 X17.2767 Y14.8644
G01 X17.3024 Y14.8453
G01 X17.3267 Y14.8306
G01 X17.3333 Y14.8271
G01 X17.3555 Y14.8166
G01 X17.3625 Y14.8137
G01 X17.3891 Y14.8043
G01 X17.4166 Y14.7973
G01 X17.4240 Y14.7958
G01 X17.4502 Y14.7920
G01 X17.4802 Y14.7903
G01 X18.1340 Y14.7902
G01 X18.1642 Y14.7916
G01 X18.1940 Y14.7958
G01 X18.2014 Y14.7973
G01 X18.2289 Y14.8043
G01 X18.2591 Y14.8151
G01 X18.2847 Y14.8271
G01 X18.2913 Y14.8306
G01 X18.3156 Y14.8453
G01 X18.3383 Y14.8621
G01 X18.3442 Y14.8668
G01 X18.3651 Y14.8859
G01 X18.3866 Y14.9097
G01 X18.4057 Y14.9354
G01 X18.4222 Y14.9629
G01 X18.4359 Y14.9919
G01 X18.4467 Y15.0221
G01 X18.4545 Y15.0532
G01 X18.4594 Y15.0872
G01 X18.4608 Y15.1170
G01 X18.4608 Y16.4170
G01 X18.4595 Y16.4453
G01 X18.4588 Y16.4528
G01 X18.4545 Y16.4808
G01 X18.4467 Y16.5119
G01 X18.4359 Y16.5421
G01 X18.4222 Y16.5711
G01 X18.4057 Y16.5986
G01 X18.3866 Y16.6243
G01 X18.3651 Y16.6481
G01 X18.3413 Y16.6696
G01 X18.3156 Y16.6887
G01 X18.2881 Y16.7052
G01 X18.2591 Y16.7189
G01 X18.2289 Y16.7297
G01 X18.1978 Y16.7375
G01 X18.1660 Y16.7422
G01 X18.1359 Y16.7438
G01 X18.0952 Y16.7438
G01 X18.0952 Y19.5662
G01 X18.3715 Y19.5662
G01 X18.3771 Y19.5666
G01 X18.3846 Y19.5677
G01 X18.3955 Y19.5707
G01 X18.4024 Y19.5736
G01 X18.4091 Y19.5771
G01 X18.4153 Y19.5813
G01 X18.4226 Y19.5874
G01 X18.4278 Y19.5928
G01 X18.4335 Y19.6003
G01 X18.4373 Y19.6068
G01 X18.4406 Y19.6136
G01 X18.4431 Y19.6207
G01 X18.4445 Y19.6262
G01 X18.4462 Y19.6373
G01 X18.4464 Y19.6951
G01 X21.1664 Y19.6951
G01 X23.0562 Y17.8053
G01 X23.0563 Y16.3102
G01 X23.0577 Y16.2990
G01 X23.0595 Y16.2917
G01 X23.0613 Y16.2864
G01 X23.0662 Y16.2761
G01 X23.0702 Y16.2698
G01 X23.0736 Y16.2653
G01 X23.0787 Y16.2597
G01 X23.0828 Y16.2558
G01 X23.0919 Y16.2491
G01 X23.1019 Y16.2438
G01 X23.1089 Y16.2411
G01 X23.1143 Y16.2395
G01 X23.1236 Y16.2378
G01 X23.1330 Y16.2372
G01 X24.8330 Y16.2372
G01 X24.8405 Y16.2376
G01 X24.8480 Y16.2387
G01 X24.8553 Y16.2405
G01 X24.8624 Y16.2430
G01 X24.8692 Y16.2463
G01 X24.8757 Y16.2501
G01 X24.8817 Y16.2546
G01 X24.8873 Y16.2597
G01 X24.8924 Y16.2653
G01 X24.8969 Y16.2713
G01 X24.9007 Y16.2778
G01 X24.9040 Y16.2846
G01 X24.9065 Y16.2917
G01 X24.9083 Y16.2990
G01 X24.9094 Y16.3065
G01 X24.9098 Y16.3140
G01 X24.9098 Y18.0140
G01 X24.9094 Y18.0215
G01 X24.9083 Y18.0290
G01 X24.9070 Y18.0345
G01 X24.9047 Y18.0416
G01 X24.8998 Y18.0519
G01 X24.8958 Y18.0582
G01 X24.8924 Y18.0627
G01 X24.8886 Y18.0670
G01 X24.8832 Y18.0722
G01 X24.8741 Y18.0789
G01 X24.8675 Y18.0826
G01 X24.8624 Y18.0850
G01 X24.8553 Y18.0875
G01 X24.8498 Y18.0889
G01 X24.8443 Y18.0900
G01 X24.8368 Y18.0907
G01 X23.3417 Y18.0908
G01 X21.3927 Y20.0397
G01 X21.3809 Y20.0506
G01 X21.3751 Y20.0554
G01 X21.3621 Y20.0648
G01 X21.3484 Y20.0732
G01 X21.3418 Y20.0767
G01 X21.3273 Y20.0835
G01 X21.3086 Y20.0902
G01 X21.2931 Y20.0942
G01 X21.2857 Y20.0956
G01 X21.2698 Y20.0979
G01 X21.2500 Y20.0989
G01 X18.4464 Y20.0989
G01 X18.4464 Y20.1510
G01 X18.4460 Y20.1585
G01 X18.4449 Y20.1660
G01 X18.4431 Y20.1733
G01 X18.4406 Y20.1804
G01 X18.4373 Y20.1872
G01 X18.4324 Y20.1952
G01 X18.4265 Y20.2026
G01 X18.4198 Y20.2092
G01 X18.4123 Y20.2149
G01 X18.4041 Y20.2196
G01 X18.3972 Y20.2227
G01 X18.3883 Y20.2255
G01 X18.3790 Y20.2272
G01 X18.3696 Y20.2278
G01 X17.4171 Y20.2278
G01 X17.4096 Y20.2274
G01 X17.4021 Y20.2263
G01 X17.3948 Y20.2245
G01 X17.3895 Y20.2227
G01 X17.3792 Y20.2178
G01 X17.3744 Y20.2149
G01 X17.3684 Y20.2104
G01 X17.3602 Y20.2026
G01 X17.3532 Y20.1937
G01 X17.3494 Y20.1872
G01 X17.3469 Y20.1821
G01 X17.3442 Y20.1751
G01 X17.3426 Y20.1697
G01 X17.3407 Y20.1585
G01 X17.3403 Y20.1510
G01 X17.3403 Y19.6430
G01 X17.3407 Y19.6355
G01 X17.3418 Y19.6280
G01 X17.3436 Y19.6207
G01 X17.3469 Y19.6119
G01 X17.3512 Y19.6035
G01 X17.3566 Y19.5957
G01 X17.3641 Y19.5874
G01 X17.3714 Y19.5813
G01 X17.3809 Y19.5753
G01 X17.3895 Y19.5713
G01 X17.3984 Y19.5685
G01 X17.4077 Y19.5668
G01 X17.4171 Y19.5662
G01 X17.6915 Y19.5662
G01 X17.6915 Y16.7438
G01 X17.4840 Y16.7438
G01 X17.4557 Y16.7425
G01 X17.4482 Y16.7418
G01 X17.4240 Y16.7382
G01 X17.4166 Y16.7367
G01 X17.3891 Y16.7297
G01 X17.3625 Y16.7203
G01 X17.3555 Y16.7174
G01 X17.3299 Y16.7052
G01 X17.3056 Y16.6907
G01 X17.2994 Y16.6866
G01 X17.2767 Y16.6696
G01 X17.2556 Y16.6507
G01 X17.2503 Y16.6454
G01 X17.2314 Y16.6243
G01 X17.2144 Y16.6016
G01 X17.2103 Y16.5954
G01 X17.1958 Y16.5711
G01 X17.1836 Y16.5455
G01 X17.1807 Y16.5385
G01 X17.1713 Y16.5119
G01 X17.1643 Y16.4844
G01 X17.1628 Y16.4770
G01 X17.1587 Y16.4488
G01 X17.1572 Y16.4170
G00 Z2.0000
G00 X19.7608 Y16.0938
G01 F60.00
G01 Z-0.1000
G01 F120.00
G01 X20.1072 Y16.0938
G01 X20.1072 Y16.4189
G01 X20.1087 Y16.4488
G01 X20.1128 Y16.4770
G01 X20.1143 Y16.4844
G01 X20.1218 Y16.5137
G01 X20.1321 Y16.5421
G01 X20.1441 Y16.5677
G01 X20.1476 Y16.5743
G01 X20.1603 Y16.5954
G01 X20.1644 Y16.6016
G01 X20.1814 Y16.6243
G01 X20.2029 Y16.6481
G01 X20.2267 Y16.6696
G01 X20.2494 Y16.6866
G01 X20.2556 Y16.6907
G01 X20.2767 Y16.7034
G01 X20.2833 Y16.7069
G01 X20.3089 Y16.7189
G01 X20.3391 Y16.7297
G01 X20.3666 Y16.7367
G01 X20.3740 Y16.7382
G01 X20.4020 Y16.7422
G01 X20.4322 Y16.7438
G01 X20.4322 Y17.0902
G01 X20.3868 Y17.0901
G01 X20.2975 Y17.0810
G01 X20.1476 Y17.0313
G01 X20.0136 Y16.9487
G01 X19.9023 Y16.8374
G01 X19.8197 Y16.7034
G01 X19.7700 Y16.5535
G01 X19.7608 Y16.4619
G01 X19.7608 Y16.0938
G00 Z2.0000
G00 X19.8453 Y16.1783
G01 F60.00
G01 Z-0.1000
G01 F120.00
G01 X20.0227 Y16.1783
G01 X20.0227 Y16.4170
G01 X20.0243 Y16.4525
G01 X20.0251 Y16.4610
G01 X20.0293 Y16.4894
G01 X20.0324 Y16.5050
G01 X20.0404 Y16.5364
G01 X20.0526 Y16.5707
G01 X20.0572 Y16.5816
G01 X20.0713 Y16.6109
G01 X20.0878 Y16.6388
G01 X20.0966 Y16.6520
G01 X20.1161 Y16.6779
G01 X20.1377 Y16.7021
G01 X20.1489 Y16.7133
G01 X20.1731 Y16.7349
G01 X20.2055 Y16.7590
G01 X20.2332 Y16.7758
G01 X20.2472 Y16.7833
G01 X20.2766 Y16.7970
G01 X20.3071 Y16.8081
G01 X20.3184 Y16.8117
G01 X20.3477 Y16.8190
G01 X20.3477 Y17.0012
G01 X20.3153 Y16.9979
G01 X20.1835 Y16.9542
G01 X20.0664 Y16.8819
G01 X19.9691 Y16.7846
G01 X19.8968 Y16.6675
G01 X19.8531 Y16.5357
G01 X19.8453 Y16.4588
G01 X19.8453 Y16.1783
G00 Z2.0000
G00 X19.8453 Y15.0752
G01 F60.00
G01 Z-0.1000
G01 F120.00
G01 X19.8531 Y14.9983
G01 X19.8968 Y14.8665
G01 X19.9691 Y14.7494
G01 X20.0664 Y14.6521
G01 X20.1835 Y14.5798
G01 X20.3153 Y14.5361
G01 X20.3477 Y14.5328
G01 X20.3477 Y14.7150
G01 X20.3184 Y14.7223
G01 X20.3071 Y14.7259
G01 X20.2766 Y14.7370
G01 X20.2472 Y14.7507
G01 X20.2332 Y14.7582
G01 X20.2055 Y14.7750
G01 X20.1731 Y14.7991
G01 X20.1489 Y14.8207
G01 X20.1377 Y14.8319
G01 X20.1161 Y14.8561
G01 X20.0966 Y14.8820
G01 X20.0878 Y14.8952
G01 X20.0713 Y14.9231
G01 X20.0572 Y14.9524
G01 X20.0526 Y14.9633
G01 X20.0404 Y14.9976
G01 X20.0324 Y15.0290
G01 X20.0293 Y15.0446
G01 X20.0257 Y15.0688
G01 X20.0244 Y15.0806
G01 X20.0227 Y15.1170
G01 X20.0227 Y15.3557
G01 X19.8453 Y15.3557
G01 X19.8453 Y15.0752
G00 Z2.0000
G00 X19.8197 Y14.8306
G01 F60.00
G01 Z-0.1000
G01 F120.00
G01 X19.9023 Y14.6966
G01 X20.0136 Y14.5853
G01 X20.1476 Y14.5027
G01 X20.2975 Y14.4530
G01 X20.3867 Y14.4439
G01 X20.4322 Y14.4438
G01 X20.4322 Y14.7902
G01 X20.4022 Y14.7917
G01 X20.3740 Y14.7958
G01 X20.3666 Y14.7973
G01 X20.3391 Y14.8043
G01 X20.3089 Y14.8151
G01 X20.2833 Y14.8271
G01 X20.2767 Y14.8306
G01 X20.2556 Y14.8433
G01 X20.2494 Y14.8474
G01 X20.2267 Y14.8644
G01 X20.2029 Y14.8859
G01 X20.1814 Y14.9097
G01 X20.1644 Y14.9324
G01 X20.1603 Y14.9386
G01 X20.1476 Y14.9597
G01 X20.1441 Y14.9663
G01 X20.1321 Y14.9919
G01 X20.1218 Y15.0203
G01 X20.1143 Y15.0496
G01 X20.1128 Y15.0570
G01 X20.1088 Y15.0850
G01 X20.1072 Y15.1151
G01 X20.1072 Y15.4402
G01 X19.7608 Y15.4402
G01 X19.7609 Y15.0697
G01 X19.7700 Y14.9805
G01 X19.8197 Y14.8306
G00 Z2.0000
G00 X21.0858 Y14.7902
G01 F60.00
G01 Z-0.1000
G01 F120.00
G01 X21.0858 Y14.4438
G01 X21.1312 Y14.4439
G01 X21.2205 Y14.4530
G01 X21.3704 Y14.5027
G01 X21.5044 Y14.5853
G01 X21.6157 Y14.6966
G01 X21.6983 Y14.8306
G01 X21.7480 Y14.9805
G01 X21.7572 Y15.0721
G01 X21.7572 Y15.4402
G01 X21.4108 Y15.4402
G01 X21.4108 Y15.1170
G01 X21.4094 Y15.0872
G01 X21.4045 Y15.0532
G01 X21.3967 Y15.0221
G01 X21.3859 Y14.9919
G01 X21.3731 Y14.9646
G01 X21.3577 Y14.9386
G01 X21.3536 Y14.9324
G01 X21.3366 Y14.9097
G01 X21.3177 Y14.8886
G01 X21.3124 Y14.8833
G01 X21.2913 Y14.8644
G01 X21.2686 Y14.8474
G01 X21.2624 Y14.8433
G01 X21.2381 Y14.8288
G01 X21.2125 Y14.8166
G01 X21.2055 Y14.8137
G01 X21.1789 Y14.8043
G01 X21.1514 Y14.7973
G01 X21.1440 Y14.7958
G01 X21.1160 Y14.7918
G01 X21.0858 Y14.7902
G00 Z2.0000
G00 X21.1703 Y14.7150
G01 F60.00
G01 Z-0.1000
G01 F120.00
G01 X21.1703 Y14.5328
G01 X21.2027 Y14.5361
G01 X21.3345 Y14.5798
G01 X21.4516 Y14.6521
G01 X21.5489 Y14.7494
G01 X21.6212 Y14.8665
G01 X21.6649 Y14.9983
G01 X21.6727 Y15.0752
G01 X21.6727 Y15.3557
G01 X21.4953 Y15.3557
G01 X21.4953 Y15.1170
G01 X21.4939 Y15.0846
G01 X21.4929 Y15.0730
G01 X21.4874 Y15.0368
G01 X21.4776 Y14.9976
G01 X21.4640 Y14.9596
G01 X21.4485 Y14.9266
G01 X21.4428 Y14.9162
G01 X21.4260 Y14.8885
G01 X21.4019 Y14.8561
G01 X21.3748 Y14.8262
G01 X21.3509 Y14.8042
G01 X21.3387 Y14.7942
G01 X21.3125 Y14.7750
G01 X21.2848 Y14.7582
G01 X21.2744 Y14.7525
G01 X21.2486 Y14.7402
G01 X21.2377 Y14.7356
G01 X21.2072 Y14.7246
G01 X21.1958 Y14.7213
G01 X21.1703 Y14.7150
G00 Z2.0000
G00 X21.0858 Y16.7438
G01 F60.00
G01 Z-0.1000
G01 F120.00
G01 X21.1160 Y16.7422
G01 X21.1440 Y16.7382
G01 X21.1514 Y16.7367
G01 X21.1789 Y16.7297
G01 X21.2055 Y16.7203
G01 X21.2125 Y16.7174
G01 X21.2381 Y16.7052
G01 X21.2624 Y16.6907
G01 X21.2686 Y16.6866
G01 X21.2913 Y16.6696
G01 X21.3124 Y16.6507
G01 X21.3177 Y16.6454
G01 X21.3366 Y16.6243
G01 X21.3536 Y16.6016
G01 X21.3577 Y16.5954
G01 X21.3731 Y16.5694
G01 X21.3859 Y16.5421
G01 X21.3967 Y16.5119
G01 X21.4045 Y16.4808
G01 X21.4094 Y16.4472
G01 X21.4108 Y16.4170
G01 X21.4108 Y16.0938
G01 X21.7572 Y16.0938
G01 X21.7572 Y16.4619
G01 X21.7480 Y16.5535
G01 X21.6983 Y16.7034
G01 X21.6157 Y16.8374
G01 X21.5044 Y16.9487
G01 X21.3704 Y17.0313
G01 X21.2205 Y17.0810
G01 X21.1313 Y17.0901
G01 X21.0858 Y17.0902
G01 X21.0858 Y16.7438
G00 Z2.0000
G00 X21.1703 Y17.0012
G01 F60.00
G01 Z-0.1000
G01 F120.00
G01 X21.1703 Y16.8190
G01 X21.1996 Y16.8117
G01 X21.2109 Y16.8081
G01 X21.2414 Y16.7970
G01 X21.2708 Y16.7833
G01 X21.2848 Y16.7758
G01 X21.3125 Y16.7590
G01 X21.3449 Y16.7349
G01 X21.3691 Y16.7133
G01 X21.3803 Y16.7021
G01 X21.4019 Y16.6779
G01 X21.4214 Y16.6520
G01 X21.4302 Y16.6388
G01 X21.4467 Y16.6109
G01 X21.4608 Y16.5816
G01 X21.4654 Y16.5707
G01 X21.4776 Y16.5364
G01 X21.4856 Y16.5050
G01 X21.4887 Y16.4894
G01 X21.4923 Y16.4652
G01 X21.4936 Y16.4534
G01 X21.4953 Y16.4170
G01 X21.4953 Y16.1783
G01 X21.6727 Y16.1783
G01 X21.6727 Y16.4588
G01 X21.6649 Y16.5357
G01 X21.6212 Y16.6675
G01 X21.5489 Y16.7846
G01 X21.4516 Y16.8819
G01 X21.3345 Y16.9542
G01 X21.2027 Y16.9979
G01 X21.1703 Y17.0012
G00 Z2.0000
G00 X18.5309 Y21.5430
G01 F60.00
G01 Z-0.1000
G01 F120.00
G01 X18.5309 Y22.0510
G01 X18.5304 Y22.0629
G01 X18.5291 Y22.0747
G01 X18.5278 Y22.0825
G01 X18.5250 Y22.0940
G01 X18.5227 Y22.1016
G01 X18.5186 Y22.1127
G01 X18.5137 Y22.1235
G01 X18.5099 Y22.1305
G01 X18.5037 Y22.1406
G01 X18.4967 Y22.1502
G01 X18.4891 Y22.1593
G01 X18.4836 Y22.1650
G01 X18.4749 Y22.1731
G01 X18.4688 Y22.1781
G01 X18.4592 Y22.1851
G01 X18.4525 Y22.1893
G01 X18.4421 Y22.1951
G01 X18.4350 Y22.1984
G01 X18.4202 Y22.2041
G01 X18.4049 Y22.2084
G01 X18.3893 Y22.2111
G01 X18.3736 Y22.2122
G01 X17.4171 Y22.2123
G01 X17.4052 Y22.2118
G01 X17.3934 Y22.2105
G01 X17.3818 Y22.2084
G01 X17.3703 Y22.2053
G01 X17.3628 Y22.2029
G01 X17.3517 Y22.1984
G01 X17.3446 Y22.1951
G01 X17.3342 Y22.1893
G01 X17.3242 Y22.1829
G01 X17.3148 Y22.1757
G01 X17.3059 Y22.1678
G01 X17.2976 Y22.1593
G01 X17.2924 Y22.1533
G01 X17.2852 Y22.1439
G01 X17.2788 Y22.1339
G01 X17.2730 Y22.1235
G01 X17.2697 Y22.1164
G01 X17.2640 Y22.1016
G01 X17.2597 Y22.0863
G01 X17.2570 Y22.0707
G01 X17.2559 Y22.0550
G01 X17.2558 Y21.5430
G01 X17.2563 Y21.5311
G01 X17.2570 Y21.5233
G01 X17.2582 Y21.5154
G01 X17.2607 Y21.5038
G01 X17.2640 Y21.4924
G01 X17.2681 Y21.4813
G01 X17.2713 Y21.4740
G01 X17.2768 Y21.4635
G01 X17.2830 Y21.4534
G01 X17.2876 Y21.4469
G01 X17.2924 Y21.4407
G01 X17.3003 Y21.4318
G01 X17.3088 Y21.4235
G01 X17.3148 Y21.4183
G01 X17.3242 Y21.4111
G01 X17.3342 Y21.4047
G01 X17.3446 Y21.3989
G01 X17.3517 Y21.3956
G01 X17.3665 Y21.3899
G01 X17.3818 Y21.3856
G01 X17.3974 Y21.3829
G01 X17.4052 Y21.3822
G01 X17.4171 Y21.3817
G01 X18.3696 Y21.3817
G01 X18.3815 Y21.3822
G01 X18.3893 Y21.3829
G01 X18.4049 Y21.3856
G01 X18.4202 Y21.3899
G01 X18.4313 Y21.3940
G01 X18.4456 Y21.4008
G01 X18.4592 Y21.4089
G01 X18.4719 Y21.4183
G01 X18.4836 Y21.4290
G01 X18.4917 Y21.4377
G01 X18.5015 Y21.4501
G01 X18.5099 Y21.4635
G01 X18.5154 Y21.4740
G01 X18.5215 Y21.4887
G01 X18.5260 Y21.5038
G01 X18.5285 Y21.5154
G01 X18.5304 Y21.5311
G01 X18.5309 Y21.5430
G00 Z2.0000
G00 X18.4464 Y21.5430
G01 F60.00
G01 Z-0.1000
G01 F120.00
G01 X18.4462 Y22.0567
G01 X18.4449 Y22.0660
G01 X18.4425 Y22.0751
G01 X18.4382 Y22.0855
G01 X18.4335 Y22.0937
G01 X18.4265 Y22.1026
G01 X18.4198 Y22.1092
G01 X18.4123 Y22.1149
G01 X18.4041 Y22.1196
G01 X18.3955 Y22.1233
G01 X18.3883 Y22.1255
G01 X18.3790 Y22.1272
G01 X18.3696 Y22.1278
G01 X17.4152 Y22.1278
G01 X17.4040 Y22.1267
G01 X17.3948 Y22.1245
G01 X17.3860 Y22.1212
G01 X17.3760 Y22.1159
G01 X17.3669 Y22.1092
G01 X17.3602 Y22.1026
G01 X17.3543 Y22.0952
G01 X17.3485 Y22.0855
G01 X17.3454 Y22.0786
G01 X17.3426 Y22.0697
G01 X17.3411 Y22.0623
G01 X17.3403 Y22.0529
G01 X17.3404 Y21.5392
G01 X17.3414 Y21.5299
G01 X17.3442 Y21.5189
G01 X17.3477 Y21.5102
G01 X17.3532 Y21.5003
G01 X17.3589 Y21.4928
G01 X17.3669 Y21.4848
G01 X17.3744 Y21.4791
G01 X17.3826 Y21.4744
G01 X17.3912 Y21.4707
G01 X17.4003 Y21.4681
G01 X17.4096 Y21.4666
G01 X17.4171 Y21.4662
G01 X18.3752 Y21.4664
G01 X18.3809 Y21.4670
G01 X18.3883 Y21.4685
G01 X18.3955 Y21.4707
G01 X18.4024 Y21.4736
G01 X18.4091 Y21.4771
G01 X18.4153 Y21.4813
G01 X18.4212 Y21.4861
G01 X18.4265 Y21.4914
G01 X18.4313 Y21.4973
G01 X18.4355 Y21.5035
G01 X18.4390 Y21.5102
G01 X18.4413 Y21.5154
G01 X18.4436 Y21.5225
G01 X18.4453 Y21.5299
G01 X18.4460 Y21.5355
G01 X18.4464 Y21.5430
G00 Z2.0000
G00 X17.0779 Y21.5038
G01 F60.00
G01 Z-0.1000
G01 F120.00
G01 X17.0812 Y21.4729
G01 X17.1163 Y21.3788
G01 X17.1748 Y21.3007
G01 X17.2529 Y21.2422
G01 X17.3470 Y21.2071
G01 X17.3779 Y21.2038
G01 X18.4088 Y21.2038
G01 X18.4397 Y21.2071
G01 X18.5338 Y21.2422
G01 X18.6119 Y21.3007
G01 X18.6704 Y21.3788
G01 X18.7055 Y21.4729
G01 X18.7088 Y21.5038
G01 X18.7088 Y22.0902
G01 X18.7055 Y22.1211
G01 X18.6704 Y22.2152
G01 X18.6119 Y22.2933
G01 X18.5338 Y22.3518
G01 X18.4397 Y22.3869
G01 X18.4088 Y22.3902
G01 X17.3779 Y22.3902
G01 X17.3470 Y22.3869
G01 X17.2529 Y22.3518
G01 X17.1748 Y22.2933
G01 X17.1163 Y22.2152
G01 X17.0812 Y22.1211
G01 X17.0779 Y22.0902
G01 X17.0779 Y21.5038
G00 Z2.0000
G00 X16.9934 Y21.4993
G01 F60.00
G01 Z-0.1000
G01 F120.00
G01 X16.9983 Y21.4533
G01 X17.0414 Y21.3379
G01 X17.1144 Y21.2403
G01 X17.2120 Y21.1673
G01 X17.3274 Y21.1242
G01 X17.3733 Y21.1193
G01 X18.4134 Y21.1193
G01 X18.4593 Y21.1242
G01 X18.5747 Y21.1673
G01 X18.6723 Y21.2403
G01 X18.7453 Y21.3379
G01 X18.7884 Y21.4533
G01 X18.7933 Y21.4992
G01 X18.7933 Y22.0948
G01 X18.7884 Y22.1407
G01 X18.7453 Y22.2561
G01 X18.6723 Y22.3537
G01 X18.5747 Y22.4267
G01 X18.4593 Y22.4698
G01 X18.4134 Y22.4747
G01 X17.3733 Y22.4747
G01 X17.3274 Y22.4698
G01 X17.2120 Y22.4267
G01 X17.1144 Y22.3537
G01 X17.0414 Y22.2561
G01 X16.9983 Y22.1407
G01 X16.9934 Y22.0948
G01 X16.9934 Y21.4993
G00 Z2.0000
G00 X15.9782 Y21.5430
G01 F60.00
G01 Z-0.1000
G01 F120.00
G01 X15.9782 Y22.0510
G01 X15.9777 Y22.0629
G01 X15.9764 Y22.0747
G01 X15.9751 Y22.0825
G01 X15.9723 Y22.0940
G01 X15.9700 Y22.1016
G01 X15.9659 Y22.1127
G01 X15.9610 Y22.1235
G01 X15.9572 Y22.1305
G01 X15.9510 Y22.1406
G01 X15.9440 Y22.1502
G01 X15.9364 Y22.1593
G01 X15.9309 Y22.1650
G01 X15.9222 Y22.1731
G01 X15.9161 Y22.1781
G01 X15.9065 Y22.1851
G01 X15.8998 Y22.1893
G01 X15.8894 Y22.1951
G01 X15.8823 Y22.1984
G01 X15.8675 Y22.2041
G01 X15.8522 Y22.2084
G01 X15.8366 Y22.2111
G01 X15.8209 Y22.2122
G01 X14.8644 Y22.2123
G01 X14.8525 Y22.2118
G01 X14.8407 Y22.2105
G01 X14.8329 Y22.2092
G01 X14.8214 Y22.2064
G01 X14.8101 Y22.2029
G01 X14.7990 Y22.1984
G01 X14.7919 Y22.1951
G01 X14.7815 Y22.1893
G01 X14.7715 Y22.1829
G01 X14.7621 Y22.1757
G01 X14.7532 Y22.1678
G01 X14.7449 Y22.1593
G01 X14.7397 Y22.1533
G01 X14.7325 Y22.1439
G01 X14.7261 Y22.1339
G01 X14.7222 Y22.1270
G01 X14.7170 Y22.1164
G01 X14.7113 Y22.1016
G01 X14.7070 Y22.0863
G01 X14.7043 Y22.0707
G01 X14.7032 Y22.0550
G01 X14.7031 Y21.5430
G01 X14.7033 Y21.5351
G01 X14.7043 Y21.5233
G01 X14.7062 Y21.5115
G01 X14.7090 Y21.5000
G01 X14.7113 Y21.4924
G01 X14.7154 Y21.4813
G01 X14.7186 Y21.4740
G01 X14.7241 Y21.4635
G01 X14.7281 Y21.4567
G01 X14.7349 Y21.4469
G01 X14.7423 Y21.4377
G01 X14.7476 Y21.4318
G01 X14.7561 Y21.4235
G01 X14.7621 Y21.4183
G01 X14.7715 Y21.4111
G01 X14.7815 Y21.4047
G01 X14.7919 Y21.3989
G01 X14.7990 Y21.3956
G01 X14.8138 Y21.3899
G01 X14.8252 Y21.3866
G01 X14.8329 Y21.3848
G01 X14.8486 Y21.3825
G01 X14.8644 Y21.3817
G01 X15.8169 Y21.3817
G01 X15.8288 Y21.3822
G01 X15.8366 Y21.3829
G01 X15.8522 Y21.3856
G01 X15.8675 Y21.3899
G01 X15.8786 Y21.3940
G01 X15.8929 Y21.4008
G01 X15.9065 Y21.4089
G01 X15.9192 Y21.4183
G01 X15.9309 Y21.4290
G01 X15.9390 Y21.4377
G01 X15.9488 Y21.4501
G01 X15.9572 Y21.4635
G01 X15.9627 Y21.4740
G01 X15.9688 Y21.4887
G01 X15.9733 Y21.5038
G01 X15.9758 Y21.5154
G01 X15.9774 Y21.5272
G01 X15.9782 Y21.5430
G00 Z2.0000
G00 X15.8937 Y21.5430
G01 F60.00
G01 Z-0.1000
G01 F120.00
G01 X15.8935 Y22.0567
G01 X15.8922 Y22.0660
G01 X15.8898 Y22.0751
G01 X15.8855 Y22.0855
G01 X15.8808 Y22.0937
G01 X15.8738 Y22.1026
G01 X15.8671 Y22.1092
G01 X15.8596 Y22.1149
G01 X15.8514 Y22.1196
G01 X15.8428 Y22.1233
G01 X15.8356 Y22.1255
G01 X15.8263 Y22.1272
G01 X15.8169 Y22.1278
G01 X14.8625 Y22.1278
G01 X14.8513 Y22.1267
G01 X14.8421 Y22.1245
G01 X14.8333 Y22.1212
G01 X14.8233 Y22.1159
G01 X14.8157 Y22.1104
G01 X14.8075 Y22.1026
G01 X14.8016 Y22.0952
G01 X14.7958 Y22.0855
G01 X14.7927 Y22.0786
G01 X14.7899 Y22.0697
G01 X14.7882 Y22.0604
G01 X14.7876 Y22.0529
G01 X14.7877 Y21.5392
G01 X14.7887 Y21.5299
G01 X14.7909 Y21.5207
G01 X14.7950 Y21.5102
G01 X14.7995 Y21.5019
G01 X14.8062 Y21.4928
G01 X14.8128 Y21.4861
G01 X14.8217 Y21.4791
G01 X14.8299 Y21.4744
G01 X14.8385 Y21.4707
G01 X14.8476 Y21.4681
G01 X14.8569 Y21.4666
G01 X14.8644 Y21.4662
G01 X15.8225 Y21.4664
G01 X15.8282 Y21.4670
G01 X15.8356 Y21.4685
G01 X15.8428 Y21.4707
G01 X15.8497 Y21.4736
G01 X15.8564 Y21.4771
G01 X15.8626 Y21.4813
G01 X15.8671 Y21.4848
G01 X15.8725 Y21.4900
G01 X15.8774 Y21.4958
G01 X15.8818 Y21.5019
G01 X15.8855 Y21.5085
G01 X15.8886 Y21.5154
G01 X15.8904 Y21.5207
G01 X15.8922 Y21.5280
G01 X15.8933 Y21.5355
G01 X15.8937 Y21.5430
G00 Z2.0000
G00 X14.5252 Y21.5038
G01 F60.00
G01 Z-0.1000
G01 F120.00
G01 X14.5285 Y21.4729
G01 X14.5504 Y21.4137
G01 X14.5543 Y21.3989
G01 X14.5564 Y21.3876
G01 X14.5576 Y21.3761
G01 X14.5630 Y21.2988
G01 X14.5628 Y21.2873
G01 X14.5623 Y21.2796
G01 X14.5608 Y21.2682
G01 X14.5588 Y21.2583
G01 X14.6056 Y21.2583
G01 X14.6179 Y21.2578
G01 X14.6302 Y21.2564
G01 X14.6776 Y21.2479
G01 X14.6896 Y21.2452
G01 X14.7014 Y21.2417
G01 X14.7568 Y21.2211
G01 X14.7683 Y21.2305
G01 X14.7815 Y21.2393
G01 X14.7919 Y21.2451
G01 X14.8064 Y21.2515
G01 X14.8176 Y21.2553
G01 X14.8329 Y21.2592
G01 X14.8486 Y21.2615
G01 X14.8604 Y21.2622
G01 X15.8248 Y21.2621
G01 X15.8366 Y21.2611
G01 X15.8522 Y21.2584
G01 X15.8675 Y21.2541
G01 X15.8786 Y21.2500
G01 X15.8894 Y21.2451
G01 X15.9032 Y21.2373
G01 X15.9130 Y21.2305
G01 X15.9245 Y21.2211
G01 X15.9799 Y21.2417
G01 X15.9917 Y21.2452
G01 X16.0037 Y21.2479
G01 X16.0511 Y21.2564
G01 X16.0634 Y21.2578
G01 X16.0757 Y21.2583
G01 X16.1245 Y21.2583
G01 X16.1185 Y21.3400
G01 X16.1183 Y21.3515
G01 X16.1194 Y21.3668
G01 X16.1205 Y21.3744
G01 X16.1228 Y21.3857
G01 X16.1309 Y21.4137
G01 X16.1528 Y21.4729
G01 X16.1561 Y21.5038
G01 X16.1561 Y22.0902
G01 X16.1528 Y22.1211
G01 X16.1177 Y22.2152
G01 X16.0592 Y22.2933
G01 X15.9811 Y22.3518
G01 X15.8870 Y22.3869
G01 X15.8561 Y22.3902
G01 X14.8252 Y22.3902
G01 X14.7943 Y22.3869
G01 X14.7002 Y22.3518
G01 X14.6221 Y22.2933
G01 X14.5636 Y22.2152
G01 X14.5285 Y22.1211
G01 X14.5252 Y22.0902
G01 X14.5252 Y21.5038
G00 Z2.0000
G00 X14.4407 Y21.4993
G01 F60.00
G01 Z-0.1000
G01 F120.00
G01 X14.4456 Y21.4533
G01 X14.4693 Y21.3897
G01 X14.4722 Y21.3792
G01 X14.4734 Y21.3701
G01 X14.4785 Y21.2949
G01 X14.4778 Y21.2840
G01 X14.4754 Y21.2733
G01 X14.4693 Y21.2528
G01 X14.4461 Y21.1906
G01 X14.4443 Y21.1738
G01 X14.6056 Y21.1738
G01 X14.6173 Y21.1729
G01 X14.6626 Y21.1648
G01 X14.6702 Y21.1630
G01 X14.7747 Y21.1242
G01 X14.7907 Y21.1225
G01 X14.7950 Y21.1338
G01 X14.8005 Y21.1437
G01 X14.8075 Y21.1526
G01 X14.8128 Y21.1579
G01 X14.8172 Y21.1615
G01 X14.8265 Y21.1678
G01 X14.8316 Y21.1704
G01 X14.8385 Y21.1733
G01 X14.8457 Y21.1755
G01 X14.8513 Y21.1767
G01 X14.8625 Y21.1778
G01 X15.8207 Y21.1777
G01 X15.8319 Y21.1763
G01 X15.8392 Y21.1745
G01 X15.8445 Y21.1727
G01 X15.8548 Y21.1678
G01 X15.8641 Y21.1615
G01 X15.8725 Y21.1540
G01 X15.8763 Y21.1497
G01 X15.8808 Y21.1437
G01 X15.8863 Y21.1338
G01 X15.8906 Y21.1225
G01 X15.9066 Y21.1242
G01 X16.0111 Y21.1630
G01 X16.0187 Y21.1648
G01 X16.0640 Y21.1729
G01 X16.0757 Y21.1738
G01 X16.2370 Y21.1738
G01 X16.2352 Y21.1906
G01 X16.2120 Y21.2528
G01 X16.2091 Y21.2634
G01 X16.2079 Y21.2725
G01 X16.2028 Y21.3476
G01 X16.2031 Y21.3549
G01 X16.2045 Y21.3640
G01 X16.2114 Y21.3880
G01 X16.2357 Y21.4533
G01 X16.2406 Y21.4992
G01 X16.2406 Y22.0948
G01 X16.2357 Y22.1407
G01 X16.1926 Y22.2561
G01 X16.1196 Y22.3537
G01 X16.0220 Y22.4267
G01 X15.9066 Y22.4698
G01 X15.8607 Y22.4747
G01 X14.8206 Y22.4747
G01 X14.7747 Y22.4698
G01 X14.6593 Y22.4267
G01 X14.5617 Y22.3537
G01 X14.4887 Y22.2561
G01 X14.4456 Y22.1407
G01 X14.4407 Y22.0948
G01 X14.4407 Y21.4993
G00 Z2.0000
G00 X9.8112 Y22.3672
G01 F60.00
G01 Z-0.1000
G01 F120.00
G01 X9.8121 Y22.3512
G01 X9.8150 Y22.3316
G01 X9.8198 Y22.3124
G01 X9.8265 Y22.2938
G01 X9.8350 Y22.2758
G01 X9.8452 Y22.2589
G01 X9.8570 Y22.2429
G01 X9.8689 Y22.2296
G01 X12.3443 Y19.7543
G01 X12.3589 Y19.7410
G01 X12.3718 Y19.7313
G01 X12.3780 Y19.7271
G01 X12.3918 Y19.7190
G01 X12.4098 Y19.7105
G01 X12.4248 Y19.7050
G01 X12.4320 Y19.7028
G01 X12.4476 Y19.6990
G01 X12.4635 Y19.6966
G01 X12.4710 Y19.6958
G01 X12.4870 Y19.6951
G01 X14.7876 Y19.6951
G01 X14.7878 Y19.6373
G01 X14.7895 Y19.6262
G01 X14.7915 Y19.6189
G01 X14.7934 Y19.6136
G01 X14.7976 Y19.6051
G01 X14.8016 Y19.5988
G01 X14.8062 Y19.5928
G01 X14.8114 Y19.5874
G01 X14.8187 Y19.5813
G01 X14.8249 Y19.5771
G01 X14.8316 Y19.5736
G01 X14.8385 Y19.5707
G01 X14.8439 Y19.5690
G01 X14.8513 Y19.5673
G01 X14.8625 Y19.5662
G01 X15.1388 Y19.5662
G01 X15.1388 Y18.4133
G01 X13.3529 Y16.6274
G01 X13.3341 Y16.6481
G01 X13.3103 Y16.6696
G01 X13.2846 Y16.6887
G01 X13.2571 Y16.7052
G01 X13.2281 Y16.7189
G01 X13.1979 Y16.7297
G01 X13.1668 Y16.7375
G01 X13.1369 Y16.7420
G01 X13.1030 Y16.7438
G01 X12.4530 Y16.7438
G01 X12.4228 Y16.7424
G01 X12.3930 Y16.7382
G01 X12.3856 Y16.7367
G01 X12.3581 Y16.7297
G01 X12.3315 Y16.7203
G01 X12.3245 Y16.7174
G01 X12.2989 Y16.7052
G01 X12.2746 Y16.6907
G01 X12.2684 Y16.6866
G01 X12.2457 Y16.6696
G01 X12.2246 Y16.6507
G01 X12.2193 Y16.6454
G01 X12.2004 Y16.6243
G01 X12.1813 Y16.5986
G01 X12.1666 Y16.5743
G01 X12.1631 Y16.5677
G01 X12.1511 Y16.5421
G01 X12.1403 Y16.5119
G01 X12.1325 Y16.4808
G01 X12.1277 Y16.4488
G01 X12.1262 Y16.4189
G01 X12.1262 Y15.1151
G01 X12.1278 Y15.0850
G01 X12.1318 Y15.0570
G01 X12.1333 Y15.0496
G01 X12.1403 Y15.0221
G01 X12.1497 Y14.9955
G01 X12.1526 Y14.9885
G01 X12.1648 Y14.9629
G01 X12.1802 Y14.9370
G01 X12.2004 Y14.9097
G01 X12.2219 Y14.8859
G01 X12.2457 Y14.8644
G01 X12.2684 Y14.8474
G01 X12.2746 Y14.8433
G01 X12.2957 Y14.8306
G01 X12.3023 Y14.8271
G01 X12.3279 Y14.8151
G01 X12.3546 Y14.8055
G01 X12.3618 Y14.8033
G01 X12.3892 Y14.7965
G01 X12.4192 Y14.7920
G01 X12.4530 Y14.7902
G01 X13.1049 Y14.7902
G01 X13.1350 Y14.7918
G01 X13.1668 Y14.7965
G01 X13.1979 Y14.8043
G01 X13.2298 Y14.8158
G01 X13.2537 Y14.8271
G01 X13.2603 Y14.8306
G01 X13.2846 Y14.8453
G01 X13.3073 Y14.8621
G01 X13.3132 Y14.8668
G01 X13.3341 Y14.8859
G01 X13.3556 Y14.9097
G01 X13.3726 Y14.9324
G01 X13.3767 Y14.9386
G01 X13.3912 Y14.9629
G01 X13.4034 Y14.9885
G01 X13.4063 Y14.9955
G01 X13.4157 Y15.0221
G01 X13.4227 Y15.0496
G01 X13.4242 Y15.0570
G01 X13.4283 Y15.0852
G01 X13.4298 Y15.1170
G01 X13.4298 Y16.1333
G01 X15.4834 Y18.1869
G01 X15.4967 Y18.2016
G01 X15.5063 Y18.2144
G01 X15.5105 Y18.2207
G01 X15.5195 Y18.2362
G01 X15.5264 Y18.2507
G01 X15.5285 Y18.2559
G01 X15.5338 Y18.2711
G01 X15.5378 Y18.2866
G01 X15.5390 Y18.2921
G01 X15.5413 Y18.3080
G01 X15.5425 Y18.3278
G01 X15.5425 Y19.5662
G01 X15.8169 Y19.5662
G01 X15.8244 Y19.5666
G01 X15.8319 Y19.5677
G01 X15.8410 Y19.5701
G01 X15.8497 Y19.5736
G01 X15.8580 Y19.5781
G01 X15.8641 Y19.5825
G01 X15.8712 Y19.5887
G01 X15.8774 Y19.5957
G01 X15.8828 Y19.6035
G01 X15.8871 Y19.6119
G01 X15.8904 Y19.6207
G01 X15.8929 Y19.6317
G01 X15.8937 Y19.6411
G01 X15.8937 Y20.1510
G01 X15.8929 Y20.1623
G01 X15.8914 Y20.1697
G01 X15.8898 Y20.1751
G01 X15.8871 Y20.1821
G01 X15.8846 Y20.1872
G01 X15.8808 Y20.1937
G01 X15.8774 Y20.1982
G01 X15.8725 Y20.2040
G01 X15.8685 Y20.2079
G01 X15.8596 Y20.2149
G01 X15.8531 Y20.2187
G01 X15.8480 Y20.2212
G01 X15.8410 Y20.2239
G01 X15.8356 Y20.2255
G01 X15.8282 Y20.2270
G01 X15.8225 Y20.2276
G01 X14.8625 Y20.2278
G01 X14.8531 Y20.2270
G01 X14.8439 Y20.2250
G01 X14.8350 Y20.2220
G01 X14.8249 Y20.2169
G01 X14.8157 Y20.2104
G01 X14.8088 Y20.2040
G01 X14.8027 Y20.1967
G01 X14.7976 Y20.1889
G01 X14.7942 Y20.1821
G01 X14.7909 Y20.1733
G01 X14.7891 Y20.1660
G01 X14.7880 Y20.1585
G01 X14.7876 Y20.1510
G01 X14.7876 Y20.0989
G01 X12.5706 Y20.0989
G01 X10.2149 Y22.4546
G01 X10.2149 Y36.3844
G01 X12.1402 Y38.3097
G01 X12.1402 Y37.9970
G01 X12.1410 Y37.9857
G01 X12.1421 Y37.9802
G01 X12.1441 Y37.9729
G01 X12.1484 Y37.9625
G01 X12.1542 Y37.9528
G01 X12.1614 Y37.9440
G01 X12.1698 Y37.9365
G01 X12.1791 Y37.9302
G01 X12.1894 Y37.9253
G01 X12.2002 Y37.9221
G01 X12.2095 Y37.9206
G01 X12.2170 Y37.9202
G01 X13.8611 Y37.9202
G01 X13.8611 Y34.8528
G01 X13.3130 Y34.8528
G01 X13.3055 Y34.8524
G01 X13.2943 Y34.8505
G01 X13.2836 Y34.8470
G01 X13.2735 Y34.8419
G01 X13.2643 Y34.8354
G01 X13.2561 Y34.8276
G01 X13.2491 Y34.8187
G01 X13.2436 Y34.8088
G01 X13.2395 Y34.7983
G01 X13.2370 Y34.7873
G01 X13.2362 Y34.7760
G01 X13.2362 Y32.7760
G01 X13.2366 Y32.7685
G01 X13.2377 Y32.7610
G01 X13.2390 Y32.7555
G01 X13.2413 Y32.7484
G01 X13.2444 Y32.7415
G01 X13.2471 Y32.7365
G01 X13.2502 Y32.7318
G01 X13.2548 Y32.7258
G01 X13.2587 Y32.7217
G01 X13.2643 Y32.7166
G01 X13.2703 Y32.7121
G01 X13.2751 Y32.7092
G01 X13.2819 Y32.7058
G01 X13.2871 Y32.7037
G01 X13.2943 Y32.7015
G01 X13.2999 Y32.7003
G01 X13.3111 Y32.6992
G01 X14.8149 Y32.6992
G01 X14.8205 Y32.6996
G01 X14.8280 Y32.7007
G01 X14.8353 Y32.7025
G01 X14.8424 Y32.7050
G01 X14.8492 Y32.7083
G01 X14.8557 Y32.7121
G01 X14.8617 Y32.7166
G01 X14.8660 Y32.7204
G01 X14.8712 Y32.7258
G01 X14.8758 Y32.7318
G01 X14.8798 Y32.7381
G01 X14.8832 Y32.7449
G01 X14.8865 Y32.7537
G01 X14.8883 Y32.7610
G01 X14.8894 Y32.7685
G01 X14.8898 Y32.7760
G01 X14.8898 Y34.7760
G01 X14.8890 Y34.7873
G01 X14.8870 Y34.7965
G01 X14.8832 Y34.8071
G01 X14.8779 Y34.8171
G01 X14.8712 Y34.8262
G01 X14.8632 Y34.8342
G01 X14.8541 Y34.8409
G01 X14.8441 Y34.8462
G01 X14.8389 Y34.8483
G01 X14.8317 Y34.8505
G01 X14.8205 Y34.8524
G01 X14.8130 Y34.8528
G01 X14.2649 Y34.8528
G01 X14.2649 Y37.9202
G01 X16.0189 Y37.9202
G01 X16.0283 Y37.9210
G01 X16.0393 Y37.9235
G01 X16.0498 Y37.9276
G01 X16.0597 Y37.9331
G01 X16.0686 Y37.9401
G01 X16.0764 Y37.9483
G01 X16.0829 Y37.9575
G01 X16.0872 Y37.9659
G01 X16.0905 Y37.9747
G01 X16.0923 Y37.9820
G01 X16.0934 Y37.9895
G01 X16.0938 Y37.9970
G01 X16.0938 Y41.7970
G01 X16.0934 Y41.8045
G01 X16.0927 Y41.8101
G01 X16.0899 Y41.8211
G01 X16.0856 Y41.8315
G01 X16.0819 Y41.8381
G01 X16.0787 Y41.8427
G01 X16.0713 Y41.8513
G01 X16.0627 Y41.8587
G01 X16.0581 Y41.8619
G01 X16.0515 Y41.8656
G01 X16.0411 Y41.8699
G01 X16.0301 Y41.8727
G01 X16.0245 Y41.8734
G01 X16.0170 Y41.8738
G01 X12.2170 Y41.8738
G01 X12.2114 Y41.8736
G01 X12.2039 Y41.8727
G01 X12.1965 Y41.8710
G01 X12.1911 Y41.8693
G01 X12.1842 Y41.8664
G01 X12.1775 Y41.8629
G01 X12.1713 Y41.8587
G01 X12.1668 Y41.8552
G01 X12.1614 Y41.8500
G01 X12.1553 Y41.8427
G01 X12.1502 Y41.8349
G01 X12.1468 Y41.8281
G01 X12.1441 Y41.8211
G01 X12.1417 Y41.8120
G01 X12.1406 Y41.8045
G01 X12.1402 Y41.7970
G01 X12.1402 Y38.8807
G01 X9.8703 Y36.6107
G01 X9.8570 Y36.5961
G01 X9.8473 Y36.5832
G01 X9.8431 Y36.5770
G01 X9.8350 Y36.5632
G01 X9.8280 Y36.5487
G01 X9.8258 Y36.5435
G01 X9.8204 Y36.5284
G01 X9.8158 Y36.5111
G01 X9.8144 Y36.5037
G01 X9.8121 Y36.4878
G01 X9.8111 Y36.4680
G01 X9.8112 Y22.3672
G00 Z2.0000
G00 X9.7269 Y22.3631
G01 F60.00
G01 Z-0.1000
G01 F120.00
G01 X9.7285 Y22.3390
G01 X9.7314 Y22.3190
G01 X9.7330 Y22.3113
G01 X9.7390 Y22.2879
G01 X9.7485 Y22.2614
G01 X9.7605 Y22.2360
G01 X9.7749 Y22.2119
G01 X9.7917 Y22.1893
G01 X9.8078 Y22.1714
G01 X12.2845 Y19.6945
G01 X12.3053 Y19.6757
G01 X12.3214 Y19.6635
G01 X12.3313 Y19.6567
G01 X12.3520 Y19.6445
G01 X12.3702 Y19.6357
G01 X12.3811 Y19.6310
G01 X12.4001 Y19.6242
G01 X12.4115 Y19.6209
G01 X12.4311 Y19.6162
G01 X12.4511 Y19.6130
G01 X12.4629 Y19.6117
G01 X12.4830 Y19.6107
G01 X14.7064 Y19.6107
G01 X14.7090 Y19.6000
G01 X14.7125 Y19.5887
G01 X14.7170 Y19.5776
G01 X14.7203 Y19.5705
G01 X14.7261 Y19.5601
G01 X14.7303 Y19.5534
G01 X14.7349 Y19.5469
G01 X14.7423 Y19.5377
G01 X14.7476 Y19.5318
G01 X14.7561 Y19.5235
G01 X14.7652 Y19.5159
G01 X14.7715 Y19.5111
G01 X14.7815 Y19.5047
G01 X14.7919 Y19.4989
G01 X14.8027 Y19.4940
G01 X14.8101 Y19.4911
G01 X14.8214 Y19.4876
G01 X14.8329 Y19.4848
G01 X14.8447 Y19.4829
G01 X14.8565 Y19.4819
G01 X15.0543 Y19.4817
G01 X15.0543 Y18.4483
G01 X13.3509 Y16.7448
G01 X13.3315 Y16.7590
G01 X13.3003 Y16.7778
G01 X13.2898 Y16.7833
G01 X13.2676 Y16.7938
G01 X13.2567 Y16.7984
G01 X13.2224 Y16.8106
G01 X13.1910 Y16.8186
G01 X13.1754 Y16.8217
G01 X13.1512 Y16.8253
G01 X13.1394 Y16.8266
G01 X13.1030 Y16.8283
G01 X12.4530 Y16.8283
G01 X12.4206 Y16.8269
G01 X12.4048 Y16.8253
G01 X12.3728 Y16.8204
G01 X12.3412 Y16.8127
G01 X12.3261 Y16.8081
G01 X12.2956 Y16.7970
G01 X12.2662 Y16.7833
G01 X12.2522 Y16.7758
G01 X12.2245 Y16.7590
G01 X12.1952 Y16.7374
G01 X12.1861 Y16.7298
G01 X12.1622 Y16.7078
G01 X12.1402 Y16.6839
G01 X12.1302 Y16.6717
G01 X12.1110 Y16.6455
G01 X12.0922 Y16.6143
G01 X12.0867 Y16.6038
G01 X12.0762 Y16.5816
G01 X12.0716 Y16.5707
G01 X12.0594 Y16.5364
G01 X12.0496 Y16.4972
G01 X12.0436 Y16.4568
G01 X12.0418 Y16.4210
G01 X12.0418 Y15.1130
G01 X12.0437 Y15.0767
G01 X12.0483 Y15.0446
G01 X12.0514 Y15.0290
G01 X12.0594 Y14.9976
G01 X12.0702 Y14.9670
G01 X12.0762 Y14.9524
G01 X12.0903 Y14.9231
G01 X12.1110 Y14.8885
G01 X12.1351 Y14.8561
G01 X12.1622 Y14.8262
G01 X12.1921 Y14.7991
G01 X12.2180 Y14.7796
G01 X12.2312 Y14.7708
G01 X12.2557 Y14.7562
G01 X12.2662 Y14.7507
G01 X12.2956 Y14.7370
G01 X12.3261 Y14.7259
G01 X12.3374 Y14.7223
G01 X12.3689 Y14.7144
G01 X12.3806 Y14.7123
G01 X12.4090 Y14.7081
G01 X12.4206 Y14.7071
G01 X12.4530 Y14.7057
G01 X13.1109 Y14.7059
G01 X13.1354 Y14.7071
G01 X13.1472 Y14.7081
G01 X13.1754 Y14.7123
G01 X13.1871 Y14.7144
G01 X13.2148 Y14.7213
G01 X13.2262 Y14.7246
G01 X13.2567 Y14.7356
G01 X13.2676 Y14.7402
G01 X13.2969 Y14.7543
G01 X13.3248 Y14.7708
G01 X13.3348 Y14.7773
G01 X13.3608 Y14.7966
G01 X13.3699 Y14.8042
G01 X13.3938 Y14.8262
G01 X13.4158 Y14.8501
G01 X13.4234 Y14.8592
G01 X13.4427 Y14.8852
G01 X13.4492 Y14.8952
G01 X13.4657 Y14.9231
G01 X13.4798 Y14.9524
G01 X13.4858 Y14.9670
G01 X13.4966 Y14.9976
G01 X13.5046 Y15.0290
G01 X13.5071 Y15.0407
G01 X13.5124 Y15.0772
G01 X13.5143 Y15.1170
G01 X13.5143 Y16.0983
G01 X15.5431 Y18.1272
G01 X15.5620 Y18.1480
G01 X15.5742 Y18.1641
G01 X15.5830 Y18.1773
G01 X15.5950 Y18.1982
G01 X15.6036 Y18.2164
G01 X15.6080 Y18.2275
G01 X15.6147 Y18.2465
G01 X15.6198 Y18.2661
G01 X15.6222 Y18.2777
G01 X15.6252 Y18.2976
G01 X15.6260 Y18.3055
G01 X15.6269 Y18.3257
G01 X15.6270 Y19.4817
G01 X15.8209 Y19.4818
G01 X15.8288 Y19.4822
G01 X15.8406 Y19.4835
G01 X15.8522 Y19.4856
G01 X15.8599 Y19.4876
G01 X15.8749 Y19.4925
G01 X15.8894 Y19.4989
G01 X15.8964 Y19.5027
G01 X15.9065 Y19.5089
G01 X15.9192 Y19.5183
G01 X15.9252 Y19.5235
G01 X15.9337 Y19.5318
G01 X15.9440 Y19.5438
G01 X15.9532 Y19.5567
G01 X15.9610 Y19.5705
G01 X15.9659 Y19.5813
G01 X15.9688 Y19.5887
G01 X15.9733 Y19.6038
G01 X15.9764 Y19.6193
G01 X15.9774 Y19.6272
G01 X15.9781 Y19.6390
G01 X15.9782 Y20.1510
G01 X15.9777 Y20.1629
G01 X15.9764 Y20.1747
G01 X15.9743 Y20.1863
G01 X15.9700 Y20.2016
G01 X15.9643 Y20.2164
G01 X15.9572 Y20.2305
G01 X15.9510 Y20.2406
G01 X15.9416 Y20.2533
G01 X15.9337 Y20.2622
G01 X15.9222 Y20.2731
G01 X15.9098 Y20.2829
G01 X15.8964 Y20.2913
G01 X15.8823 Y20.2984
G01 X15.8712 Y20.3029
G01 X15.8561 Y20.3074
G01 X15.8445 Y20.3099
G01 X15.8288 Y20.3118
G01 X15.8169 Y20.3123
G01 X14.8644 Y20.3123
G01 X14.8565 Y20.3121
G01 X14.8447 Y20.3111
G01 X14.8291 Y20.3084
G01 X14.8176 Y20.3053
G01 X14.8064 Y20.3015
G01 X14.7954 Y20.2968
G01 X14.7849 Y20.2913
G01 X14.7748 Y20.2851
G01 X14.7652 Y20.2781
G01 X14.7561 Y20.2705
G01 X14.7476 Y20.2622
G01 X14.7397 Y20.2533
G01 X14.7325 Y20.2439
G01 X14.7241 Y20.2305
G01 X14.7186 Y20.2200
G01 X14.7139 Y20.2090
G01 X14.7101 Y20.1978
G01 X14.7064 Y20.1833
G01 X12.6056 Y20.1833
G01 X10.2993 Y22.4896
G01 X10.2993 Y36.3494
G01 X12.0557 Y38.1058
G01 X12.0557 Y37.9970
G01 X12.0565 Y37.9812
G01 X12.0588 Y37.9655
G01 X12.0627 Y37.9502
G01 X12.0665 Y37.9390
G01 X12.0729 Y37.9245
G01 X12.0767 Y37.9175
G01 X12.0829 Y37.9074
G01 X12.0875 Y37.9009
G01 X12.0949 Y37.8917
G01 X12.1030 Y37.8830
G01 X12.1087 Y37.8775
G01 X12.1178 Y37.8699
G01 X12.1241 Y37.8651
G01 X12.1307 Y37.8607
G01 X12.1410 Y37.8548
G01 X12.1553 Y37.8480
G01 X12.1664 Y37.8439
G01 X12.1740 Y37.8416
G01 X12.1855 Y37.8388
G01 X12.1933 Y37.8375
G01 X12.2051 Y37.8362
G01 X12.2170 Y37.8357
G01 X13.7767 Y37.8357
G01 X13.7767 Y34.9373
G01 X13.3130 Y34.9373
G01 X13.2972 Y34.9365
G01 X13.2815 Y34.9342
G01 X13.2738 Y34.9324
G01 X13.2624 Y34.9291
G01 X13.2513 Y34.9250
G01 X13.2405 Y34.9201
G01 X13.2301 Y34.9143
G01 X13.2201 Y34.9079
G01 X13.2107 Y34.9007
G01 X13.2018 Y34.8928
G01 X13.1962 Y34.8872
G01 X13.1883 Y34.8783
G01 X13.1811 Y34.8689
G01 X13.1747 Y34.8589
G01 X13.1708 Y34.8520
G01 X13.1656 Y34.8414
G01 X13.1611 Y34.8303
G01 X13.1576 Y34.8190
G01 X13.1548 Y34.8075
G01 X13.1529 Y34.7957
G01 X13.1519 Y34.7839
G01 X13.1517 Y34.7760
G01 X13.1517 Y32.7760
G01 X13.1519 Y32.7681
G01 X13.1529 Y32.7563
G01 X13.1556 Y32.7407
G01 X13.1587 Y32.7292
G01 X13.1640 Y32.7143
G01 X13.1708 Y32.7000
G01 X13.1767 Y32.6897
G01 X13.1835 Y32.6799
G01 X13.1909 Y32.6707
G01 X13.2018 Y32.6592
G01 X13.2107 Y32.6513
G01 X13.2234 Y32.6419
G01 X13.2335 Y32.6357
G01 X13.2440 Y32.6302
G01 X13.2550 Y32.6255
G01 X13.2662 Y32.6217
G01 X13.2777 Y32.6186
G01 X13.2893 Y32.6165
G01 X13.3051 Y32.6149
G01 X14.8170 Y32.6148
G01 X14.8288 Y32.6155
G01 X14.8445 Y32.6178
G01 X14.8598 Y32.6217
G01 X14.8747 Y32.6270
G01 X14.8890 Y32.6338
G01 X14.9026 Y32.6419
G01 X14.9122 Y32.6489
G01 X14.9242 Y32.6592
G01 X14.9351 Y32.6707
G01 X14.9449 Y32.6831
G01 X14.9533 Y32.6965
G01 X14.9604 Y32.7106
G01 X14.9661 Y32.7254
G01 X14.9704 Y32.7407
G01 X14.9731 Y32.7563
G01 X14.9742 Y32.7720
G01 X14.9743 Y34.7760
G01 X14.9738 Y34.7879
G01 X14.9731 Y34.7957
G01 X14.9719 Y34.8036
G01 X14.9694 Y34.8152
G01 X14.9661 Y34.8266
G01 X14.9635 Y34.8340
G01 X14.9588 Y34.8450
G01 X14.9533 Y34.8555
G01 X14.9471 Y34.8656
G01 X14.9401 Y34.8752
G01 X14.9325 Y34.8843
G01 X14.9242 Y34.8928
G01 X14.9153 Y34.9007
G01 X14.9059 Y34.9079
G01 X14.8993 Y34.9123
G01 X14.8890 Y34.9182
G01 X14.8784 Y34.9234
G01 X14.8673 Y34.9279
G01 X14.8560 Y34.9314
G01 X14.8445 Y34.9342
G01 X14.8288 Y34.9365
G01 X14.8130 Y34.9373
G01 X14.3493 Y34.9373
G01 X14.3493 Y37.8357
G01 X16.0249 Y37.8359
G01 X16.0367 Y37.8369
G01 X16.0485 Y37.8388
G01 X16.0562 Y37.8406
G01 X16.0676 Y37.8439
G01 X16.0787 Y37.8480
G01 X16.0895 Y37.8529
G01 X16.0999 Y37.8587
G01 X16.1099 Y37.8651
G01 X16.1193 Y37.8723
G01 X16.1282 Y37.8802
G01 X16.1338 Y37.8858
G01 X16.1417 Y37.8947
G01 X16.1489 Y37.9041
G01 X16.1553 Y37.9141
G01 X16.1611 Y37.9245
G01 X16.1660 Y37.9353
G01 X16.1713 Y37.9502
G01 X16.1752 Y37.9655
G01 X16.1775 Y37.9812
G01 X16.1783 Y37.9970
G01 X16.1782 Y41.8010
G01 X16.1775 Y41.8128
G01 X16.1759 Y41.8246
G01 X16.1734 Y41.8362
G01 X16.1689 Y41.8513
G01 X16.1644 Y41.8624
G01 X16.1592 Y41.8730
G01 X16.1533 Y41.8833
G01 X16.1465 Y41.8931
G01 X16.1391 Y41.9023
G01 X16.1310 Y41.9110
G01 X16.1193 Y41.9217
G01 X16.1099 Y41.9289
G01 X16.0999 Y41.9353
G01 X16.0895 Y41.9411
G01 X16.0787 Y41.9460
G01 X16.0676 Y41.9501
G01 X16.0562 Y41.9534
G01 X16.0407 Y41.9565
G01 X16.0289 Y41.9578
G01 X16.0170 Y41.9583
G01 X12.2170 Y41.9583
G01 X12.2012 Y41.9575
G01 X12.1894 Y41.9559
G01 X12.1778 Y41.9534
G01 X12.1627 Y41.9489
G01 X12.1516 Y41.9444
G01 X12.1375 Y41.9373
G01 X12.1241 Y41.9289
G01 X12.1117 Y41.9191
G01 X12.1002 Y41.9082
G01 X12.0899 Y41.8962
G01 X12.0807 Y41.8833
G01 X12.0767 Y41.8765
G01 X12.0712 Y41.8660
G01 X12.0680 Y41.8587
G01 X12.0639 Y41.8476
G01 X12.0596 Y41.8323
G01 X12.0569 Y41.8167
G01 X12.0558 Y41.8010
G01 X12.0557 Y38.9157
G01 X9.8105 Y36.6705
G01 X9.7968 Y36.6556
G01 X9.7892 Y36.6466
G01 X9.7772 Y36.6303
G01 X9.7707 Y36.6204
G01 X9.7605 Y36.6030
G01 X9.7517 Y36.5848
G01 X9.7470 Y36.5739
G01 X9.7402 Y36.5549
G01 X9.7339 Y36.5316
G01 X9.7308 Y36.5161
G01 X9.7280 Y36.4961
G01 X9.7267 Y36.4680
G01 X9.7269 Y22.3631
G00 Z2.0000
G00 X16.1611 Y28.5528
G01 F60.00
G01 Z-0.1000
G01 F120.00
G01 X14.4611 Y28.5528
G01 X14.4517 Y28.5520
G01 X14.4443 Y28.5505
G01 X14.4371 Y28.5483
G01 X14.4285 Y28.5446
G01 X14.4203 Y28.5399
G01 X14.4143 Y28.5354
G01 X14.4087 Y28.5303
G01 X14.4036 Y28.5247
G01 X14.4002 Y28.5202
G01 X14.3962 Y28.5139
G01 X14.3928 Y28.5071
G01 X14.3907 Y28.5019
G01 X14.3885 Y28.4947
G01 X14.3873 Y28.4891
G01 X14.3864 Y28.4816
G01 X14.3862 Y28.4760
G01 X14.3862 Y26.4760
G01 X14.3866 Y26.4685
G01 X14.3877 Y26.4610
G01 X14.3895 Y26.4537
G01 X14.3920 Y26.4466
G01 X14.3953 Y26.4398
G01 X14.3991 Y26.4333
G01 X14.4036 Y26.4273
G01 X14.4087 Y26.4217
G01 X14.4143 Y26.4166
G01 X14.4203 Y26.4121
G01 X14.4268 Y26.4083
G01 X14.4336 Y26.4050
G01 X14.4407 Y26.4025
G01 X14.4480 Y26.4007
G01 X14.4555 Y26.3996
G01 X14.4630 Y26.3992
G01 X18.2630 Y26.3992
G01 X18.2705 Y26.3996
G01 X18.2780 Y26.4007
G01 X18.2853 Y26.4025
G01 X18.2924 Y26.4050
G01 X18.2992 Y26.4083
G01 X18.3057 Y26.4121
G01 X18.3117 Y26.4166
G01 X18.3173 Y26.4217
G01 X18.3224 Y26.4273
G01 X18.3269 Y26.4333
G01 X18.3307 Y26.4398
G01 X18.3340 Y26.4466
G01 X18.3365 Y26.4537
G01 X18.3383 Y26.4610
G01 X18.3394 Y26.4685
G01 X18.3398 Y26.4760
G01 X18.3398 Y28.4760
G01 X18.3394 Y28.4835
G01 X18.3387 Y28.4891
G01 X18.3370 Y28.4965
G01 X18.3353 Y28.5019
G01 X18.3324 Y28.5088
G01 X18.3298 Y28.5139
G01 X18.3258 Y28.5202
G01 X18.3224 Y28.5247
G01 X18.3173 Y28.5303
G01 X18.3117 Y28.5354
G01 X18.3041 Y28.5409
G01 X18.2975 Y28.5446
G01 X18.2889 Y28.5483
G01 X18.2817 Y28.5505
G01 X18.2724 Y28.5522
G01 X18.2649 Y28.5528
G01 X16.5649 Y28.5528
G01 X16.5649 Y32.6992
G01 X17.1186 Y32.6994
G01 X17.1280 Y32.7007
G01 X17.1389 Y32.7037
G01 X17.1492 Y32.7083
G01 X17.1572 Y32.7132
G01 X17.1660 Y32.7204
G01 X17.1724 Y32.7273
G01 X17.1779 Y32.7349
G01 X17.1832 Y32.7449
G01 X17.1859 Y32.7519
G01 X17.1883 Y32.7610
G01 X17.1894 Y32.7685
G01 X17.1898 Y32.7760
G01 X17.1898 Y34.5673
G01 X17.5216 Y34.8991
G01 X23.0562 Y34.8991
G01 X23.0562 Y34.0487
G01 X21.8559 Y32.8484
G01 X21.8440 Y32.8351
G01 X21.8322 Y32.8191
G01 X21.8220 Y32.8022
G01 X21.8150 Y32.7877
G01 X21.8080 Y32.7692
G01 X21.8058 Y32.7620
G01 X21.8017 Y32.7445
G01 X21.7989 Y32.7249
G01 X21.7981 Y32.7070
G01 X21.7981 Y20.6000
G01 X21.7991 Y20.5802
G01 X21.8020 Y20.5606
G01 X21.8068 Y20.5414
G01 X21.8135 Y20.5228
G01 X21.8220 Y20.5048
G01 X21.8322 Y20.4879
G01 X21.8440 Y20.4719
G01 X21.8559 Y20.4586
G01 X22.2573 Y20.0573
G01 X22.2705 Y20.0452
G01 X22.2848 Y20.0343
G01 X22.2910 Y20.0301
G01 X22.3048 Y20.0220
G01 X22.3228 Y20.0135
G01 X22.3378 Y20.0080
G01 X22.3450 Y20.0058
G01 X22.3606 Y20.0020
G01 X22.3802 Y19.9991
G01 X22.4000 Y19.9981
G01 X26.1140 Y19.9981
G01 X26.1338 Y19.9991
G01 X26.1534 Y20.0020
G01 X26.1726 Y20.0068
G01 X26.1895 Y20.0128
G01 X26.2092 Y20.0220
G01 X26.2261 Y20.0322
G01 X26.2421 Y20.0440
G01 X26.2567 Y20.0573
G01 X30.9908 Y24.7913
G01 X31.2002 Y24.7911
G01 X31.2004 Y24.7124
G01 X31.2013 Y24.7049
G01 X31.2025 Y24.6993
G01 X31.2047 Y24.6921
G01 X31.2076 Y24.6852
G01 X31.2121 Y24.6769
G01 X31.2176 Y24.6693
G01 X31.2254 Y24.6611
G01 X31.2328 Y24.6552
G01 X31.2425 Y24.6494
G01 X31.2511 Y24.6457
G01 X31.2620 Y24.6427
G01 X31.2714 Y24.6414
G01 X32.8770 Y24.6412
G01 X32.8826 Y24.6414
G01 X32.8901 Y24.6423
G01 X32.8957 Y24.6435
G01 X32.9029 Y24.6457
G01 X32.9098 Y24.6486
G01 X32.9165 Y24.6521
G01 X32.9227 Y24.6563
G01 X32.9272 Y24.6598
G01 X32.9326 Y24.6650
G01 X32.9375 Y24.6708
G01 X32.9419 Y24.6769
G01 X32.9456 Y24.6835
G01 X32.9493 Y24.6921
G01 X32.9515 Y24.6993
G01 X32.9530 Y24.7067
G01 X32.9537 Y24.7142
G01 X32.9537 Y25.2718
G01 X32.9523 Y25.2830
G01 X32.9493 Y25.2939
G01 X32.9447 Y25.3042
G01 X32.9409 Y25.3107
G01 X32.9375 Y25.3152
G01 X32.9300 Y25.3236
G01 X32.9212 Y25.3308
G01 X32.9115 Y25.3366
G01 X32.9064 Y25.3390
G01 X32.8993 Y25.3415
G01 X32.8883 Y25.3440
G01 X32.8770 Y25.3448
G01 X31.2714 Y25.3446
G01 X31.2620 Y25.3433
G01 X31.2529 Y25.3409
G01 X31.2442 Y25.3374
G01 X31.2343 Y25.3319
G01 X31.2268 Y25.3262
G01 X31.2188 Y25.3182
G01 X31.2131 Y25.3107
G01 X31.2076 Y25.3008
G01 X31.2047 Y25.2939
G01 X31.2030 Y25.2885
G01 X31.2013 Y25.2811
G01 X31.2004 Y25.2736
G01 X31.2002 Y25.1949
G01 X31.1539 Y25.1949
G01 X31.1539 Y26.3911
G01 X31.2002 Y26.3911
G01 X31.2004 Y26.3124
G01 X31.2013 Y26.3049
G01 X31.2025 Y26.2993
G01 X31.2047 Y26.2921
G01 X31.2076 Y26.2852
G01 X31.2121 Y26.2769
G01 X31.2176 Y26.2693
G01 X31.2254 Y26.2611
G01 X31.2328 Y26.2552
G01 X31.2425 Y26.2494
G01 X31.2511 Y26.2457
G01 X31.2620 Y26.2427
G01 X31.2714 Y26.2414
G01 X32.8770 Y26.2412
G01 X32.8883 Y26.2420
G01 X32.8993 Y26.2445
G01 X32.9064 Y26.2470
G01 X32.9115 Y26.2494
G01 X32.9212 Y26.2552
G01 X32.9300 Y26.2624
G01 X32.9375 Y26.2708
G01 X32.9409 Y26.2753
G01 X32.9447 Y26.2818
G01 X32.9493 Y26.2921
G01 X32.9523 Y26.3030
G01 X32.9537 Y26.3142
G01 X32.9538 Y26.8699
G01 X32.9527 Y26.8811
G01 X32.9515 Y26.8867
G01 X32.9493 Y26.8939
G01 X32.9447 Y26.9042
G01 X32.9387 Y26.9137
G01 X32.9326 Y26.9210
G01 X32.9257 Y26.9274
G01 X32.9197 Y26.9319
G01 X32.9115 Y26.9366
G01 X32.9029 Y26.9403
G01 X32.8957 Y26.9425
G01 X32.8883 Y26.9440
G01 X32.8789 Y26.9448
G01 X31.2770 Y26.9448
G01 X31.2695 Y26.9444
G01 X31.2639 Y26.9437
G01 X31.2583 Y26.9425
G01 X31.2511 Y26.9403
G01 X31.2442 Y26.9374
G01 X31.2359 Y26.9329
G01 X31.2283 Y26.9274
G01 X31.2227 Y26.9223
G01 X31.2176 Y26.9167
G01 X31.2121 Y26.9091
G01 X31.2076 Y26.9008
G01 X31.2047 Y26.8939
G01 X31.2017 Y26.8830
G01 X31.2003 Y26.8718
G01 X31.2002 Y26.7949
G01 X31.0414 Y26.7949
G01 X31.0216 Y26.7939
G01 X31.0020 Y26.7910
G01 X30.9828 Y26.7862
G01 X30.9641 Y26.7795
G01 X30.9462 Y26.7710
G01 X30.9324 Y26.7629
G01 X30.9262 Y26.7587
G01 X30.9133 Y26.7490
G01 X30.9014 Y26.7383
G01 X30.8093 Y26.6464
G01 X30.7984 Y26.6345
G01 X30.7936 Y26.6287
G01 X30.7842 Y26.6158
G01 X30.7740 Y26.5988
G01 X30.7655 Y26.5809
G01 X30.7583 Y26.5604
G01 X30.7540 Y26.5430
G01 X30.7516 Y26.5271
G01 X30.7508 Y26.5196
G01 X30.7501 Y26.5036
G01 X30.7501 Y25.1216
G01 X26.0304 Y20.4019
G01 X22.4836 Y20.4019
G01 X22.2019 Y20.6836
G01 X22.2019 Y32.6234
G01 X23.3417 Y33.7632
G01 X24.8330 Y33.7632
G01 X24.8405 Y33.7636
G01 X24.8461 Y33.7643
G01 X24.8517 Y33.7655
G01 X24.8589 Y33.7677
G01 X24.8658 Y33.7706
G01 X24.8709 Y33.7732
G01 X24.8772 Y33.7772
G01 X24.8817 Y33.7806
G01 X24.8873 Y33.7857
G01 X24.8924 Y33.7913
G01 X24.8979 Y33.7989
G01 X24.9016 Y33.8055
G01 X24.9047 Y33.8124
G01 X24.9075 Y33.8213
G01 X24.9090 Y33.8287
G01 X24.9098 Y33.8381
G01 X24.9098 Y34.8888
G01 X29.8382 Y39.8169
G01 X29.8509 Y39.8029
G01 X29.8732 Y39.7826
G01 X29.8989 Y39.7633
G01 X29.9279 Y39.7458
G01 X29.9552 Y39.7328
G01 X29.9871 Y39.7213
G01 X30.0182 Y39.7135
G01 X30.0502 Y39.7087
G01 X30.0801 Y39.7072
G01 X30.7070 Y39.7072
G01 X30.7409 Y39.7090
G01 X30.7708 Y39.7135
G01 X30.8019 Y39.7213
G01 X30.8321 Y39.7321
G01 X30.8577 Y39.7441
G01 X30.8643 Y39.7476
G01 X30.8854 Y39.7603
G01 X30.8916 Y39.7644
G01 X30.9143 Y39.7814
G01 X30.9381 Y39.8029
G01 X30.9596 Y39.8267
G01 X30.9787 Y39.8524
G01 X30.9952 Y39.8799
G01 X31.0089 Y39.9089
G01 X31.0197 Y39.9391
G01 X31.0275 Y39.9702
G01 X31.0323 Y40.0022
G01 X31.0338 Y40.0340
G01 X31.0338 Y41.2840
G01 X31.0325 Y41.3123
G01 X31.0318 Y41.3198
G01 X31.0282 Y41.3440
G01 X31.0267 Y41.3514
G01 X31.0197 Y41.3789
G01 X31.0089 Y41.4091
G01 X30.9952 Y41.4381
G01 X30.9807 Y41.4624
G01 X30.9766 Y41.4686
G01 X30.9584 Y41.4928
G01 X30.9381 Y41.5151
G01 X30.9143 Y41.5366
G01 X30.8886 Y41.5557
G01 X30.8643 Y41.5704
G01 X30.8577 Y41.5739
G01 X30.8321 Y41.5859
G01 X30.8054 Y41.5955
G01 X30.7982 Y41.5977
G01 X30.7744 Y41.6037
G01 X30.7670 Y41.6052
G01 X30.7390 Y41.6092
G01 X30.7089 Y41.6108
G01 X30.0820 Y41.6108
G01 X30.0481 Y41.6090
G01 X30.0182 Y41.6045
G01 X29.9871 Y41.5967
G01 X29.9569 Y41.5859
G01 X29.9313 Y41.5739
G01 X29.9247 Y41.5704
G01 X29.9036 Y41.5577
G01 X29.8974 Y41.5536
G01 X29.8747 Y41.5366
G01 X29.8509 Y41.5151
G01 X29.8294 Y41.4913
G01 X29.8103 Y41.4656
G01 X29.7938 Y41.4381
G01 X29.7816 Y41.4125
G01 X29.7787 Y41.4055
G01 X29.7705 Y41.3824
G01 X29.7683 Y41.3752
G01 X29.7615 Y41.3478
G01 X29.7566 Y41.3142
G01 X29.7552 Y41.2840
G01 X29.7552 Y40.3052
G01 X24.9098 Y35.4598
G01 X24.9097 Y35.5438
G01 X24.9090 Y35.5513
G01 X24.9075 Y35.5587
G01 X24.9053 Y35.5659
G01 X24.9032 Y35.5711
G01 X24.8989 Y35.5795
G01 X24.8924 Y35.5887
G01 X24.8860 Y35.5956
G01 X24.8787 Y35.6017
G01 X24.8692 Y35.6077
G01 X24.8606 Y35.6117
G01 X24.8517 Y35.6145
G01 X24.8405 Y35.6164
G01 X24.8330 Y35.6168
G01 X23.1311 Y35.6168
G01 X23.1199 Y35.6157
G01 X23.1143 Y35.6145
G01 X23.1071 Y35.6123
G01 X23.1019 Y35.6102
G01 X23.0951 Y35.6068
G01 X23.0888 Y35.6028
G01 X23.0843 Y35.5994
G01 X23.0761 Y35.5916
G01 X23.0713 Y35.5857
G01 X23.0681 Y35.5811
G01 X23.0628 Y35.5711
G01 X23.0601 Y35.5641
G01 X23.0585 Y35.5587
G01 X23.0568 Y35.5494
G01 X23.0562 Y35.5400
G01 X23.0562 Y35.3029
G01 X17.4380 Y35.3029
G01 X17.4201 Y35.3021
G01 X17.4023 Y35.2996
G01 X17.3949 Y35.2982
G01 X17.3794 Y35.2942
G01 X17.3608 Y35.2875
G01 X17.3428 Y35.2790
G01 X17.3290 Y35.2709
G01 X17.3228 Y35.2667
G01 X17.3085 Y35.2558
G01 X17.2953 Y35.2437
G01 X16.9043 Y34.8528
G01 X15.6111 Y34.8528
G01 X15.6055 Y34.8524
G01 X15.5980 Y34.8513
G01 X15.5907 Y34.8495
G01 X15.5854 Y34.8477
G01 X15.5802 Y34.8454
G01 X15.5735 Y34.8419
G01 X15.5673 Y34.8377
G01 X15.5628 Y34.8342
G01 X15.5561 Y34.8276
G01 X15.5513 Y34.8217
G01 X15.5471 Y34.8155
G01 X15.5428 Y34.8071
G01 X15.5395 Y34.7983
G01 X15.5377 Y34.7910
G01 X15.5366 Y34.7835
G01 X15.5362 Y34.7760
G01 X15.5362 Y32.7760
G01 X15.5370 Y32.7647
G01 X15.5390 Y32.7555
G01 X15.5428 Y32.7449
G01 X15.5481 Y32.7349
G01 X15.5548 Y32.7258
G01 X15.5628 Y32.7178
G01 X15.5719 Y32.7111
G01 X15.5819 Y32.7058
G01 X15.5871 Y32.7037
G01 X15.5943 Y32.7015
G01 X15.6055 Y32.6996
G01 X15.6130 Y32.6992
G01 X16.1611 Y32.6992
G01 X16.1611 Y28.5528
G00 Z2.0000
G00 X19.5743 Y33.3647
G01 F60.00
G01 Z-0.1000
G01 F120.00
G01 X19.5742 Y32.7720
G01 X19.5735 Y32.7602
G01 X19.5725 Y32.7523
G01 X19.5712 Y32.7445
G01 X19.5684 Y32.7330
G01 X19.5661 Y32.7254
G01 X19.5620 Y32.7143
G01 X19.5552 Y32.7000
G01 X19.5471 Y32.6864
G01 X19.5401 Y32.6768
G01 X19.5351 Y32.6707
G01 X19.5242 Y32.6592
G01 X19.5153 Y32.6513
G01 X19.5091 Y32.6465
G01 X19.5026 Y32.6419
G01 X19.4925 Y32.6357
G01 X19.4820 Y32.6302
G01 X19.4747 Y32.6270
G01 X19.4598 Y32.6217
G01 X19.4483 Y32.6186
G01 X19.4406 Y32.6171
G01 X19.4288 Y32.6155
G01 X19.4130 Y32.6147
G01 X19.0743 Y32.6147
G01 X19.0743 Y32.4373
G01 X19.4522 Y32.4373
G01 X19.4830 Y32.4406
G01 X19.5770 Y32.4757
G01 X19.6550 Y32.5340
G01 X19.7133 Y32.6120
G01 X19.7484 Y32.7060
G01 X19.7517 Y32.7368
G01 X19.7517 Y33.3647
G01 X19.5743 Y33.3647
G00 Z2.0000
G00 X19.4898 Y33.4492
G01 F60.00
G01 Z-0.1000
G01 F120.00
G01 X19.4898 Y32.7760
G01 X19.4894 Y32.7685
G01 X19.4883 Y32.7610
G01 X19.4865 Y32.7537
G01 X19.4832 Y32.7449
G01 X19.4779 Y32.7349
G01 X19.4724 Y32.7273
G01 X19.4660 Y32.7204
G01 X19.4572 Y32.7132
G01 X19.4492 Y32.7083
G01 X19.4389 Y32.7037
G01 X19.4298 Y32.7011
G01 X19.4205 Y32.6996
G01 X19.4130 Y32.6992
G01 X18.9898 Y32.6992
G01 X18.9898 Y32.3528
G01 X19.4555 Y32.3528
G01 X19.5026 Y32.3577
G01 X19.6179 Y32.4007
G01 X19.7153 Y32.4737
G01 X19.7883 Y32.5711
G01 X19.8313 Y32.6864
G01 X19.8361 Y32.7310
G01 X19.8362 Y33.4492
G01 X19.4898 Y33.4492
G00 Z2.0000
G00 X22.9898 Y31.9605
G01 F60.00
G01 Z-0.1000
G01 F120.00
G01 X22.9929 Y31.9450
G01 X23.0153 Y31.8564
G01 X23.0487 Y31.7630
G01 X23.0911 Y31.6733
G01 X23.1422 Y31.5882
G01 X23.2013 Y31.5085
G01 X23.2679 Y31.4349
G01 X23.3415 Y31.3683
G01 X23.4212 Y31.3092
G01 X23.5063 Y31.2581
G01 X23.5960 Y31.2157
G01 X23.6894 Y31.1823
G01 X23.7853 Y31.1582
G01 X23.8839 Y31.1436
G01 X23.9830 Y31.1387
G01 X24.0821 Y31.1436
G01 X24.1803 Y31.1582
G01 X24.2762 Y31.1822
G01 X24.3700 Y31.2157
G01 X24.4597 Y31.2581
G01 X24.5448 Y31.3092
G01 X24.6245 Y31.3683
G01 X24.6981 Y31.4349
G01 X24.7647 Y31.5085
G01 X24.8238 Y31.5882
G01 X24.8749 Y31.6733
G01 X24.9173 Y31.7630
G01 X24.9507 Y31.8564
G01 X24.9748 Y31.9523
G01 X24.9894 Y32.0509
G01 X24.9943 Y32.1500
G01 X24.9894 Y32.2491
G01 X24.9748 Y32.3473
G01 X24.9508 Y32.4432
G01 X24.9173 Y32.5370
G01 X24.8749 Y32.6267
G01 X24.8238 Y32.7118
G01 X24.7647 Y32.7915
G01 X24.6981 Y32.8651
G01 X24.6245 Y32.9317
G01 X24.5448 Y32.9908
G01 X24.4597 Y33.0419
G01 X24.3700 Y33.0843
G01 X24.2766 Y33.1177
G01 X24.1803 Y33.1418
G01 X24.0821 Y33.1564
G01 X23.9830 Y33.1613
G01 X23.8839 Y33.1564
G01 X23.7857 Y33.1418
G01 X23.6898 Y33.1178
G01 X23.5960 Y33.0843
G01 X23.5063 Y33.0419
G01 X23.4212 Y32.9908
G01 X23.3415 Y32.9317
G01 X23.2679 Y32.8651
G01 X23.2013 Y32.7915
G01 X23.1422 Y32.7118
G01 X23.0911 Y32.6267
G01 X23.0487 Y32.5370
G01 X23.0153 Y32.4436
G01 X22.9912 Y32.3473
G01 X22.9766 Y32.2491
G01 X22.9717 Y32.1500
G01 X22.9766 Y32.0509
G01 X22.9898 Y31.9605
G00 Z2.0000
G00 X23.0734 Y31.9729
G01 F60.00
G01 Z-0.1000
G01 F120.00
G01 X23.0748 Y31.9655
G01 X23.0961 Y31.8810
G01 X23.1267 Y31.7953
G01 X23.1656 Y31.7131
G01 X23.2124 Y31.6351
G01 X23.2666 Y31.5620
G01 X23.3277 Y31.4947
G01 X23.3950 Y31.4336
G01 X23.4681 Y31.3794
G01 X23.5461 Y31.3326
G01 X23.6283 Y31.2937
G01 X23.7140 Y31.2631
G01 X23.8020 Y31.2410
G01 X23.8922 Y31.2277
G01 X23.9830 Y31.2232
G01 X24.0738 Y31.2277
G01 X24.1638 Y31.2410
G01 X24.2519 Y31.2631
G01 X24.3377 Y31.2937
G01 X24.4199 Y31.3326
G01 X24.4979 Y31.3794
G01 X24.5710 Y31.4336
G01 X24.6383 Y31.4947
G01 X24.6994 Y31.5620
G01 X24.7536 Y31.6351
G01 X24.8004 Y31.7131
G01 X24.8393 Y31.7953
G01 X24.8699 Y31.8810
G01 X24.8920 Y31.9690
G01 X24.9053 Y32.0592
G01 X24.9098 Y32.1500
G01 X24.9053 Y32.2408
G01 X24.8920 Y32.3308
G01 X24.8699 Y32.4189
G01 X24.8393 Y32.5047
G01 X24.8004 Y32.5869
G01 X24.7536 Y32.6649
G01 X24.6994 Y32.7380
G01 X24.6383 Y32.8053
G01 X24.5710 Y32.8664
G01 X24.4979 Y32.9206
G01 X24.4199 Y32.9674
G01 X24.3377 Y33.0063
G01 X24.2520 Y33.0369
G01 X24.1638 Y33.0590
G01 X24.0738 Y33.0723
G01 X23.9830 Y33.0768
G01 X23.8922 Y33.0723
G01 X23.8022 Y33.0590
G01 X23.7141 Y33.0369
G01 X23.6283 Y33.0063
G01 X23.5461 Y32.9674
G01 X23.4681 Y32.9206
G01 X23.3950 Y32.8664
G01 X23.3277 Y32.8053
G01 X23.2666 Y32.7380
G01 X23.2124 Y32.6649
G01 X23.1656 Y32.5869
G01 X23.1267 Y32.5047
G01 X23.0961 Y32.4190
G01 X23.0740 Y32.3308
G01 X23.0607 Y32.2408
G01 X23.0562 Y32.1500
G01 X23.0607 Y32.0592
G01 X23.0734 Y31.9729
G00 Z2.0000
G00 X24.4667 Y30.4987
G01 F60.00
G01 Z-0.1000
G01 F120.00
G01 X24.4654 Y30.4987
G01 X24.4662 Y30.4982
G01 X24.4667 Y30.4987
G00 Z2.0000
G00 X23.0734 Y29.4329
G01 F60.00
G01 Z-0.1000
G01 F120.00
G01 X23.0748 Y29.4255
G01 X23.0961 Y29.3410
G01 X23.1254 Y29.2588
G01 X23.1283 Y29.2519
G01 X23.1656 Y29.1731
G01 X23.2104 Y29.0983
G01 X23.2146 Y29.0920
G01 X23.2666 Y29.0220
G01 X23.3251 Y28.9574
G01 X23.3304 Y28.9521
G01 X23.3950 Y28.8936
G01 X23.4650 Y28.8416
G01 X23.4713 Y28.8374
G01 X23.5461 Y28.7926
G01 X23.6249 Y28.7553
G01 X23.6318 Y28.7524
G01 X23.7140 Y28.7231
G01 X23.7985 Y28.7018
G01 X23.8055 Y28.7004
G01 X23.8922 Y28.6877
G01 X23.9792 Y28.6833
G01 X23.9868 Y28.6833
G01 X24.0738 Y28.6877
G01 X24.1601 Y28.7004
G01 X24.1675 Y28.7018
G01 X24.2520 Y28.7231
G01 X24.3342 Y28.7524
G01 X24.3411 Y28.7553
G01 X24.4199 Y28.7926
G01 X24.4947 Y28.8374
G01 X24.5010 Y28.8416
G01 X24.5695 Y28.8924
G01 X24.6383 Y28.9547
G01 X24.6994 Y29.0220
G01 X24.7536 Y29.0951
G01 X24.7985 Y29.1698
G01 X24.8021 Y29.1765
G01 X24.8377 Y29.2519
G01 X24.8406 Y29.2588
G01 X24.8699 Y29.3410
G01 X24.8912 Y29.4255
G01 X24.8926 Y29.4325
G01 X24.9053 Y29.5192
G01 X24.9098 Y29.6100
G01 X24.9053 Y29.7008
G01 X24.8920 Y29.7908
G01 X24.8699 Y29.8789
G01 X24.8393 Y29.9647
G01 X24.8004 Y30.0469
G01 X24.7648 Y30.1064
G01 X27.3686 Y32.7101
G01 X33.6244 Y32.7101
G01 X34.9251 Y31.4094
G01 X34.9251 Y31.3198
G01 X34.8464 Y31.3196
G01 X34.8389 Y31.3187
G01 X34.8333 Y31.3175
G01 X34.8261 Y31.3153
G01 X34.8192 Y31.3124
G01 X34.8093 Y31.3069
G01 X34.8018 Y31.3012
G01 X34.7938 Y31.2932
G01 X34.7881 Y31.2857
G01 X34.7826 Y31.2758
G01 X34.7791 Y31.2671
G01 X34.7763 Y31.2561
G01 X34.7753 Y31.2468
G01 X34.7753 Y29.6392
G01 X34.7760 Y29.6317
G01 X34.7771 Y29.6262
G01 X34.7785 Y29.6207
G01 X34.7810 Y29.6136
G01 X34.7861 Y29.6035
G01 X34.7903 Y29.5973
G01 X34.7938 Y29.5928
G01 X34.7990 Y29.5874
G01 X34.8033 Y29.5836
G01 X34.8078 Y29.5802
G01 X34.8141 Y29.5762
G01 X34.8192 Y29.5736
G01 X34.8261 Y29.5707
G01 X34.8333 Y29.5685
G01 X34.8389 Y29.5673
G01 X34.8464 Y29.5664
G01 X34.8520 Y29.5662
G01 X35.4076 Y29.5664
G01 X35.4170 Y29.5677
G01 X35.4279 Y29.5707
G01 X35.4382 Y29.5753
G01 X35.4477 Y29.5813
G01 X35.4550 Y29.5874
G01 X35.4625 Y29.5958
G01 X35.4688 Y29.6051
G01 X35.4737 Y29.6154
G01 X35.4760 Y29.6225
G01 X35.4777 Y29.6299
G01 X35.4784 Y29.6355
G01 X35.4788 Y29.6430
G01 X35.4788 Y31.2430
G01 X35.4780 Y31.2543
G01 X35.4760 Y31.2635
G01 X35.4730 Y31.2724
G01 X35.4688 Y31.2809
G01 X35.4637 Y31.2887
G01 X35.4576 Y31.2960
G01 X35.4507 Y31.3024
G01 X35.4415 Y31.3089
G01 X35.4331 Y31.3132
G01 X35.4261 Y31.3159
G01 X35.4207 Y31.3175
G01 X35.4133 Y31.3190
G01 X35.4076 Y31.3196
G01 X35.3289 Y31.3198
G01 X35.3288 Y31.4949
G01 X35.3279 Y31.5128
G01 X35.3253 Y31.5305
G01 X35.3212 Y31.5480
G01 X35.3190 Y31.5552
G01 X35.3135 Y31.5702
G01 X35.3050 Y31.5882
G01 X35.2969 Y31.6020
G01 X35.2927 Y31.6082
G01 X35.2830 Y31.6211
G01 X35.2711 Y31.6344
G01 X33.8494 Y33.0561
G01 X33.8361 Y33.0680
G01 X33.8232 Y33.0777
G01 X33.8170 Y33.0819
G01 X33.8032 Y33.0900
G01 X33.7887 Y33.0970
G01 X33.7817 Y33.0999
G01 X33.7666 Y33.1052
G01 X33.7492 Y33.1096
G01 X33.7278 Y33.1129
G01 X33.7080 Y33.1139
G01 X27.2850 Y33.1139
G01 X27.2690 Y33.1132
G01 X27.2615 Y33.1124
G01 X27.2456 Y33.1100
G01 X27.2264 Y33.1052
G01 X27.2078 Y33.0985
G01 X27.1932 Y33.0917
G01 X27.1760 Y33.0819
G01 X27.1698 Y33.0777
G01 X27.1569 Y33.0680
G01 X27.1423 Y33.0547
G01 X24.4794 Y30.3918
G01 X24.4199 Y30.4274
G01 X24.3377 Y30.4663
G01 X24.2520 Y30.4969
G01 X24.1675 Y30.5182
G01 X24.1601 Y30.5196
G01 X24.0776 Y30.5319
G01 X24.0701 Y30.5326
G01 X23.9830 Y30.5368
G01 X23.8959 Y30.5326
G01 X23.8884 Y30.5319
G01 X23.8059 Y30.5196
G01 X23.7985 Y30.5182
G01 X23.7141 Y30.4969
G01 X23.6283 Y30.4663
G01 X23.5461 Y30.4274
G01 X23.4713 Y30.3826
G01 X23.4650 Y30.3784
G01 X23.3936 Y30.3252
G01 X23.3304 Y30.2679
G01 X23.3251 Y30.2626
G01 X23.2666 Y30.1980
G01 X23.2146 Y30.1280
G01 X23.2104 Y30.1217
G01 X23.1656 Y30.0469
G01 X23.1283 Y29.9681
G01 X23.1254 Y29.9612
G01 X23.0961 Y29.8790
G01 X23.0748 Y29.7945
G01 X23.0734 Y29.7871
G01 X23.0607 Y29.7008
G01 X23.0563 Y29.6138
G01 X23.0563 Y29.6062
G01 X23.0607 Y29.5192
G01 X23.0734 Y29.4329
G00 Z2.0000
G00 X23.6819 Y28.0353
G01 F60.00
G01 Z-0.1000
G01 F120.00
G01 X23.6971 Y28.0398
G01 X23.7857 Y28.0618
G01 X23.8839 Y28.0764
G01 X23.9830 Y28.0813
G01 X24.0821 Y28.0764
G01 X24.1803 Y28.0618
G01 X24.2766 Y28.0377
G01 X24.3700 Y28.0043
G01 X24.4526 Y27.9654
G01 X24.4662 Y27.9582
G01 X27.7623 Y31.2543
G01 X27.7464 Y31.2476
G01 X27.7019 Y31.2319
G01 X27.6485 Y31.2185
G01 X27.5940 Y31.2104
G01 X27.5390 Y31.2077
G01 X27.4840 Y31.2104
G01 X27.4295 Y31.2185
G01 X27.3761 Y31.2319
G01 X27.3242 Y31.2504
G01 X27.2744 Y31.2740
G01 X27.2272 Y31.3023
G01 X27.1829 Y31.3351
G01 X27.1421 Y31.3721
G01 X27.1051 Y31.4129
G01 X27.0723 Y31.4572
G01 X27.0440 Y31.5044
G01 X27.0237 Y31.5470
G01 X27.0176 Y31.5616
G01 X27.0019 Y31.6061
G01 X26.9902 Y31.6518
G01 X26.9878 Y31.6634
G01 X26.9814 Y31.7061
G01 X26.9801 Y31.7179
G01 X26.9778 Y31.7650
G01 X26.9779 Y31.7769
G01 X26.9798 Y31.8161
G01 X26.9814 Y31.8319
G01 X26.9885 Y31.8785
G01 X27.0008 Y31.9281
G01 X27.0044 Y31.9394
G01 X27.0204 Y31.9838
G01 X27.0404 Y32.0265
G01 X27.0479 Y32.0405
G01 X27.0723 Y32.0808
G01 X27.1051 Y32.1251
G01 X27.1421 Y32.1659
G01 X27.1829 Y32.2029
G01 X27.2272 Y32.2357
G01 X27.2744 Y32.2640
G01 X27.3242 Y32.2876
G01 X27.3761 Y32.3061
G01 X27.4295 Y32.3195
G01 X27.4761 Y32.3266
G01 X27.4919 Y32.3282
G01 X27.5390 Y32.3303
G01 X27.5861 Y32.3282
G01 X27.6019 Y32.3266
G01 X27.6485 Y32.3195
G01 X27.7019 Y32.3061
G01 X27.7538 Y32.2876
G01 X27.7965 Y32.2676
G01 X27.8105 Y32.2601
G01 X27.8508 Y32.2357
G01 X27.8888 Y32.2077
G01 X27.9011 Y32.1977
G01 X27.9359 Y32.1659
G01 X27.9677 Y32.1311
G01 X27.9777 Y32.1188
G01 X28.0034 Y32.0841
G01 X28.0099 Y32.0741
G01 X28.0340 Y32.0336
G01 X28.0560 Y31.9874
G01 X28.0604 Y31.9764
G01 X28.0736 Y31.9394
G01 X28.0782 Y31.9243
G01 X28.0895 Y31.8785
G01 X28.0966 Y31.8319
G01 X28.0982 Y31.8161
G01 X28.1001 Y31.7769
G01 X28.1002 Y31.7650
G01 X28.0976 Y31.7140
G01 X28.0908 Y31.6673
G01 X28.0878 Y31.6518
G01 X28.0761 Y31.6061
G01 X28.0604 Y31.5616
G01 X28.0537 Y31.5457
G01 X28.6065 Y32.0985
G01 X28.6243 Y32.1148
G01 X28.6434 Y32.1295
G01 X28.6566 Y32.1383
G01 X28.6740 Y32.1485
G01 X28.6994 Y32.1605
G01 X28.7259 Y32.1700
G01 X28.7454 Y32.1751
G01 X28.7570 Y32.1776
G01 X28.7809 Y32.1810
G01 X28.8090 Y32.1823
G01 X33.8030 Y32.1823
G01 X33.8271 Y32.1810
G01 X33.8549 Y32.1768
G01 X33.8821 Y32.1700
G01 X33.9086 Y32.1605
G01 X33.9340 Y32.1485
G01 X33.9581 Y32.1341
G01 X33.9807 Y32.1173
G01 X33.9986 Y32.1012
G01 X34.5295 Y31.5705
G01 X34.5458 Y31.5527
G01 X34.5532 Y31.5434
G01 X34.5672 Y31.5238
G01 X34.5795 Y31.5030
G01 X34.5900 Y31.4812
G01 X34.5985 Y31.4586
G01 X34.6021 Y31.4473
G01 X34.6078 Y31.4239
G01 X34.6110 Y31.4040
G01 X34.6217 Y31.4031
G01 X34.6296 Y31.4019
G01 X34.6450 Y31.3984
G01 X34.6600 Y31.3935
G01 X34.6745 Y31.3871
G01 X34.6883 Y31.3793
G01 X34.6981 Y31.3725
G01 X34.7043 Y31.3677
G01 X34.7160 Y31.3570
G01 X34.7270 Y31.3449
G01 X34.7352 Y31.3542
G01 X34.7437 Y31.3625
G01 X34.7559 Y31.3725
G01 X34.7657 Y31.3793
G01 X34.7795 Y31.3871
G01 X34.7903 Y31.3920
G01 X34.8014 Y31.3961
G01 X34.8151 Y31.4000
G01 X33.5894 Y32.6257
G01 X27.4036 Y32.6257
G01 X24.8712 Y30.0932
G01 X24.8784 Y30.0796
G01 X24.9173 Y29.9970
G01 X24.9483 Y29.9111
G01 X24.9528 Y29.8959
G01 X24.9731 Y29.8150
G01 X24.9762 Y29.7995
G01 X24.9894 Y29.7091
G01 X24.9943 Y29.6100
G01 X24.9894 Y29.5109
G01 X24.9748 Y29.4123
G01 X24.9507 Y29.3164
G01 X24.9173 Y29.2230
G01 X24.8749 Y29.1333
G01 X24.8281 Y29.0549
G01 X24.8193 Y29.0417
G01 X24.7696 Y28.9747
G01 X24.7596 Y28.9625
G01 X24.6981 Y28.8949
G01 X24.6245 Y28.8283
G01 X24.5448 Y28.7692
G01 X24.4666 Y28.7220
G01 X24.4526 Y28.7146
G01 X24.3772 Y28.6789
G01 X24.3626 Y28.6729
G01 X24.2766 Y28.6423
G01 X24.1880 Y28.6199
G01 X24.1725 Y28.6168
G01 X24.0821 Y28.6036
G01 X23.9830 Y28.5987
G01 X23.8839 Y28.6036
G01 X23.7853 Y28.6182
G01 X23.6894 Y28.6423
G01 X23.5960 Y28.6757
G01 X23.5063 Y28.7181
G01 X23.4279 Y28.7649
G01 X23.4147 Y28.7737
G01 X23.3477 Y28.8234
G01 X23.3355 Y28.8334
G01 X23.2679 Y28.8949
G01 X23.2064 Y28.9625
G01 X23.1964 Y28.9747
G01 X23.1422 Y29.0482
G01 X23.0943 Y29.1276
G01 X23.0943 Y27.5524
G01 X23.1422 Y27.6318
G01 X23.2013 Y27.7115
G01 X23.2679 Y27.7851
G01 X23.3415 Y27.8517
G01 X23.4212 Y27.9108
G01 X23.5063 Y27.9619
G01 X23.5960 Y28.0043
G01 X23.6819 Y28.0353
G00 Z2.0000
G00 X23.7104 Y27.9557
G01 F60.00
G01 Z-0.1000
G01 F120.00
G01 X23.6283 Y27.9263
G01 X23.5461 Y27.8874
G01 X23.4681 Y27.8406
G01 X23.3950 Y27.7864
G01 X23.3277 Y27.7253
G01 X23.2666 Y27.6580
G01 X23.2124 Y27.5849
G01 X23.1656 Y27.5069
G01 X23.1267 Y27.4247
G01 X23.0961 Y27.3390
G01 X23.0740 Y27.2508
G01 X23.0607 Y27.1608
G01 X23.0562 Y27.0700
G01 X23.0607 Y26.9792
G01 X23.0740 Y26.8892
G01 X23.0961 Y26.8010
G01 X23.1267 Y26.7153
G01 X23.1656 Y26.6331
G01 X23.2124 Y26.5551
G01 X23.2666 Y26.4820
G01 X23.3277 Y26.4147
G01 X23.3950 Y26.3536
G01 X23.4681 Y26.2994
G01 X23.5461 Y26.2526
G01 X23.6283 Y26.2137
G01 X23.7140 Y26.1831
G01 X23.8020 Y26.1610
G01 X23.8922 Y26.1477
G01 X23.9830 Y26.1432
G01 X24.0738 Y26.1477
G01 X24.1638 Y26.1610
G01 X24.2520 Y26.1831
G01 X24.3377 Y26.2137
G01 X24.4165 Y26.2509
G01 X24.4232 Y26.2545
G01 X24.4979 Y26.2994
G01 X24.5680 Y26.3513
G01 X24.5738 Y26.3560
G01 X24.6356 Y26.4121
G01 X24.6409 Y26.4174
G01 X24.6994 Y26.4820
G01 X24.7536 Y26.5551
G01 X24.8004 Y26.6331
G01 X24.8377 Y26.7119
G01 X24.8406 Y26.7188
G01 X24.8687 Y26.7974
G01 X24.8709 Y26.8046
G01 X24.8920 Y26.8892
G01 X24.9049 Y26.9754
G01 X24.9056 Y26.9829
G01 X24.9098 Y27.0700
G01 X24.9053 Y27.1608
G01 X24.8920 Y27.2508
G01 X24.8709 Y27.3354
G01 X24.8688 Y27.3423
G01 X24.8406 Y27.4212
G01 X24.8377 Y27.4281
G01 X24.8004 Y27.5069
G01 X24.7648 Y27.5664
G01 X28.8926 Y31.6941
G01 X33.7154 Y31.6941
G01 X34.0897 Y31.3198
G01 X34.0501 Y31.3198
G01 X34.0389 Y31.3187
G01 X34.0315 Y31.3170
G01 X34.0226 Y31.3140
G01 X34.0158 Y31.3107
G01 X34.0093 Y31.3069
G01 X34.0018 Y31.3012
G01 X33.9951 Y31.2946
G01 X33.9892 Y31.2872
G01 X33.9843 Y31.2792
G01 X33.9803 Y31.2706
G01 X33.9775 Y31.2617
G01 X33.9760 Y31.2543
G01 X33.9752 Y31.2449
G01 X33.9753 Y29.6392
G01 X33.9760 Y29.6317
G01 X33.9775 Y29.6243
G01 X33.9797 Y29.6171
G01 X33.9818 Y29.6119
G01 X33.9852 Y29.6051
G01 X33.9892 Y29.5988
G01 X33.9926 Y29.5943
G01 X33.9977 Y29.5887
G01 X34.0033 Y29.5836
G01 X34.0078 Y29.5802
G01 X34.0141 Y29.5762
G01 X34.0209 Y29.5728
G01 X34.0261 Y29.5707
G01 X34.0333 Y29.5685
G01 X34.0389 Y29.5673
G01 X34.0464 Y29.5664
G01 X34.6076 Y29.5664
G01 X34.6170 Y29.5677
G01 X34.6279 Y29.5707
G01 X34.6382 Y29.5753
G01 X34.6477 Y29.5813
G01 X34.6563 Y29.5887
G01 X34.6637 Y29.5973
G01 X34.6697 Y29.6068
G01 X34.6743 Y29.6171
G01 X34.6765 Y29.6243
G01 X34.6777 Y29.6299
G01 X34.6784 Y29.6355
G01 X34.6788 Y29.6430
G01 X34.6788 Y31.2430
G01 X34.6780 Y31.2543
G01 X34.6755 Y31.2653
G01 X34.6730 Y31.2724
G01 X34.6688 Y31.2809
G01 X34.6637 Y31.2887
G01 X34.6576 Y31.2960
G01 X34.6507 Y31.3024
G01 X34.6447 Y31.3069
G01 X34.6365 Y31.3116
G01 X34.6296 Y31.3147
G01 X34.6188 Y31.3179
G01 X34.6133 Y31.3190
G01 X34.6058 Y31.3197
G01 X34.5289 Y31.3198
G01 X34.5289 Y31.3680
G01 X34.5281 Y31.3859
G01 X34.5250 Y31.4074
G01 X34.5202 Y31.4266
G01 X34.5135 Y31.4452
G01 X34.5067 Y31.4598
G01 X34.5032 Y31.4664
G01 X34.4948 Y31.4801
G01 X34.4854 Y31.4931
G01 X34.4723 Y31.5080
G01 X33.9417 Y32.0387
G01 X33.9299 Y32.0496
G01 X33.9241 Y32.0544
G01 X33.9096 Y32.0649
G01 X33.8942 Y32.0740
G01 X33.8780 Y32.0818
G01 X33.8558 Y32.0897
G01 X33.8384 Y32.0940
G01 X33.8225 Y32.0964
G01 X33.8150 Y32.0972
G01 X33.7990 Y32.0979
G01 X28.8090 Y32.0979
G01 X28.7892 Y32.0969
G01 X28.7733 Y32.0946
G01 X28.7659 Y32.0932
G01 X28.7504 Y32.0892
G01 X28.7318 Y32.0825
G01 X28.7172 Y32.0757
G01 X28.7106 Y32.0722
G01 X28.6969 Y32.0638
G01 X28.6839 Y32.0544
G01 X28.6781 Y32.0496
G01 X28.6663 Y32.0387
G01 X24.4794 Y27.8518
G01 X24.4199 Y27.8874
G01 X24.3411 Y27.9247
G01 X24.3342 Y27.9276
G01 X24.2556 Y27.9557
G01 X24.2484 Y27.9579
G01 X24.1638 Y27.9790
G01 X24.0757 Y27.9921
G01 X23.9830 Y27.9968
G01 X23.8922 Y27.9923
G01 X23.8022 Y27.9790
G01 X23.7176 Y27.9579
G01 X23.7104 Y27.9557
G00 Z2.0000
G00 X22.6062 Y25.7012
G01 F60.00
G01 Z-0.1000
G01 F120.00
G01 X22.6071 Y25.6852
G01 X22.6100 Y25.6656
G01 X22.6148 Y25.6464
G01 X22.6208 Y25.6295
G01 X22.6291 Y25.6115
G01 X22.6381 Y25.5960
G01 X22.6423 Y25.5898
G01 X22.6532 Y25.5755
G01 X22.6653 Y25.5623
G01 X23.2012 Y25.0264
G01 X23.1656 Y24.9669
G01 X23.1267 Y24.8847
G01 X23.0961 Y24.7990
G01 X23.0740 Y24.7108
G01 X23.0607 Y24.6208
G01 X23.0562 Y24.5300
G01 X23.0607 Y24.4392
G01 X23.0734 Y24.3529
G01 X23.0748 Y24.3455
G01 X23.0961 Y24.2610
G01 X23.1254 Y24.1788
G01 X23.1283 Y24.1719
G01 X23.1639 Y24.0965
G01 X23.1675 Y24.0898
G01 X23.2124 Y24.0151
G01 X23.2666 Y23.9420
G01 X23.3277 Y23.8747
G01 X23.3950 Y23.8136
G01 X23.4681 Y23.7594
G01 X23.5461 Y23.7126
G01 X23.6283 Y23.6737
G01 X23.7140 Y23.6431
G01 X23.8020 Y23.6210
G01 X23.8922 Y23.6077
G01 X23.9830 Y23.6032
G01 X24.0738 Y23.6077
G01 X24.1638 Y23.6210
G01 X24.2520 Y23.6431
G01 X24.3377 Y23.6737
G01 X24.4199 Y23.7126
G01 X24.4979 Y23.7594
G01 X24.5710 Y23.8136
G01 X24.6383 Y23.8747
G01 X24.6994 Y23.9420
G01 X24.7536 Y24.0151
G01 X24.8004 Y24.0931
G01 X24.8393 Y24.1753
G01 X24.8687 Y24.2574
G01 X24.8709 Y24.2646
G01 X24.8920 Y24.3490
G01 X24.9049 Y24.4354
G01 X24.9056 Y24.4429
G01 X24.9097 Y24.5262
G01 X24.9097 Y24.5338
G01 X24.9053 Y24.6208
G01 X24.8920 Y24.7108
G01 X24.8699 Y24.7989
G01 X24.8393 Y24.8847
G01 X24.8004 Y24.9669
G01 X24.7536 Y25.0449
G01 X24.6994 Y25.1180
G01 X24.6409 Y25.1826
G01 X24.6356 Y25.1879
G01 X24.5738 Y25.2440
G01 X24.5680 Y25.2487
G01 X24.4979 Y25.3006
G01 X24.4232 Y25.3455
G01 X24.4165 Y25.3491
G01 X24.3377 Y25.3863
G01 X24.2520 Y25.4169
G01 X24.1638 Y25.4390
G01 X24.0757 Y25.4521
G01 X23.9830 Y25.4568
G01 X23.8959 Y25.4526
G01 X23.8884 Y25.4519
G01 X23.8059 Y25.4396
G01 X23.7985 Y25.4382
G01 X23.7141 Y25.4169
G01 X23.6283 Y25.3863
G01 X23.5461 Y25.3474
G01 X23.4866 Y25.3118
G01 X23.0099 Y25.7886
G01 X23.0099 Y30.0131
G01 X23.5799 Y30.5831
G01 X24.4716 Y30.5832
G01 X24.4895 Y30.5841
G01 X24.5054 Y30.5864
G01 X24.5128 Y30.5878
G01 X24.5283 Y30.5918
G01 X24.5470 Y30.5985
G01 X24.5615 Y30.6053
G01 X24.5681 Y30.6088
G01 X24.5818 Y30.6172
G01 X24.5978 Y30.6290
G01 X24.6124 Y30.6423
G01 X26.0677 Y32.0976
G01 X26.0798 Y32.1108
G01 X26.0918 Y32.1266
G01 X26.1012 Y32.1419
G01 X26.1047 Y32.1485
G01 X26.1129 Y32.1666
G01 X26.1182 Y32.1817
G01 X26.1230 Y32.2009
G01 X26.1259 Y32.2205
G01 X26.1268 Y32.2384
G01 X26.1269 Y34.0177
G01 X27.8673 Y35.7581
G01 X28.2307 Y35.7581
G01 X28.2440 Y35.7055
G01 X28.2722 Y35.6262
G01 X28.3106 Y35.5450
G01 X28.3540 Y35.4729
G01 X28.4029 Y35.4067
G01 X28.4077 Y35.4009
G01 X28.4644 Y35.3387
G01 X28.5268 Y35.2822
G01 X28.5928 Y35.2331
G01 X28.5991 Y35.2290
G01 X28.6697 Y35.1867
G01 X28.7440 Y35.1515
G01 X28.7510 Y35.1486
G01 X28.8285 Y35.1210
G01 X28.9101 Y35.1004
G01 X28.9971 Y35.0874
G01 X29.0792 Y35.0833
G01 X29.0868 Y35.0833
G01 X29.1689 Y35.0874
G01 X29.2503 Y35.0994
G01 X29.2577 Y35.1009
G01 X29.3375 Y35.1210
G01 X29.4150 Y35.1486
G01 X29.4220 Y35.1515
G01 X29.4963 Y35.1867
G01 X29.5669 Y35.2290
G01 X29.5732 Y35.2331
G01 X29.6392 Y35.2822
G01 X29.7030 Y35.3400
G01 X29.7608 Y35.4038
G01 X29.8120 Y35.4729
G01 X29.8563 Y35.5467
G01 X29.8915 Y35.6210
G01 X29.8944 Y35.6280
G01 X29.9209 Y35.7019
G01 X29.9231 Y35.7091
G01 X29.9430 Y35.7889
G01 X29.9551 Y35.8703
G01 X29.9559 Y35.8778
G01 X29.9598 Y35.9600
G01 X29.9556 Y36.0459
G01 X29.9430 Y36.1311
G01 X29.9231 Y36.2109
G01 X29.9209 Y36.2181
G01 X29.8944 Y36.2920
G01 X29.8915 Y36.2990
G01 X29.8563 Y36.3733
G01 X29.8140 Y36.4439
G01 X29.8099 Y36.4502
G01 X29.7608 Y36.5162
G01 X29.7030 Y36.5800
G01 X29.6392 Y36.6378
G01 X29.5685 Y36.6901
G01 X29.4963 Y36.7333
G01 X29.4220 Y36.7685
G01 X29.4150 Y36.7714
G01 X29.3411 Y36.7979
G01 X29.3339 Y36.8001
G01 X29.2541 Y36.8200
G01 X29.1727 Y36.8321
G01 X29.1652 Y36.8329
G01 X29.0830 Y36.8368
G01 X28.9971 Y36.8326
G01 X28.9119 Y36.8200
G01 X28.8285 Y36.7990
G01 X28.7510 Y36.7714
G01 X28.7440 Y36.7685
G01 X28.6697 Y36.7333
G01 X28.5991 Y36.6910
G01 X28.5928 Y36.6869
G01 X28.5268 Y36.6378
G01 X28.4617 Y36.5786
G01 X28.4052 Y36.5162
G01 X28.3561 Y36.4502
G01 X28.3520 Y36.4439
G01 X28.3106 Y36.3750
G01 X28.2722 Y36.2938
G01 X28.2445 Y36.2162
G01 X28.2307 Y36.1619
G01 X27.7837 Y36.1619
G01 X27.7639 Y36.1609
G01 X27.7443 Y36.1580
G01 X27.7287 Y36.1542
G01 X27.7215 Y36.1520
G01 X27.7030 Y36.1450
G01 X27.6885 Y36.1380
G01 X27.6715 Y36.1278
G01 X27.6556 Y36.1160
G01 X27.6423 Y36.1041
G01 X25.7823 Y34.2440
G01 X25.7690 Y34.2294
G01 X25.7593 Y34.2165
G01 X25.7551 Y34.2103
G01 X25.7461 Y34.1948
G01 X25.7378 Y34.1768
G01 X25.7324 Y34.1617
G01 X25.7308 Y34.1563
G01 X25.7270 Y34.1407
G01 X25.7246 Y34.1248
G01 X25.7239 Y34.1192
G01 X25.7232 Y34.1032
G01 X25.7231 Y32.3239
G01 X24.3861 Y30.9869
G01 X23.4944 Y30.9868
G01 X23.4765 Y30.9859
G01 X23.4569 Y30.9830
G01 X23.4377 Y30.9782
G01 X23.4173 Y30.9708
G01 X23.4011 Y30.9630
G01 X23.3842 Y30.9528
G01 X23.3682 Y30.9410
G01 X23.3536 Y30.9277
G01 X22.6653 Y30.2394
G01 X22.6520 Y30.2248
G01 X22.6391 Y30.2073
G01 X22.6300 Y30.1919
G01 X22.6230 Y30.1774
G01 X22.6201 Y30.1704
G01 X22.6148 Y30.1553
G01 X22.6108 Y30.1398
G01 X22.6094 Y30.1324
G01 X22.6071 Y30.1165
G01 X22.6061 Y30.0967
G01 X22.6062 Y25.7012
G00 Z2.0000
G00 X22.9898 Y22.1795
G01 F60.00
G01 Z-0.1000
G01 F120.00
G01 X22.9766 Y22.0891
G01 X22.9717 Y21.9900
G01 X22.9766 Y21.8909
G01 X22.9912 Y21.7923
G01 X23.0153 Y21.6964
G01 X23.0487 Y21.6030
G01 X23.0911 Y21.5133
G01 X23.1422 Y21.4282
G01 X23.2013 Y21.3485
G01 X23.2679 Y21.2749
G01 X23.3415 Y21.2083
G01 X23.4212 Y21.1492
G01 X23.5063 Y21.0981
G01 X23.5960 Y21.0557
G01 X23.6894 Y21.0223
G01 X23.7853 Y20.9982
G01 X23.8839 Y20.9836
G01 X23.9830 Y20.9787
G01 X24.0821 Y20.9836
G01 X24.1803 Y20.9982
G01 X24.2766 Y21.0223
G01 X24.3700 Y21.0557
G01 X24.4597 Y21.0981
G01 X24.5448 Y21.1492
G01 X24.6245 Y21.2083
G01 X24.6981 Y21.2749
G01 X24.7647 Y21.3485
G01 X24.8238 Y21.4282
G01 X24.8749 Y21.5133
G01 X24.9173 Y21.6030
G01 X24.9507 Y21.6964
G01 X24.9748 Y21.7923
G01 X24.9894 Y21.8909
G01 X24.9943 Y21.9900
G01 X24.9894 Y22.0891
G01 X24.9748 Y22.1873
G01 X24.9508 Y22.2832
G01 X24.9173 Y22.3770
G01 X24.8749 Y22.4667
G01 X24.8238 Y22.5518
G01 X24.7647 Y22.6315
G01 X24.6981 Y22.7051
G01 X24.6245 Y22.7717
G01 X24.5448 Y22.8308
G01 X24.4597 Y22.8819
G01 X24.3700 Y22.9243
G01 X24.2766 Y22.9577
G01 X24.1803 Y22.9818
G01 X24.0821 Y22.9964
G01 X23.9830 Y23.0013
G01 X23.8839 Y22.9964
G01 X23.7857 Y22.9818
G01 X23.6898 Y22.9578
G01 X23.5960 Y22.9243
G01 X23.5063 Y22.8819
G01 X23.4212 Y22.8308
G01 X23.3415 Y22.7717
G01 X23.2679 Y22.7051
G01 X23.2013 Y22.6315
G01 X23.1422 Y22.5518
G01 X23.0911 Y22.4667
G01 X23.0487 Y22.3770
G01 X23.0153 Y22.2836
G01 X22.9929 Y22.1950
G01 X22.9898 Y22.1795
G00 Z2.0000
G00 X23.0734 Y22.1671
G01 F60.00
G01 Z-0.1000
G01 F120.00
G01 X23.0607 Y22.0808
G01 X23.0562 Y21.9900
G01 X23.0607 Y21.8992
G01 X23.0740 Y21.8090
G01 X23.0961 Y21.7210
G01 X23.1267 Y21.6353
G01 X23.1656 Y21.5531
G01 X23.2124 Y21.4751
G01 X23.2666 Y21.4020
G01 X23.3277 Y21.3347
G01 X23.3950 Y21.2736
G01 X23.4681 Y21.2194
G01 X23.5461 Y21.1726
G01 X23.6283 Y21.1337
G01 X23.7140 Y21.1031
G01 X23.8020 Y21.0810
G01 X23.8922 Y21.0677
G01 X23.9830 Y21.0632
G01 X24.0738 Y21.0677
G01 X24.1638 Y21.0810
G01 X24.2520 Y21.1031
G01 X24.3377 Y21.1337
G01 X24.4199 Y21.1726
G01 X24.4979 Y21.2194
G01 X24.5710 Y21.2736
G01 X24.6383 Y21.3347
G01 X24.6994 Y21.4020
G01 X24.7536 Y21.4751
G01 X24.8004 Y21.5531
G01 X24.8393 Y21.6353
G01 X24.8699 Y21.7210
G01 X24.8920 Y21.8090
G01 X24.9053 Y21.8992
G01 X24.9098 Y21.9900
G01 X24.9053 Y22.0808
G01 X24.8920 Y22.1708
G01 X24.8699 Y22.2589
G01 X24.8393 Y22.3447
G01 X24.8004 Y22.4269
G01 X24.7536 Y22.5049
G01 X24.6994 Y22.5780
G01 X24.6383 Y22.6453
G01 X24.5710 Y22.7064
G01 X24.4979 Y22.7606
G01 X24.4199 Y22.8074
G01 X24.3377 Y22.8463
G01 X24.2520 Y22.8769
G01 X24.1638 Y22.8990
G01 X24.0738 Y22.9123
G01 X23.9830 Y22.9168
G01 X23.8922 Y22.9123
G01 X23.8022 Y22.8990
G01 X23.7141 Y22.8769
G01 X23.6283 Y22.8463
G01 X23.5461 Y22.8074
G01 X23.4681 Y22.7606
G01 X23.3950 Y22.7064
G01 X23.3277 Y22.6453
G01 X23.2666 Y22.5780
G01 X23.2124 Y22.5049
G01 X23.1656 Y22.4269
G01 X23.1267 Y22.3447
G01 X23.0961 Y22.2590
G01 X23.0748 Y22.1745
G01 X23.0734 Y22.1671
G00 Z2.0000
G00 X28.5999 Y26.6674
G01 F60.00
G01 Z-0.1000
G01 F120.00
G01 X28.5977 Y26.7103
G01 X28.5908 Y26.7566
G01 X28.5795 Y26.8020
G01 X28.5637 Y26.8461
G01 X28.5437 Y26.8884
G01 X28.5196 Y26.9285
G01 X28.4918 Y26.9661
G01 X28.4603 Y27.0007
G01 X28.4257 Y27.0322
G01 X28.3881 Y27.0600
G01 X28.3480 Y27.0841
G01 X28.3057 Y27.1041
G01 X28.2616 Y27.1199
G01 X28.2162 Y27.1312
G01 X28.1699 Y27.1381
G01 X28.1232 Y27.1404
G01 X28.0765 Y27.1381
G01 X28.0302 Y27.1312
G01 X27.9848 Y27.1199
G01 X27.9407 Y27.1041
G01 X27.8984 Y27.0841
G01 X27.8583 Y27.0600
G01 X27.8207 Y27.0322
G01 X27.7861 Y27.0007
G01 X27.7546 Y26.9661
G01 X27.7268 Y26.9285
G01 X27.7027 Y26.8884
G01 X27.6827 Y26.8461
G01 X27.6669 Y26.8020
G01 X27.6556 Y26.7566
G01 X27.6487 Y26.7103
G01 X27.6464 Y26.6636
G01 X27.6487 Y26.6169
G01 X27.6556 Y26.5706
G01 X27.6669 Y26.5252
G01 X27.6827 Y26.4811
G01 X27.7027 Y26.4388
G01 X27.7268 Y26.3987
G01 X27.7546 Y26.3611
G01 X27.7861 Y26.3265
G01 X27.8207 Y26.2950
G01 X27.8583 Y26.2672
G01 X27.8984 Y26.2431
G01 X27.9407 Y26.2231
G01 X27.9848 Y26.2073
G01 X28.0302 Y26.1960
G01 X28.0765 Y26.1891
G01 X28.1232 Y26.1868
G01 X28.1699 Y26.1891
G01 X28.2162 Y26.1960
G01 X28.2616 Y26.2073
G01 X28.3057 Y26.2231
G01 X28.3480 Y26.2431
G01 X28.3881 Y26.2672
G01 X28.4257 Y26.2950
G01 X28.4603 Y26.3265
G01 X28.4918 Y26.3611
G01 X28.5196 Y26.3987
G01 X28.5437 Y26.4388
G01 X28.5637 Y26.4811
G01 X28.5795 Y26.5252
G01 X28.5908 Y26.5706
G01 X28.5977 Y26.6169
G01 X28.5999 Y26.6598
G01 X28.5999 Y26.6674
G00 Z2.0000
G00 X28.6843 Y26.6715
G01 F60.00
G01 Z-0.1000
G01 F120.00
G01 X28.6818 Y26.7186
G01 X28.6737 Y26.7731
G01 X28.6603 Y26.8265
G01 X28.6418 Y26.8784
G01 X28.6182 Y26.9282
G01 X28.5899 Y26.9754
G01 X28.5571 Y27.0197
G01 X28.5201 Y27.0605
G01 X28.4793 Y27.0975
G01 X28.4350 Y27.1303
G01 X28.3878 Y27.1586
G01 X28.3380 Y27.1822
G01 X28.2861 Y27.2007
G01 X28.2327 Y27.2141
G01 X28.1782 Y27.2222
G01 X28.1232 Y27.2249
G01 X28.0682 Y27.2222
G01 X28.0137 Y27.2141
G01 X27.9603 Y27.2007
G01 X27.9084 Y27.1822
G01 X27.8586 Y27.1586
G01 X27.8114 Y27.1303
G01 X27.7671 Y27.0975
G01 X27.7263 Y27.0605
G01 X27.6893 Y27.0197
G01 X27.6565 Y26.9754
G01 X27.6282 Y26.9282
G01 X27.6046 Y26.8784
G01 X27.5861 Y26.8265
G01 X27.5727 Y26.7731
G01 X27.5646 Y26.7186
G01 X27.5619 Y26.6636
G01 X27.5646 Y26.6086
G01 X27.5727 Y26.5541
G01 X27.5861 Y26.5007
G01 X27.6046 Y26.4488
G01 X27.6282 Y26.3990
G01 X27.6565 Y26.3518
G01 X27.6893 Y26.3075
G01 X27.7263 Y26.2667
G01 X27.7671 Y26.2297
G01 X27.8114 Y26.1969
G01 X27.8586 Y26.1686
G01 X27.9084 Y26.1450
G01 X27.9603 Y26.1265
G01 X28.0137 Y26.1131
G01 X28.0682 Y26.1050
G01 X28.1232 Y26.1023
G01 X28.1782 Y26.1050
G01 X28.2327 Y26.1131
G01 X28.2861 Y26.1265
G01 X28.3380 Y26.1450
G01 X28.3878 Y26.1686
G01 X28.4350 Y26.1969
G01 X28.4793 Y26.2297
G01 X28.5201 Y26.2667
G01 X28.5571 Y26.3075
G01 X28.5899 Y26.3518
G01 X28.6182 Y26.3990
G01 X28.6418 Y26.4488
G01 X28.6603 Y26.5007
G01 X28.6737 Y26.5541
G01 X28.6818 Y26.6086
G01 X28.6843 Y26.6557
G01 X28.6843 Y26.6715
G00 Z2.0000
G00 X32.9789 Y26.1930
G01 F60.00
G01 Z-0.1000
G01 F120.00
G01 X32.9882 Y26.1848
G01 X32.9965 Y26.1763
G01 X33.0041 Y26.1672
G01 X33.0111 Y26.1576
G01 X33.0192 Y26.1440
G01 X33.0244 Y26.1334
G01 X33.0289 Y26.1223
G01 X33.0326 Y26.1105
G01 X33.2162 Y26.2942
G01 X33.2162 Y26.8298
G01 X33.0137 Y27.0324
G01 X33.0065 Y27.0219
G01 X32.9991 Y27.0127
G01 X32.9882 Y27.0012
G01 X32.9789 Y26.9930
G01 X32.9910 Y26.9820
G01 X33.0017 Y26.9703
G01 X33.0111 Y26.9576
G01 X33.0192 Y26.9440
G01 X33.0260 Y26.9297
G01 X33.0313 Y26.9148
G01 X33.0352 Y26.8995
G01 X33.0375 Y26.8838
G01 X33.0383 Y26.8680
G01 X33.0381 Y26.3101
G01 X33.0365 Y26.2943
G01 X33.0334 Y26.2788
G01 X33.0289 Y26.2637
G01 X33.0260 Y26.2563
G01 X33.0211 Y26.2455
G01 X33.0173 Y26.2385
G01 X33.0111 Y26.2284
G01 X33.0017 Y26.2157
G01 X32.9910 Y26.2040
G01 X32.9789 Y26.1930
G00 Z2.0000
G00 X32.9538 Y25.5180
G01 F60.00
G01 Z-0.1000
G01 F120.00
G01 X32.9538 Y25.5911
G01 X33.1200 Y25.5911
G01 X33.1379 Y25.5919
G01 X33.1493 Y25.5934
G01 X33.1797 Y25.5707
G01 X33.1977 Y25.5467
G01 X33.2027 Y25.5406
G01 X33.2390 Y25.5065
G01 X33.2448 Y25.5016
G01 X33.2542 Y25.4955
G01 X33.2626 Y25.4915
G01 X33.2697 Y25.4890
G01 X33.3002 Y25.4801
G01 X33.3001 Y25.4730
G01 X33.2938 Y25.4148
G01 X33.2936 Y25.3821
G01 X33.2940 Y25.3739
G01 X33.3007 Y25.3118
G01 X33.3007 Y24.6742
G01 X33.2941 Y24.6124
G01 X33.2938 Y24.5798
G01 X33.2943 Y24.5715
G01 X33.3007 Y24.5118
G01 X33.3007 Y23.8742
G01 X33.2941 Y23.8124
G01 X33.2938 Y23.7798
G01 X33.2943 Y23.7715
G01 X33.3007 Y23.7118
G01 X33.3008 Y23.3638
G01 X33.3021 Y23.3530
G01 X33.3146 Y23.2959
G01 X33.3184 Y23.2851
G01 X33.3238 Y23.2749
G01 X33.3307 Y23.2657
G01 X33.3803 Y23.2087
G01 X33.3860 Y23.2036
G01 X33.3937 Y23.1981
G01 X33.4004 Y23.1943
G01 X33.4074 Y23.1913
G01 X33.4816 Y23.1693
G01 X33.4888 Y23.1678
G01 X33.4960 Y23.1669
G01 X33.8458 Y23.1667
G01 X33.9055 Y23.1603
G01 X33.9137 Y23.1598
G01 X33.9464 Y23.1601
G01 X34.0083 Y23.1667
G01 X34.6458 Y23.1667
G01 X34.7055 Y23.1603
G01 X34.7137 Y23.1598
G01 X34.7464 Y23.1601
G01 X34.8083 Y23.1667
G01 X35.4458 Y23.1667
G01 X35.5055 Y23.1603
G01 X35.5137 Y23.1598
G01 X35.5464 Y23.1601
G01 X35.6083 Y23.1667
G01 X36.2458 Y23.1667
G01 X36.3055 Y23.1603
G01 X36.3137 Y23.1598
G01 X36.3464 Y23.1601
G01 X36.4083 Y23.1667
G01 X37.0458 Y23.1667
G01 X37.1055 Y23.1603
G01 X37.1137 Y23.1598
G01 X37.1464 Y23.1601
G01 X37.2083 Y23.1667
G01 X37.8458 Y23.1667
G01 X37.9055 Y23.1603
G01 X37.9137 Y23.1598
G01 X37.9464 Y23.1601
G01 X38.0083 Y23.1667
G01 X38.6458 Y23.1667
G01 X38.7076 Y23.1601
G01 X38.7403 Y23.1598
G01 X38.7485 Y23.1603
G01 X38.8083 Y23.1667
G01 X39.1525 Y23.1667
G01 X39.1580 Y23.1669
G01 X39.1652 Y23.1678
G01 X39.2222 Y23.1801
G01 X39.2314 Y23.1829
G01 X39.2401 Y23.1869
G01 X39.2467 Y23.1908
G01 X39.2528 Y23.1954
G01 X39.3071 Y23.2424
G01 X39.3126 Y23.2477
G01 X39.3176 Y23.2535
G01 X39.3219 Y23.2597
G01 X39.3265 Y23.2681
G01 X39.3293 Y23.2752
G01 X39.3507 Y23.3476
G01 X39.3522 Y23.3548
G01 X39.3531 Y23.3620
G01 X39.3533 Y23.7118
G01 X39.3597 Y23.7715
G01 X39.3602 Y23.7797
G01 X39.3599 Y23.8124
G01 X39.3533 Y23.8743
G01 X39.3533 Y24.5118
G01 X39.3597 Y24.5715
G01 X39.3602 Y24.5797
G01 X39.3599 Y24.6124
G01 X39.3533 Y24.6743
G01 X39.3533 Y25.3118
G01 X39.3597 Y25.3715
G01 X39.3602 Y25.3797
G01 X39.3599 Y25.4124
G01 X39.3533 Y25.4743
G01 X39.3533 Y26.1118
G01 X39.3600 Y26.1739
G01 X39.3604 Y26.1821
G01 X39.3602 Y26.2148
G01 X39.3538 Y26.2755
G01 X39.3599 Y26.2769
G01 X39.3670 Y26.2793
G01 X39.3738 Y26.2824
G01 X39.3803 Y26.2861
G01 X39.4423 Y26.3323
G01 X39.4479 Y26.3371
G01 X39.4541 Y26.3438
G01 X39.4743 Y26.3707
G01 X39.5016 Y26.3911
G01 X39.7002 Y26.3911
G01 X39.7004 Y26.3124
G01 X39.7013 Y26.3049
G01 X39.7030 Y26.2975
G01 X39.7047 Y26.2921
G01 X39.7076 Y26.2852
G01 X39.7121 Y26.2769
G01 X39.7176 Y26.2693
G01 X39.7240 Y26.2624
G01 X39.7328 Y26.2552
G01 X39.7425 Y26.2494
G01 X39.7511 Y26.2457
G01 X39.7602 Y26.2431
G01 X39.7695 Y26.2416
G01 X39.7770 Y26.2412
G01 X41.3770 Y26.2412
G01 X41.3883 Y26.2420
G01 X41.3975 Y26.2440
G01 X41.4081 Y26.2478
G01 X41.4181 Y26.2531
G01 X41.4272 Y26.2598
G01 X41.4352 Y26.2678
G01 X41.4419 Y26.2769
G01 X41.4472 Y26.2869
G01 X41.4510 Y26.2975
G01 X41.4527 Y26.3049
G01 X41.4534 Y26.3105
G01 X41.4538 Y26.3180
G01 X41.4538 Y26.8680
G01 X41.4530 Y26.8793
G01 X41.4519 Y26.8848
G01 X41.4499 Y26.8921
G01 X41.4472 Y26.8991
G01 X41.4447 Y26.9042
G01 X41.4409 Y26.9107
G01 X41.4375 Y26.9152
G01 X41.4339 Y26.9196
G01 X41.4286 Y26.9249
G01 X41.4227 Y26.9297
G01 X41.4181 Y26.9329
G01 X41.4115 Y26.9366
G01 X41.4064 Y26.9390
G01 X41.3993 Y26.9415
G01 X41.3938 Y26.9429
G01 X41.3883 Y26.9440
G01 X41.3808 Y26.9447
G01 X39.7732 Y26.9447
G01 X39.7620 Y26.9433
G01 X39.7529 Y26.9409
G01 X39.7442 Y26.9374
G01 X39.7343 Y26.9319
G01 X39.7268 Y26.9262
G01 X39.7188 Y26.9182
G01 X39.7131 Y26.9107
G01 X39.7076 Y26.9008
G01 X39.7047 Y26.8939
G01 X39.7030 Y26.8885
G01 X39.7013 Y26.8811
G01 X39.7004 Y26.8736
G01 X39.7002 Y26.7949
G01 X39.5016 Y26.7949
G01 X39.4743 Y26.8153
G01 X39.4563 Y26.8393
G01 X39.4513 Y26.8454
G01 X39.4150 Y26.8795
G01 X39.4092 Y26.8844
G01 X39.4014 Y26.8896
G01 X39.3914 Y26.8945
G01 X39.3843 Y26.8970
G01 X39.3538 Y26.9059
G01 X39.3539 Y26.9130
G01 X39.3602 Y26.9712
G01 X39.3604 Y27.0039
G01 X39.3600 Y27.0121
G01 X39.3533 Y27.0743
G01 X39.3533 Y27.7118
G01 X39.3597 Y27.7715
G01 X39.3602 Y27.7797
G01 X39.3599 Y27.8124
G01 X39.3533 Y27.8743
G01 X39.3533 Y28.5118
G01 X39.3599 Y28.5736
G01 X39.3602 Y28.6063
G01 X39.3597 Y28.6145
G01 X39.3533 Y28.6743
G01 X39.3532 Y29.0222
G01 X39.3519 Y29.0330
G01 X39.3394 Y29.0901
G01 X39.3356 Y29.1009
G01 X39.3302 Y29.1111
G01 X39.3233 Y29.1203
G01 X39.2776 Y29.1731
G01 X39.2723 Y29.1786
G01 X39.2650 Y29.1847
G01 X39.2570 Y29.1899
G01 X39.2501 Y29.1933
G01 X39.2412 Y29.1965
G01 X39.1724 Y29.2167
G01 X39.1652 Y29.2182
G01 X39.1562 Y29.2192
G01 X38.8082 Y29.2193
G01 X38.7485 Y29.2257
G01 X38.7403 Y29.2262
G01 X38.7076 Y29.2259
G01 X38.6458 Y29.2193
G01 X38.0082 Y29.2193
G01 X37.9464 Y29.2259
G01 X37.9138 Y29.2262
G01 X37.9055 Y29.2257
G01 X37.8458 Y29.2193
G01 X37.2082 Y29.2193
G01 X37.1464 Y29.2259
G01 X37.1138 Y29.2262
G01 X37.1055 Y29.2257
G01 X37.0458 Y29.2193
G01 X36.4082 Y29.2193
G01 X36.3464 Y29.2259
G01 X36.3138 Y29.2262
G01 X36.3055 Y29.2257
G01 X36.2458 Y29.2193
G01 X35.6082 Y29.2193
G01 X35.5464 Y29.2259
G01 X35.5138 Y29.2262
G01 X35.5055 Y29.2257
G01 X35.4458 Y29.2193
G01 X34.8082 Y29.2193
G01 X34.7464 Y29.2259
G01 X34.7138 Y29.2262
G01 X34.7055 Y29.2257
G01 X34.6458 Y29.2193
G01 X34.0082 Y29.2193
G01 X33.9464 Y29.2259
G01 X33.9138 Y29.2262
G01 X33.9055 Y29.2257
G01 X33.8458 Y29.2193
G01 X33.5015 Y29.2193
G01 X33.4942 Y29.2190
G01 X33.4888 Y29.2182
G01 X33.4318 Y29.2059
G01 X33.4226 Y29.2031
G01 X33.4139 Y29.1991
G01 X33.4073 Y29.1952
G01 X33.4012 Y29.1906
G01 X33.3427 Y29.1397
G01 X33.3376 Y29.1340
G01 X33.3331 Y29.1279
G01 X33.3292 Y29.1213
G01 X33.3253 Y29.1126
G01 X33.3025 Y29.0348
G01 X33.3012 Y29.0276
G01 X33.3007 Y29.0185
G01 X33.3007 Y28.6742
G01 X33.2943 Y28.6145
G01 X33.2938 Y28.6063
G01 X33.2941 Y28.5736
G01 X33.3007 Y28.5118
G01 X33.3007 Y27.8742
G01 X33.2940 Y27.8121
G01 X33.2936 Y27.8039
G01 X33.2938 Y27.7712
G01 X33.3002 Y27.7105
G01 X33.2941 Y27.7091
G01 X33.2870 Y27.7067
G01 X33.2802 Y27.7036
G01 X33.2737 Y27.6999
G01 X33.2117 Y27.6537
G01 X33.2048 Y27.6476
G01 X33.1999 Y27.6422
G01 X33.1797 Y27.6153
G01 X33.1330 Y27.5804
G01 X33.1166 Y27.5862
G01 X33.1011 Y27.5902
G01 X33.0937 Y27.5916
G01 X33.0759 Y27.5941
G01 X33.0580 Y27.5949
G01 X32.9538 Y27.5949
G01 X32.9536 Y27.6736
G01 X32.9530 Y27.6793
G01 X32.9515 Y27.6867
G01 X32.9493 Y27.6939
G01 X32.9464 Y27.7008
G01 X32.9409 Y27.7107
G01 X32.9352 Y27.7182
G01 X32.9286 Y27.7249
G01 X32.9197 Y27.7319
G01 X32.9115 Y27.7366
G01 X32.9011 Y27.7409
G01 X32.8901 Y27.7437
G01 X32.8808 Y27.7447
G01 X31.2732 Y27.7447
G01 X31.2657 Y27.7440
G01 X31.2602 Y27.7429
G01 X31.2547 Y27.7415
G01 X31.2476 Y27.7390
G01 X31.2425 Y27.7366
G01 X31.2359 Y27.7329
G01 X31.2313 Y27.7297
G01 X31.2254 Y27.7249
G01 X31.2201 Y27.7196
G01 X31.2165 Y27.7152
G01 X31.2131 Y27.7107
G01 X31.2093 Y27.7042
G01 X31.2060 Y27.6974
G01 X31.2041 Y27.6921
G01 X31.2025 Y27.6867
G01 X31.2010 Y27.6793
G01 X31.2002 Y27.6680
G01 X31.2004 Y27.1124
G01 X31.2017 Y27.1030
G01 X31.2047 Y27.0921
G01 X31.2093 Y27.0818
G01 X31.2153 Y27.0723
G01 X31.2227 Y27.0637
G01 X31.2313 Y27.0563
G01 X31.2408 Y27.0503
G01 X31.2494 Y27.0463
G01 X31.2565 Y27.0440
G01 X31.2639 Y27.0423
G01 X31.2714 Y27.0414
G01 X31.2770 Y27.0412
G01 X32.8826 Y27.0414
G01 X32.8920 Y27.0427
G01 X32.9011 Y27.0451
G01 X32.9098 Y27.0486
G01 X32.9181 Y27.0531
G01 X32.9257 Y27.0586
G01 X32.9326 Y27.0650
G01 X32.9387 Y27.0723
G01 X32.9429 Y27.0785
G01 X32.9464 Y27.0852
G01 X32.9499 Y27.0939
G01 X32.9519 Y27.1012
G01 X32.9534 Y27.1105
G01 X32.9538 Y27.1180
G01 X32.9538 Y27.1911
G01 X32.9744 Y27.1911
G01 X33.3007 Y26.8648
G01 X33.3007 Y26.2742
G01 X33.2989 Y26.2574
G01 X33.0364 Y25.9949
G01 X32.9538 Y25.9949
G01 X32.9536 Y26.0736
G01 X32.9530 Y26.0793
G01 X32.9515 Y26.0867
G01 X32.9493 Y26.0939
G01 X32.9464 Y26.1008
G01 X32.9419 Y26.1091
G01 X32.9364 Y26.1167
G01 X32.9286 Y26.1249
G01 X32.9212 Y26.1308
G01 X32.9115 Y26.1366
G01 X32.9029 Y26.1403
G01 X32.8920 Y26.1433
G01 X32.8826 Y26.1446
G01 X31.2770 Y26.1448
G01 X31.2657 Y26.1440
G01 X31.2565 Y26.1420
G01 X31.2459 Y26.1382
G01 X31.2391 Y26.1348
G01 X31.2343 Y26.1319
G01 X31.2254 Y26.1249
G01 X31.2176 Y26.1167
G01 X31.2142 Y26.1122
G01 X31.2102 Y26.1059
G01 X31.2053 Y26.0956
G01 X31.2035 Y26.0903
G01 X31.2017 Y26.0830
G01 X31.2003 Y26.0718
G01 X31.2002 Y25.5161
G01 X31.2013 Y25.5049
G01 X31.2025 Y25.4993
G01 X31.2047 Y25.4921
G01 X31.2068 Y25.4869
G01 X31.2102 Y25.4801
G01 X31.2142 Y25.4738
G01 X31.2176 Y25.4693
G01 X31.2227 Y25.4637
G01 X31.2283 Y25.4586
G01 X31.2343 Y25.4541
G01 X31.2425 Y25.4494
G01 X31.2511 Y25.4457
G01 X31.2583 Y25.4435
G01 X31.2657 Y25.4420
G01 X31.2751 Y25.4412
G01 X32.8789 Y25.4412
G01 X32.8864 Y25.4418
G01 X32.8938 Y25.4431
G01 X32.9011 Y25.4451
G01 X32.9081 Y25.4478
G01 X32.9149 Y25.4512
G01 X32.9212 Y25.4552
G01 X32.9272 Y25.4598
G01 X32.9326 Y25.4650
G01 X32.9375 Y25.4708
G01 X32.9419 Y25.4769
G01 X32.9456 Y25.4835
G01 X32.9487 Y25.4904
G01 X32.9510 Y25.4975
G01 X32.9527 Y25.5049
G01 X32.9536 Y25.5124
G01 X32.9538 Y25.5180
G00 Z2.0000
G00 X32.9538 Y27.9180
G01 F60.00
G01 Z-0.1000
G01 F120.00
G01 X32.9536 Y28.4736
G01 X32.9519 Y28.4848
G01 X32.9487 Y28.4956
G01 X32.9438 Y28.5059
G01 X32.9375 Y28.5152
G01 X32.9300 Y28.5236
G01 X32.9212 Y28.5308
G01 X32.9115 Y28.5366
G01 X32.9011 Y28.5409
G01 X32.8901 Y28.5437
G01 X32.8826 Y28.5446
G01 X32.8770 Y28.5448
G01 X31.2751 Y28.5448
G01 X31.2639 Y28.5437
G01 X31.2583 Y28.5425
G01 X31.2511 Y28.5403
G01 X31.2408 Y28.5357
G01 X31.2313 Y28.5297
G01 X31.2227 Y28.5223
G01 X31.2153 Y28.5137
G01 X31.2111 Y28.5075
G01 X31.2084 Y28.5025
G01 X31.2041 Y28.4921
G01 X31.2013 Y28.4811
G01 X31.2004 Y28.4736
G01 X31.2002 Y28.4680
G01 X31.2004 Y27.9124
G01 X31.2021 Y27.9012
G01 X31.2053 Y27.8904
G01 X31.2102 Y27.8801
G01 X31.2165 Y27.8708
G01 X31.2240 Y27.8624
G01 X31.2328 Y27.8552
G01 X31.2425 Y27.8494
G01 X31.2529 Y27.8451
G01 X31.2639 Y27.8423
G01 X31.2714 Y27.8414
G01 X31.2770 Y27.8412
G01 X32.8808 Y27.8413
G01 X32.8883 Y27.8420
G01 X32.8957 Y27.8435
G01 X32.9029 Y27.8457
G01 X32.9081 Y27.8478
G01 X32.9149 Y27.8512
G01 X32.9212 Y27.8552
G01 X32.9272 Y27.8598
G01 X32.9326 Y27.8650
G01 X32.9364 Y27.8693
G01 X32.9409 Y27.8753
G01 X32.9447 Y27.8818
G01 X32.9480 Y27.8886
G01 X32.9505 Y27.8957
G01 X32.9523 Y27.9030
G01 X32.9534 Y27.9105
G01 X32.9538 Y27.9180
G00 Z2.0000
G00 X32.9538 Y28.7180
G01 F60.00
G01 Z-0.1000
G01 F120.00
G01 X32.9536 Y29.2736
G01 X32.9519 Y29.2848
G01 X32.9487 Y29.2956
G01 X32.9438 Y29.3059
G01 X32.9375 Y29.3152
G01 X32.9300 Y29.3236
G01 X32.9212 Y29.3308
G01 X32.9115 Y29.3366
G01 X32.9011 Y29.3409
G01 X32.8901 Y29.3437
G01 X32.8826 Y29.3446
G01 X32.8770 Y29.3448
G01 X31.2751 Y29.3448
G01 X31.2639 Y29.3437
G01 X31.2583 Y29.3425
G01 X31.2511 Y29.3403
G01 X31.2408 Y29.3357
G01 X31.2313 Y29.3297
G01 X31.2227 Y29.3223
G01 X31.2153 Y29.3137
G01 X31.2111 Y29.3075
G01 X31.2084 Y29.3025
G01 X31.2041 Y29.2921
G01 X31.2013 Y29.2811
G01 X31.2004 Y29.2736
G01 X31.2002 Y29.2680
G01 X31.2004 Y28.7124
G01 X31.2021 Y28.7012
G01 X31.2053 Y28.6904
G01 X31.2102 Y28.6801
G01 X31.2165 Y28.6708
G01 X31.2240 Y28.6624
G01 X31.2328 Y28.6552
G01 X31.2425 Y28.6494
G01 X31.2529 Y28.6451
G01 X31.2639 Y28.6423
G01 X31.2714 Y28.6414
G01 X31.2770 Y28.6412
G01 X32.8808 Y28.6413
G01 X32.8883 Y28.6420
G01 X32.8957 Y28.6435
G01 X32.9029 Y28.6457
G01 X32.9081 Y28.6478
G01 X32.9149 Y28.6512
G01 X32.9212 Y28.6552
G01 X32.9272 Y28.6598
G01 X32.9326 Y28.6650
G01 X32.9364 Y28.6693
G01 X32.9409 Y28.6753
G01 X32.9447 Y28.6818
G01 X32.9480 Y28.6886
G01 X32.9505 Y28.6957
G01 X32.9523 Y28.7030
G01 X32.9534 Y28.7105
G01 X32.9538 Y28.7180
G00 Z2.0000
G00 X33.8788 Y29.6430
G01 F60.00
G01 Z-0.1000
G01 F120.00
G01 X33.8788 Y31.2430
G01 X33.8784 Y31.2505
G01 X33.8777 Y31.2561
G01 X33.8760 Y31.2635
G01 X33.8737 Y31.2706
G01 X33.8688 Y31.2809
G01 X33.8625 Y31.2902
G01 X33.8550 Y31.2986
G01 X33.8477 Y31.3047
G01 X33.8382 Y31.3107
G01 X33.8279 Y31.3153
G01 X33.8170 Y31.3183
G01 X33.8076 Y31.3196
G01 X33.2520 Y31.3198
G01 X33.2464 Y31.3196
G01 X33.2389 Y31.3187
G01 X33.2315 Y31.3170
G01 X33.2244 Y31.3147
G01 X33.2141 Y31.3098
G01 X33.2048 Y31.3035
G01 X33.1964 Y31.2960
G01 X33.1892 Y31.2872
G01 X33.1834 Y31.2775
G01 X33.1791 Y31.2671
G01 X33.1763 Y31.2561
G01 X33.1752 Y31.2449
G01 X33.1752 Y29.6430
G01 X33.1756 Y29.6355
G01 X33.1763 Y29.6299
G01 X33.1780 Y29.6225
G01 X33.1803 Y29.6154
G01 X33.1852 Y29.6051
G01 X33.1915 Y29.5958
G01 X33.1990 Y29.5874
G01 X33.2063 Y29.5813
G01 X33.2158 Y29.5753
G01 X33.2261 Y29.5707
G01 X33.2352 Y29.5681
G01 X33.2464 Y29.5664
G01 X33.8058 Y29.5663
G01 X33.8133 Y29.5670
G01 X33.8207 Y29.5685
G01 X33.8279 Y29.5707
G01 X33.8331 Y29.5728
G01 X33.8399 Y29.5762
G01 X33.8462 Y29.5802
G01 X33.8522 Y29.5848
G01 X33.8576 Y29.5900
G01 X33.8614 Y29.5943
G01 X33.8659 Y29.6003
G01 X33.8697 Y29.6068
G01 X33.8730 Y29.6136
G01 X33.8755 Y29.6207
G01 X33.8773 Y29.6280
G01 X33.8784 Y29.6355
G01 X33.8788 Y29.6430
G00 Z2.0000
G00 X32.5451 Y30.6339
G01 F60.00
G01 Z-0.1000
G01 F120.00
G01 X32.5426 Y30.6810
G01 X32.5345 Y30.7355
G01 X32.5211 Y30.7889
G01 X32.5026 Y30.8408
G01 X32.4790 Y30.8906
G01 X32.4507 Y30.9378
G01 X32.4179 Y30.9821
G01 X32.3809 Y31.0229
G01 X32.3401 Y31.0599
G01 X32.2958 Y31.0927
G01 X32.2486 Y31.1210
G01 X32.1988 Y31.1446
G01 X32.1469 Y31.1631
G01 X32.0935 Y31.1765
G01 X32.0390 Y31.1846
G01 X31.9840 Y31.1873
G01 X31.9290 Y31.1846
G01 X31.8745 Y31.1765
G01 X31.8211 Y31.1631
G01 X31.7692 Y31.1446
G01 X31.7194 Y31.1210
G01 X31.6722 Y31.0927
G01 X31.6279 Y31.0599
G01 X31.5871 Y31.0229
G01 X31.5501 Y30.9821
G01 X31.5173 Y30.9378
G01 X31.4890 Y30.8906
G01 X31.4654 Y30.8408
G01 X31.4469 Y30.7889
G01 X31.4335 Y30.7355
G01 X31.4254 Y30.6810
G01 X31.4227 Y30.6260
G01 X31.4254 Y30.5710
G01 X31.4335 Y30.5165
G01 X31.4469 Y30.4631
G01 X31.4654 Y30.4112
G01 X31.4890 Y30.3614
G01 X31.5173 Y30.3142
G01 X31.5501 Y30.2699
G01 X31.5871 Y30.2291
G01 X31.6279 Y30.1921
G01 X31.6722 Y30.1593
G01 X31.7194 Y30.1310
G01 X31.7692 Y30.1074
G01 X31.8211 Y30.0889
G01 X31.8745 Y30.0755
G01 X31.9290 Y30.0674
G01 X31.9840 Y30.0647
G01 X32.0390 Y30.0674
G01 X32.0935 Y30.0755
G01 X32.1469 Y30.0889
G01 X32.1988 Y30.1074
G01 X32.2486 Y30.1310
G01 X32.2958 Y30.1593
G01 X32.3401 Y30.1921
G01 X32.3809 Y30.2291
G01 X32.4179 Y30.2699
G01 X32.4507 Y30.3142
G01 X32.4790 Y30.3614
G01 X32.5026 Y30.4112
G01 X32.5211 Y30.4631
G01 X32.5345 Y30.5165
G01 X32.5426 Y30.5710
G01 X32.5451 Y30.6181
G01 X32.5451 Y30.6339
G00 Z2.0000
G00 X32.4607 Y30.6298
G01 F60.00
G01 Z-0.1000
G01 F120.00
G01 X32.4585 Y30.6727
G01 X32.4516 Y30.7190
G01 X32.4403 Y30.7644
G01 X32.4245 Y30.8085
G01 X32.4045 Y30.8508
G01 X32.3804 Y30.8909
G01 X32.3526 Y30.9285
G01 X32.3211 Y30.9631
G01 X32.2865 Y30.9946
G01 X32.2489 Y31.0224
G01 X32.2088 Y31.0465
G01 X32.1665 Y31.0665
G01 X32.1224 Y31.0823
G01 X32.0770 Y31.0936
G01 X32.0307 Y31.1005
G01 X31.9840 Y31.1028
G01 X31.9373 Y31.1005
G01 X31.8910 Y31.0936
G01 X31.8456 Y31.0823
G01 X31.8015 Y31.0665
G01 X31.7592 Y31.0465
G01 X31.7191 Y31.0224
G01 X31.6815 Y30.9946
G01 X31.6469 Y30.9631
G01 X31.6154 Y30.9285
G01 X31.5876 Y30.8909
G01 X31.5635 Y30.8508
G01 X31.5435 Y30.8085
G01 X31.5277 Y30.7644
G01 X31.5164 Y30.7190
G01 X31.5095 Y30.6727
G01 X31.5072 Y30.6260
G01 X31.5095 Y30.5793
G01 X31.5164 Y30.5330
G01 X31.5277 Y30.4876
G01 X31.5435 Y30.4435
G01 X31.5635 Y30.4012
G01 X31.5876 Y30.3611
G01 X31.6154 Y30.3235
G01 X31.6469 Y30.2889
G01 X31.6815 Y30.2574
